!!!!SEGMENT: pl-sa--151-a-iv-1--001_anonim--missa-kyrie.krn
!!!cenid: 17xx:1568
!!!COM: Anonim
!!!COM-rismid: pe30004985
!!!CDT:
!!!CNT:
!!!OPR: Missa
!!!OTL: Kyrie
!!!OMV: 001
!!!PDT:
!!!AGN: Sacred; Mass
!!!SMS-siglum: PL-SA
!!!SMS-shelfmark: 151/A IV 1
!!!SMS-shelfwork: 001-001 M
!!!SMS-variant:
!!!SMS-altvar:
!!!NIFC-rismid: 1001035511
!!!URL-scan: http://bc.bdsandomierz.pl/dlibra/publication/1537/edition/1505/content
!!!ONB-nifc: UWAGA: części Mszy: 1. Kyrie, 2. Gloria, 3. Credo, 4. Sanctus, 5. Agnus Dei
!!!key: D
**kern	**fba	**kern	**kern	**kern	**dynam	**kern	**text	**kern	**text	**kern	**text	**kern	**text	**kern	**kern	**kern
*part11	*part11	*part10	*part9	*part8	*part8	*part7	*part7	*part6	*part6	*part5	*part5	*part4	*part4	*part3	*part2	*part1
*staff11	*	*staff10	*staff9	*staff8	*	*staff7	*staff7	*staff6	*staff6	*staff5	*staff5	*staff4	*staff4	*staff3	*staff2	*staff1
*I"[Fundamento Generali]	*	*I"Alto Viola Basso	*I"Violino II	*I"Violino I	*	*I"Baſso.	*	*I"Tenor	*	*I"Alto.	*	*I"Canto	*	*I"[Tympana]	*I"Cl II	*I"Clarino Primo
*I'[org]	*	*I'b-vla	*I'vl II	*I'vl I	*	*I'B	*	*I'T	*	*I'A	*	*I'S	*	*I'[timp]	*I'clno II	*I'clno I
*ICklav	*	*ICstr	*ICstr	*ICstr	*	*ICvox	*	*ICvox	*	*ICvox	*	*ICvox	*	*ICidio	*ICbras	*ICbras
*Iorgan	*	*Iviolb	*Ivioln	*Ivioln	*	*Ibass	*	*Itenor	*	*Ialto	*	*Isoprn	*	*Itimpa	*Iclrno	*Iclrno
*clefF4	*	*clefF4	*clefG2	*clefG2	*	*clefF4	*	*clefC4	*	*clefC3	*	*clefC1	*	*clefF4	*clefG2	*clefG2
*	*	*	*	*	*	*	*	*	*	*	*	*	*	*	*ITrd-1c-2	*ITrd-1c-2
*k[f#c#]	*	*k[f#c#]	*k[f#c#]	*k[f#c#]	*	*k[f#c#]	*	*k[f#c#]	*	*k[f#c#]	*	*k[f#c#]	*	*k[f#c#]	*k[f#c#]	*k[f#c#]
*D:	*	*D:	*D:	*D:	*	*D:	*	*D:	*	*D:	*	*D:	*	*D:	*	*
*M4/4	*	*M4/4	*M4/4	*M4/4	*	*M4/4	*	*M4/4	*	*M4/4	*	*M4/4	*	*M4/4	*M4/4	*M4/4
*met(C.|)	*	*met(C)	*met(C.|)	*met(C.|)	*	*met(C.|)	*	*met(C.|)	*	*met(C.|)	*	*met(C.|)	*	*met(c)	*met(C.|)	*met(C.|)
=1	=1	=1	=1	=1	=1	=1	=1	=1	=1	=1	=1	=1	=1	=1	=1	=1
!LO:TX:t=P:problem:all\right,middle or left	!	!	!	!	!	!	!	!	!	!	!	!	!	!	!	!
!LO:TX:t=P:problem:mixed beam	!	!LO:TX:t=P:problem:mixed beam	!	!	!	!	!	!	!	!	!	!	!	!LO:TX:t=P:problem:brak partii kotłów w rękopisie; wymieniona na stronie tytułowej	!	!LO:TX:a:B:t=Allegro.
!	!	!	!	!	!	!	!	!LO:TX:B:t=Allo Adagio	!	!	!	!	!	!	!	!
!	!	!	!LO:TX:b:t=Kyrie	!LO:TX:b:t=Kyrie	!	!	!	!	!	!	!	!	!	!	!	!
!LO:TX:B:t=Allegro.	!	!LO:TX:B:t=Allegro	!	!LO:TX:B:t=Allegro	!	!	!	!	!	!	!	!	!	!	!LO:TX:b:t=Kyrie	!LO:TX:b:t=Kyrie
8d\L	.	8d\L	8dd\L	16d/LL	.	1r	.	1r	.	1r	.	1r	.	1ryy	1r	16d/LL
.	.	.	.	16f#/	.	.	.	.	.	.	.	.	.	.	.	16f#/
8D/J	.	8D/J	8d/J	16a/	.	.	.	.	.	.	.	.	.	.	.	16a/
.	.	.	.	16dd/JJ	.	.	.	.	.	.	.	.	.	.	.	16dd/JJ
8F#\L	.	8F#\L	4r	16d/LL	.	.	.	.	.	.	.	.	.	.	.	8a\L
.	.	.	.	16e/	.	.	.	.	.	.	.	.	.	.	.	.
8E\J	.	8E\J	.	16f#/	.	.	.	.	.	.	.	.	.	.	.	16dd\L
.	.	.	.	16g/JJ	.	.	.	.	.	.	.	.	.	.	.	16ee\JJ
8D\L	.	8D\L	2r	16a/LL	.	.	.	.	.	.	.	.	.	.	.	16ff#\LL
.	.	.	.	16g/	.	.	.	.	.	.	.	.	.	.	.	16ee\
8A\	.	8A\J	.	16f#/	.	.	.	.	.	.	.	.	.	.	.	16dd\
.	.	.	.	16e/JJ	.	.	.	.	.	.	.	.	.	.	.	16a\JJ
8d\	.	8d\L	.	8f#/L	.	.	.	.	.	.	.	.	.	.	.	8dd\L
8A\J	.	8A\J	.	8e/J	.	.	.	.	.	.	.	.	.	.	.	8a\J
=2	=2	=2	=2	=2	=2	=2	=2	=2	=2	=2	=2	=2	=2	=2	=2	=2
!LO:TX:t=P:problem:mixed beam	!	!LO:TX:t=P:problem:mixed beam	!	!	!	!	!	!LO:TX:a:t=10	!	!	!	!	!	!	!	!
!	!	!	!	!	!	!	!	!	!	!	!	!	!	!	!LO:TX:a:B:t=Allegro	!
8d\L	.	8d\L	16d/LL	8d/L	.	1r	.	1r	.	1r	.	1r	.	1ryy	16d/LL	16d/LL
.	.	.	16f#/	.	.	.	.	.	.	.	.	.	.	.	16f#/	16f#/
8D/J	.	8D/J	16a/	8A/J	.	.	.	.	.	.	.	.	.	.	16a/	16a/
.	.	.	16dd/JJ	.	.	.	.	.	.	.	.	.	.	.	16dd/JJ	16dd/JJ
8F#\L	.	8F#\L	16d/LL	16d/LL	.	.	.	.	.	.	.	.	.	.	8a\L	8a\L
.	.	.	16e/	16c#/	.	.	.	.	.	.	.	.	.	.	.	.
8E\J	.	8E\J	16f#/	16d/	.	.	.	.	.	.	.	.	.	.	16dd\L	16ff#\L
.	.	.	16g/JJ	16e/JJ	.	.	.	.	.	.	.	.	.	.	16ee\JJ	16gg\JJ
8D\L	.	8D\L	16a/LL	16f#/LL	.	.	.	.	.	.	.	.	.	.	16ff#\LL	16aa\LL
.	.	.	16g/	16e/	.	.	.	.	.	.	.	.	.	.	16ee\	16gg\
8A\	.	8A\	16f#/	16d/	.	.	.	.	.	.	.	.	.	.	16dd\	16ff#\
.	.	.	16e/JJ	16c#/JJ	.	.	.	.	.	.	.	.	.	.	16a\JJ	16ee\JJ
8d\	.	8d\	8f#/L	16d/LL	.	.	.	.	.	.	.	.	.	.	8dd\L	8ff#\L
.	.	.	.	16a/	.	.	.	.	.	.	.	.	.	.	.	.
8A\J	.	8A\J	8e/J	16a/	.	.	.	.	.	.	.	.	.	.	8a\J	8ee\J
.	.	.	.	16a/JJ	.	.	.	.	.	.	.	.	.	.	.	.
=3	=3	=3	=3	=3	=3	=3	=3	=3	=3	=3	=3	=3	=3	=3	=3	=3
8F#\L	6	8F#\L	16f#/LL	16dd\LL	.	1r	.	1r	.	1r	.	1r	.	1ryy	8.f#/L	8.dd\L
.	.	.	16f#/	16dd\	.	.	.	.	.	.	.	.	.	.	.	.
8E\	.	8E\	16g/	16cc#\	.	.	.	.	.	.	.	.	.	.	.	.
.	.	.	16g/JJ	16cc#\JJ	.	.	.	.	.	.	.	.	.	.	16a/Jk	16ee\Jk
8F#\	.	8F#\	16f#/LL	16dd\LL	.	.	.	.	.	.	.	.	.	.	16f#/LL	16dd\LL
.	.	.	16f#/	16dd\	.	.	.	.	.	.	.	.	.	.	16a/	16ee\
8E\J	.	8E\J	16a/	16ee\	.	.	.	.	.	.	.	.	.	.	16f#/	16dd\
.	.	.	16a/JJ	16ee\JJ	.	.	.	.	.	.	.	.	.	.	16a/JJ	16ee\JJ
8D\L	.	8D\L	8f#/L	8ff#\L	.	.	.	.	.	.	.	.	.	.	8dd\L	8ff#\L
16E\L	.	16E\L	16g/L	16f#/L	.	.	.	.	.	.	.	.	.	.	8dd\J	8ff#\J
16F#\JJ	.	16F#\JJ	16a/JJ	16g/JJ	.	.	.	.	.	.	.	.	.	.	.	.
16G\LL	.	16G\LL	16b\LL	16a\LL	.	.	.	.	.	.	.	.	.	.	4r	4r
16A\	.	16A\	16cc#\	16b\	.	.	.	.	.	.	.	.	.	.	.	.
16B\	.	16B\	16dd\	16cc#\	.	.	.	.	.	.	.	.	.	.	.	.
16c#\JJ	.	16c#\JJ	16ee\JJ	16dd\JJ	.	.	.	.	.	.	.	.	.	.	.	.
=4	=4	=4	=4	=4	=4	=4	=4	=4	=4	=4	=4	=4	=4	=4	=4	=4
!LO:TX:t=P:problem:mixed beam	!	!LO:TX:t=P:problem:mixed beam	!	!	!	!	!	!	!	!	!	!	!	!	!	!
8d\L	.	8d\L	16ff#\LL	16dd\LL	.	1r	.	1r	.	1r	.	1r	.	1ryy	8.f#/L	8.dd\L
.	.	.	16ff#\	16dd\	.	.	.	.	.	.	.	.	.	.	.	.
8D/J	.	8D/J	16ee\	16cc#\	.	.	.	.	.	.	.	.	.	.	.	.
.	.	.	16ee\JJ	16cc#\JJ	.	.	.	.	.	.	.	.	.	.	16a/Jk	16ee\Jk
8F#\L	.	8F#\L	16dd\LL	16dd\LL	.	.	.	.	.	.	.	.	.	.	16f#/LL	16dd\LL
.	.	.	16dd\	16dd\	.	.	.	.	.	.	.	.	.	.	16a/	16ee\
8E\J	.	8E\J	16cc#\	16ee\	.	.	.	.	.	.	.	.	.	.	16f#/	16dd\
.	.	.	16cc#\JJ	16ee\JJ	.	.	.	.	.	.	.	.	.	.	16a/JJ	16ee\JJ
!	!	!	!LO:TX:t=P:problem:mixed beam	!	!	!	!	!	!	!	!	!	!	!	!	!
8D\L	.	8D\L	16dd\LL	16ff#\LL	.	.	.	.	.	.	.	.	.	.	8dd\L	8ff#\L
.	.	.	16f#/	16f#/	.	.	.	.	.	.	.	.	.	.	.	.
16E\L	.	16E\L	16g/	16g/	.	.	.	.	.	.	.	.	.	.	8dd\J	8ff#\J
16F#\JJ	.	16F#\JJ	16a/JJ	16a/JJ	.	.	.	.	.	.	.	.	.	.	.	.
16G\LL	.	16G\LL	16b\LL	16b\LL	.	.	.	.	.	.	.	.	.	.	4r	4r
16A\	.	16A\	16cc#\	16cc#\	.	.	.	.	.	.	.	.	.	.	.	.
16B\	.	16B\	16dd\	16dd\	.	.	.	.	.	.	.	.	.	.	.	.
16c#\JJ	.	16c#\JJ	16ee\JJ	16ee\JJ	.	.	.	.	.	.	.	.	.	.	.	.
!	!	!LO:LB:g=original	!	!	!	!	!	!	!	!	!	!	!	!	!	!
=5	=5	=5	=5	=5	=5	=5	=5	=5	=5	=5	=5	=5	=5	=5	=5	=5
!LO:TX:t=P:problem:mixed beam	!	!LO:TX:t=P:problem:mixed beam	!	!	!	!	!	!	!	!	!	!	!	!	!	!
8d\L	.	8d\L	16ff#\LL	16ff#\LL	.	1r	.	1r	.	1r	.	1r	.	1ryy	4r	4r
.	.	.	16ff#\	16ff#\	.	.	.	.	.	.	.	.	.	.	.	.
8D/J	.	8D/J	16aa\	16aa\	.	.	.	.	.	.	.	.	.	.	.	.
.	.	.	16aa\JJ	16aa\JJ	.	.	.	.	.	.	.	.	.	.	.	.
4r	.	4r	16dd\LL	16dd\LL	.	.	.	.	.	.	.	.	.	.	8dd\L	8dd\L
.	.	.	16dd\	16dd\	.	.	.	.	.	.	.	.	.	.	.	.
.	.	.	16dd\	16dd\	.	.	.	.	.	.	.	.	.	.	16dd\L	16dd\L
.	.	.	16dd\JJ	16dd\JJ	.	.	.	.	.	.	.	.	.	.	16dd\JJ	16dd\JJ
!	!	!	!	!LO:LB:g=original	!	!	!	!	!	!	!	!	!	!	!	!
8D\L	6 4	8D/L	16gg\LL	16gg\LL	.	.	.	.	.	.	.	.	.	.	4r	4r
.	.	.	16gg\	16gg\	.	.	.	.	.	.	.	.	.	.	.	.
8D\J	.	8D/J	16bb\	16bb\	.	.	.	.	.	.	.	.	.	.	.	.
.	.	.	16bb\JJ	16bb\JJ	.	.	.	.	.	.	.	.	.	.	.	.
4r	.	4r	16dd\LL	16dd\LL	.	.	.	.	.	.	.	.	.	.	8dd\L	8dd\L
.	.	.	16dd\	16dd\	.	.	.	.	.	.	.	.	.	.	.	.
.	.	.	16dd\	16dd\	.	.	.	.	.	.	.	.	.	.	16dd\L	16dd\L
.	.	.	16dd\JJ	16dd\JJ	.	.	.	.	.	.	.	.	.	.	16dd\JJ	16dd\JJ
!LO:LB:g=original	!	!	!	!	!	!	!	!	!	!	!	!	!	!	!	!LO:LB:g=original
=6	=6	=6	=6	=6	=6	=6	=6	=6	=6	=6	=6	=6	=6	=6	=6	=6
!	!	!	!	!	!	!	!	!	!	!	!	!	!	!	!	!
!	!	!	!	!	!LO:DY:b:t=piano	!	!	!	!	!	!	!	!	!	!	!
8D\L	5 3	8D/L	16ff#\LL	16ff#\LL	p	1r	.	1r	.	1r	.	1r	.	1ryy	4r	4r
.	.	.	16ff#\	16ff#\	.	.	.	.	.	.	.	.	.	.	.	.
8D\J	.	8D/J	16aa\	16aa\	.	.	.	.	.	.	.	.	.	.	.	.
.	.	.	16aa\JJ	16aa\JJ	.	.	.	.	.	.	.	.	.	.	.	.
!	!	!	!LO:LB:g=original	!	!	!	!	!	!	!	!	!	!	!	!	!
4r	.	4r	16dd\LL	16dd\LL	.	.	.	.	.	.	.	.	.	.	8dd\L	8dd\L
.	.	.	16dd\	16dd\	.	.	.	.	.	.	.	.	.	.	.	.
.	.	.	16dd\	16dd\	.	.	.	.	.	.	.	.	.	.	16dd\L	16dd\L
.	.	.	16dd\JJ	16dd\JJ	.	.	.	.	.	.	.	.	.	.	16dd\JJ	16dd\JJ
8D\L	6 4	8D/L	16gg\LL	16gg\LL	.	.	.	.	.	.	.	.	.	.	4r	4r
.	.	.	16gg\	16gg\	.	.	.	.	.	.	.	.	.	.	.	.
8D\J	.	8D/J	16bb\	16bb\	.	.	.	.	.	.	.	.	.	.	.	.
.	.	.	16bb\JJ	16bb\JJ	.	.	.	.	.	.	.	.	.	.	.	.
4r	.	4r	16dd\LL	16dd\LL	.	.	.	.	.	.	.	.	.	.	8dd\L	8dd\L
.	.	.	16dd\	16dd\	.	.	.	.	.	.	.	.	.	.	.	.
.	.	.	16dd\	16dd\	.	.	.	.	.	.	.	.	.	.	16dd\L	16dd\L
.	.	.	16dd\JJ	16dd\JJ	.	.	.	.	.	.	.	.	.	.	16dd\JJ	16dd\JJ
=7	=7	=7	=7	=7	=7	=7	=7	=7	=7	=7	=7	=7	=7	=7	=7	=7
!	!	!	!	!	!LO:DY:b:t=for.	!	!	!	!	!	!	!	!	!	!	!
8G\L	3	8G\L	16gg\LL	16gg\LL	f	1r	.	1r	.	1r	.	1r	.	1ryy	2r	2r
.	.	.	16ff#\	16ff#\	.	.	.	.	.	.	.	.	.	.	.	.
8F#\	3	8F#\	16ee\	16ee\	.	.	.	.	.	.	.	.	.	.	.	.
.	.	.	16dd\JJ	16dd\JJ	.	.	.	.	.	.	.	.	.	.	.	.
8E\	3	8E\	16cc#\LL	16cc#\LL	.	.	.	.	.	.	.	.	.	.	.	.
.	.	.	16b\	16b\	.	.	.	.	.	.	.	.	.	.	.	.
8D\J	3	8D\J	16cc#\	16cc#\	.	.	.	.	.	.	.	.	.	.	.	.
.	.	.	16dd\JJ	16dd\JJ	.	.	.	.	.	.	.	.	.	.	.	.
!	!	!	!	!	!	!	!	!	!	!	!	!	!	!	!LO:LB:g=original	!
8A\L	.	8A\L	8ee\L	8ee\L	.	.	.	.	.	.	.	.	.	.	8a/L	8ee\L
16AA/L	.	16AA/L	8a\J	8a\J	.	.	.	.	.	.	.	.	.	.	16a/L	16ee\L
16BB/JJ	.	16BB/JJ	.	.	.	.	.	.	.	.	.	.	.	.	16a/JJ	16ee\JJ
8C#/L	.	8C#/L	4r	4r	.	.	.	.	.	.	.	.	.	.	8a/L	8ee\L
8AA/J	.	8AA/J	.	.	.	.	.	.	.	.	.	.	.	.	8a/J	8ee\J
=8	=8	=8	=8	=8	=8	=8	=8	=8	=8	=8	=8	=8	=8	=8	=8	=8
8D\L	.	8D/L	16f#/LL	16f#/LL	.	1r	.	1r	.	1r	.	1r	.	1ryy	4r	4r
.	.	.	16f#/	16f#/	.	.	.	.	.	.	.	.	.	.	.	.
8D\J	.	8D/J	16a/	16a/	.	.	.	.	.	.	.	.	.	.	.	.
.	.	.	16a/JJ	16a/JJ	.	.	.	.	.	.	.	.	.	.	.	.
4r	.	4r	16d/LL	16d/LL	.	.	.	.	.	.	.	.	.	.	8d/L	8d/L
.	.	.	16d/	16d/	.	.	.	.	.	.	.	.	.	.	.	.
.	.	.	16d/	16d/	.	.	.	.	.	.	.	.	.	.	16d/L	16d/L
.	.	.	16d/JJ	16d/JJ	.	.	.	.	.	.	.	.	.	.	16d/JJ	16d/JJ
8D\L	6 4	8D/L	16g/LL	16g/LL	.	.	.	.	.	.	.	.	.	.	4r	4r
.	.	.	16g/	16g/	.	.	.	.	.	.	.	.	.	.	.	.
8D\J	.	8D/J	16b/	16b/	.	.	.	.	.	.	.	.	.	.	.	.
.	.	.	16b/JJ	16b/JJ	.	.	.	.	.	.	.	.	.	.	.	.
4r	.	4r	16d/LL	16d/LL	.	.	.	.	.	.	.	.	.	.	8d/L	8d/L
.	.	.	16d/	16d/	.	.	.	.	.	.	.	.	.	.	.	.
.	.	.	16d/	16d/	.	.	.	.	.	.	.	.	.	.	16d/L	16d/L
.	.	.	16d/JJ	16d/JJ	.	.	.	.	.	.	.	.	.	.	16d/JJ	16d/JJ
=9	=9	=9	=9	=9	=9	=9	=9	=9	=9	=9	=9	=9	=9	=9	=9	=9
!	!	!	!	!	!LO:DY:b:t=piano	!	!	!	!	!	!	!	!	!	!	!
8D\L	.	8D/L	16f#/LL	16f#/LL	p	1r	.	1r	.	1r	.	1r	.	1ryy	4r	4r
.	.	.	16f#/	16f#/	.	.	.	.	.	.	.	.	.	.	.	.
8D\J	.	8D/J	16a/	16a/	.	.	.	.	.	.	.	.	.	.	.	.
.	.	.	16a/JJ	16a/JJ	.	.	.	.	.	.	.	.	.	.	.	.
4r	.	4r	16d/LL	16d/LL	.	.	.	.	.	.	.	.	.	.	8d/L	8d/L
.	.	.	16d/	16d/	.	.	.	.	.	.	.	.	.	.	.	.
.	.	.	16d/	16d/	.	.	.	.	.	.	.	.	.	.	16d/L	16d/L
.	.	.	16d/JJ	16d/JJ	.	.	.	.	.	.	.	.	.	.	16d/JJ	16d/JJ
8D\L	6 4	8D/L	16g/LL	16g/LL	.	.	.	.	.	.	.	.	.	.	4r	4r
.	.	.	16g/	16g/	.	.	.	.	.	.	.	.	.	.	.	.
8D\J	.	8D/J	16b/	16b/	.	.	.	.	.	.	.	.	.	.	.	.
.	.	.	16b/JJ	16b/JJ	.	.	.	.	.	.	.	.	.	.	.	.
4r	.	4r	16d/LL	16d/LL	.	.	.	.	.	.	.	.	.	.	8d/L	8d/L
.	.	.	16d/	16d/	.	.	.	.	.	.	.	.	.	.	.	.
.	.	.	16d/	16d/	.	.	.	.	.	.	.	.	.	.	16d/L	16d/L
.	.	.	16d/JJ	16d/JJ	.	.	.	.	.	.	.	.	.	.	16d/JJ	16d/JJ
=10	=10	=10	=10	=10	=10	=10	=10	=10	=10	=10	=10	=10	=10	=10	=10	=10
8d\L	.	8d\L	8dd\L	16d/LL	.	1r	.	1r	.	1r	.	1r	.	1ryy	1r	1r
!	!	!	!	!	!LO:DY:b:t=for.	!	!	!	!	!	!	!	!	!	!	!
.	.	.	.	16dd\	f	.	.	.	.	.	.	.	.	.	.	.
16c#\L	.	16c#\L	16cc#\L	16cc#\	.	.	.	.	.	.	.	.	.	.	.	.
16B\JJ	.	16B\JJ	16b\JJ	16b\JJ	.	.	.	.	.	.	.	.	.	.	.	.
16A\LL	.	16A\LL	16a/LL	16a/LL	.	.	.	.	.	.	.	.	.	.	.	.
16G\	.	16G\	16g/	16g/	.	.	.	.	.	.	.	.	.	.	.	.
16F#\	.	16F#\	16f#/	16f#/	.	.	.	.	.	.	.	.	.	.	.	.
16E\JJ	.	16E\JJ	16e/JJ	16e/JJ	.	.	.	.	.	.	.	.	.	.	.	.
!	!	!	!	!LO:LB:g=original	!	!	!	!	!	!	!	!	!	!	!	!
8D\L	6	8D\L	8d/L	8d/L	.	.	.	.	.	.	.	.	.	.	.	.
8G\	5	8G\J	8g/	8g/	.	.	.	.	.	.	.	.	.	.	.	.
!	!	!LO:LB:g=original	!	!	!	!	!	!	!	!	!	!	!	!	!	!
8A\	4	8A\L	8a/	8a/	.	.	.	.	.	.	.	.	.	.	.	.
8AA/J	3	8AA/J	8A/J	8A/J	.	.	.	.	.	.	.	.	.	.	.	.
=11	=11	=11	=11	=11	=11	=11	=11	=11	=11	=11	=11	=11	=11	=11	=11	=11
!LO:TX:a:i:t=Tutti.	!	!	!	!	!	!	!	!	!	!	!	!	!	!	!	!
!	!	!	!	!	!	!	!	!	!	!LO:TX:B:t=Adagio	!	!	!	!	!	!
!	!	!	!	!	!	!LO:TX:B:t=Adagio	!	!	!	!	!	!	!	!	!	!
!LO:TX:b:B:t=adagio	!	!LO:TX:B:t=Adagio	!LO:TX:B:t=Adagio	!LO:TX:B:t=Adagio.	!	!	!	!	!	!	!	!	!	!	!	!
4.D/	.	4.D/	8d/L	8d/L	.	4.D/	Ky-	4.A\	Ky-	4.f#\	Ky-	4.dd\	Ky-	1ryy	8r	8r
!	!	!	!	!	!	!	!	!	!	!	!	!	!	!	!LO:TX:a:i:t=Tutti.	!LO:TX:a:i:t=Tutti
!	!	!	!	!	!	!	!	!	!	!	!	!	!	!	!LO:TX:b:B:t=adagio	!LO:TX:b:B:t=adagio
.	.	.	8dd\	8ff#\	.	.	.	.	.	.	.	.	.	.	8dd\L	8ff#\L
.	.	.	8dd\	8ff#\	.	.	.	.	.	.	.	.	.	.	8dd\	8ff#\
8D/	.	8D/	8dd\J	8ff#\J	.	8D/	-ri-	8A\	-ri-	8f#\	-ri-	8dd\	-ri-	.	8dd\J	8ff#\J
2D/	.	2D/	4.dd\	4.ff#\	.	2D\	-e	2A\	-e	2f#\	-e	2dd\	-e	.	8dd\L	8ff#\L
.	.	.	.	.	.	.	.	.	.	.	.	.	.	.	8dd\	8ff#\
.	.	.	.	.	.	.	.	.	.	.	.	.	.	.	8dd\	8ff#\
.	.	.	8dd\	8ff#\	.	.	.	.	.	.	.	.	.	.	8dd\J	8ff#\J
=12	=12	=12	=12	=12	=12	=12	=12	=12	=12	=12	=12	=12	=12	=12	=12	=12
*	*	*	*	*	*	*	*ij	*	*ij	*	*ij	*	*ij	*	*	*
2BB/	5:6	2BB/	4.dd\	4.ff#\	.	4.BB/	Ky-	4.B\	Ky-	4.f#\	Ky-	4.cc#\	Ky-	1ryy	8dd\L	8ff#\L
.	.	.	.	.	.	.	.	.	.	.	.	.	.	.	8dd\	8ff#\
.	.	.	.	.	.	.	.	.	.	.	.	.	.	.	8dd\	8ff#\
.	.	.	8dd\	8ff#\	.	8BB/	-ri-	8B\	-ri-	8f#\	-ri-	16cc#\	-ri-	.	8dd\J	8ff#\J
.	.	.	.	.	.	.	.	.	.	.	.	16cc#\	-e	.	.	.
*	*	*	*	*	*	*	*	*	*	*	*	*	*Xij	*	*	*
4BB/	.	4BB/	8dd\L	8ff#\L	.	4BB/	-e	4.B\	-e	4f#\	-e	2dd\	e-	.	8dd\L	8ff#\L
*	*	*	*	*	*	*	*Xij	*	*Xij	*	*Xij	*	*	*	*	*
.	.	.	8b\	8dd\	.	.	.	.	.	.	.	.	.	.	8ee\	8aa\J
4GG/	5	4GG/	8ee\	8gg\	.	4GG/	e-	.	.	8g\L	e-	.	.	.	8ee\	16gg\LL
.	.	.	.	.	.	.	.	.	.	.	.	.	.	.	.	16aa\
.	.	.	8dd\J	8ff#\J	.	.	.	8B\	e-	8f#\J	.	.	.	.	8dd\J	16gg\
.	.	.	.	.	.	.	.	.	.	.	.	.	.	.	.	16ff#\JJ
!LO:LB:g=original	!	!	!LO:LB:g=original	!	!	!	!	!	!	!	!	!	!	!	!	!
=13	=13	=13	=13	=13	=13	=13	=13	=13	=13	=13	=13	=13	=13	=13	=13	=13
2AA/	.	2AA/	4cc#\	4ee\	.	4AA/	-lei-	4c#\	-ley-	4e\	-lei-	4.dd\	-le-	1ryy	8a/L	4ee\
.	.	.	.	.	.	.	.	.	.	.	.	.	.	.	16a/L	.
.	.	.	.	.	.	.	.	.	.	.	.	.	.	.	16a/JJ	.
.	.	.	4cc#\	4aa\	.	8GG/	-son	8A\	-son	8e\	-son	.	.	.	4a/	8aa\L
*	*	*	*	*	*	*	*ij	*	*	*	*	*	*	*	*	*
.	.	.	.	.	.	8A\	e-	8e\	e-	8a\	e-	8dd\	-y-	.	.	8aa\J
4A\	4 2	4A\	4.b\	4.aa\	.	(4A\	-lei-	[<2e\	-ley-	2b\	-lei-	4dd\	-son	.	4ee\	4ee\
4G#X\	.	4G#X\	.	.	.	4G#X\)	.	.	.	.	.	8ee\L	e-	.	4r	4r
.	.	.	8dd\	8bb\	.	.	.	.	.	.	.	8dd\J	.	.	.	.
=14	=14	=14	=14	=14	=14	=14	=14	=14	=14	=14	=14	=14	=14	=14	=14	=14
!	!	!	!	!	!	!	!	!LO:N:xstem:cue	!	!	!	!	!	!	!	!
4A\	.	4A\	4cc#\	4ee\	.	4A,\	-son	4e\]	.	4a,\	-son	4cc#\	-le-	1ryy	1r	1r
*	*	*	*	*	*	*	*	*	*	*	*ij	*	*	*	*	*
4D\	6 5	4D/	8dd\L	4ff#\	.	4D\	Ky-	4d\	-son	4f#\	Ky-	4cc#\	-y-	.	.	.
.	.	.	8cc#\J	.	.	.	.	.	.	.	.	.	.	.	.	.
2E\	5 #	2E\	4b\	4ee\	.	4E\	-ri-	2e\	e-	4g#X\	-ri-	4b\	-son	.	.	.
.	.	.	8b\L	8gg#X\L	.	8E\	-e	.	.	8g#,\	-e,	8ee\	e-	.	.	.
.	.	.	8b\J	8gg#\J	.	8E\	e-	.	.	8g#\	e-	8b\	-ley-	.	.	.
=15	=15	=15	=15	=15	=15	=15	=15	=15	=15	=15	=15	=15	=15	=15	=15	=15
2E\	6 4	2E\	4cc#\	4aa\	.	1E	-lei-	1e	-ley-	2a\	-le-	2cc#\	.	1ryy	2ee\	2aa\
.	.	.	4cc#\	4aa\	.	.	.	.	.	.	.	.	.	.	.	.
2E\	5 #	2E\	2b\	4aa\	.	.	.	.	.	2f#\	-i-	2b\	.	.	2ee\	2gg#X\
.	.	.	.	4gg#X\	.	.	.	.	.	.	.	.	.	.	.	.
!	!	!	!	!	!	!	!	!	!	!	!	!	!	!	!	!LO:LB:g=original
=16	=16	=16	=16	=16	=16	=16	=16	=16	=16	=16	=16	=16	=16	=16	=16	=16
!	!	!	!	!LO:TX:a:t=10	!	!	!	!	!	!	!	!	!	!	!LO:TX:a:B:t=Allegro.	!LO:TX:b:B:t=Allegro
!LO:TX:B:a:t=Allegro.	!	!LO:TX:B:a:t=Allegro.	!LO:TX:B:a:t=Allegro.	!LO:TX:B:b:t=Allegro.	!	!	!	!	!	!	!	!	!	!	!	!
!	!	!	!	!LO:TX:t=P:problem:mixed beam	!	!	!	!	!	!	!	!	!	!	!	!
8A\L	.	8A\L	4cc#\	16a/LL	.	8AA/	-son	8e\	-son	4e\	-son	4a\	-son	1ryy	8ee\	8aa\
*	*	*	*	*	*	*	*Xij	*	*	*	*Xij	*	*	*	*	*
.	.	.	.	16aa\	.	.	.	.	.	.	.	.	.	.	.	.
8AA/	.	8AA/	.	16gg\	.	8r	.	8r	.	.	.	.	.	.	8r	8r
.	.	.	.	16aa\JJ	.	.	.	.	.	.	.	.	.	.	.	.
8C#/	.	8C#/	4r	16a\LL	.	4r	.	2.ryy	.	4r	.	4r	.	.	4r	4r
.	.	.	.	16b\	.	.	.	.	.	.	.	.	.	.	.	.
8BB/J	.	8BB/J	.	16cc#\	.	.	.	.	.	.	.	.	.	.	.	.
.	.	.	.	16dd\JJ	.	.	.	.	.	.	.	.	.	.	.	.
!	!	!	!	!	!	!	!	!	!	!	!	!	!	!	!	!LO:TX:a:i:t=Solo
8AA/L	.	8AA/L	2r	16ee\LL	.	2ryy	.	.	.	2r	.	2r	.	.	2r	2r
.	.	.	.	16dd\	.	.	.	.	.	.	.	.	.	.	.	.
8E\J	#	8E\J	.	16cc#\	.	.	.	.	.	.	.	.	.	.	.	.
.	.	.	.	16b\JJ	.	.	.	.	.	.	.	.	.	.	.	.
8A\L	.	8A\L	.	8cc#\L	.	.	.	.	.	.	.	.	.	.	.	.
8E\J	#	8E\J	.	8b\J	.	.	.	.	.	.	.	.	.	.	.	.
!	!	!	!	!	!	!	!	!	!	!	!	!LO:LB:g=original	!	!	!	!
=17	=17	=17	=17	=17	=17	=17	=17	=17	=17	=17	=17	=17	=17	=17	=17	=17
8A\L	.	8A\L	16a\LL	8a/L	.	1r	.	1r	.	1r	.	1r	.	1ryy	1r	1r
.	.	.	16cc#\	.	.	.	.	.	.	.	.	.	.	.	.	.
8AA/	.	8AA/	16ee\	8e/J	.	.	.	.	.	.	.	.	.	.	.	.
.	.	.	16aa\JJ	.	.	.	.	.	.	.	.	.	.	.	.	.
8C#/	6	8C#/	16a\LL	16a/LL	.	.	.	.	.	.	.	.	.	.	.	.
.	.	.	16b\	16g#X/	.	.	.	.	.	.	.	.	.	.	.	.
8BB/J	.	8BB/J	16cc#\	16a/	.	.	.	.	.	.	.	.	.	.	.	.
.	.	.	16dd\JJ	16b/JJ	.	.	.	.	.	.	.	.	.	.	.	.
!	!	!	!	!	!	!	!	!	!	!	!	!	!	!	!	!
8AA/L	.	8AA/L	16ee\LL	16cc#/LL	.	.	.	.	.	.	.	.	.	.	.	.
.	.	.	16dd\	16b/	.	.	.	.	.	.	.	.	.	.	.	.
8E\J	#	8E\J	16cc#\	16a/	.	.	.	.	.	.	.	.	.	.	.	.
.	.	.	16b\JJ	16g#/JJ	.	.	.	.	.	.	.	.	.	.	.	.
8A\L	.	8A\L	8cc#\L	16a\LL	.	.	.	.	.	.	.	.	.	.	.	.
.	.	.	.	16ee\	.	.	.	.	.	.	.	.	.	.	.	.
8E\J	#	8E\J	8b\J	16ee\	.	.	.	.	.	.	.	.	.	.	.	.
.	.	.	.	16ee\JJ	.	.	.	.	.	.	.	.	.	.	.	.
!	!	!	!	!LO:LB:g=original	!	!	!	!LO:LB:g=original	!	!	!	!	!	!	!	!
=18	=18	=18	=18	=18	=18	=18	=18	=18	=18	=18	=18	=18	=18	=18	=18	=18
!	!	!	!	!	!	!	!	!LO:TX:a:t=9	!	!LO:TX:a:t=9	!	!	!	!	!	!
!	!	!	!	!	!	!	!	!LO:TX:B:t=Allo	!	!	!	!	!	!	!	!
8A\L	.	8A\L	16cc#\LL	16cc#\LL	.	1r	.	1r	.	1r	.	1r	.	1ryy	4r	4r
.	.	.	16cc#\	16cc#\	.	.	.	.	.	.	.	.	.	.	.	.
8AA/J	.	8AA/J	16ee\	16ee\	.	.	.	.	.	.	.	.	.	.	.	.
.	.	.	16ee\JJ	16ee\JJ	.	.	.	.	.	.	.	.	.	.	.	.
4r	.	4r	16a/LL	16a/LL	.	.	.	.	.	.	.	.	.	.	8a/L	8a/L
.	.	.	16a/	16a/	.	.	.	.	.	.	.	.	.	.	.	.
.	.	.	16a/	16a/	.	.	.	.	.	.	.	.	.	.	16a/L	16a/L
.	.	.	16a/JJ	16a/JJ	.	.	.	.	.	.	.	.	.	.	16a/JJ	16a/JJ
!	!	!	!	!	!	!	!	!	!	!	!	!	!	!	!LO:LB:g=original	!
8A\L	6 4	8A\L	16dd\LL	16dd\LL	.	.	.	.	.	.	.	.	.	.	4r	4r
.	.	.	16dd\	16dd\	.	.	.	.	.	.	.	.	.	.	.	.
8AA/J	.	8AA/J	16ff#\	16ff#\	.	.	.	.	.	.	.	.	.	.	.	.
.	.	.	16ff#\JJ	16ff#\JJ	.	.	.	.	.	.	.	.	.	.	.	.
4r	.	4r	16a/LL	16a/LL	.	.	.	.	.	.	.	.	.	.	8a/L	8a/L
.	.	.	16a/	16a/	.	.	.	.	.	.	.	.	.	.	.	.
.	.	.	16a/	16a/	.	.	.	.	.	.	.	.	.	.	16a/L	16a/L
.	.	.	16a/JJ	16a/JJ	.	.	.	.	.	.	.	.	.	.	16a/JJ	16a/JJ
!	!	!LO:LB:g=original	!	!	!	!	!	!	!	!	!	!	!	!	!	!
=19	=19	=19	=19	=19	=19	=19	=19	=19	=19	=19	=19	=19	=19	=19	=19	=19
8A\L	.	8A\L	16cc#\LL	16cc#\LL	.	1r	.	1r	.	1r	.	1r	.	1ryy	4r	4r
.	.	.	16cc#\	16cc#\	.	.	.	.	.	.	.	.	.	.	.	.
!	!	!	!	!	!LO:DY:b:t=piano	!	!	!	!	!	!	!	!	!	!	!
8AA/J	.	8AA/J	16ee\	16ee\	p	.	.	.	.	.	.	.	.	.	.	.
.	.	.	16ee\JJ	16ee\JJ	.	.	.	.	.	.	.	.	.	.	.	.
4r	.	4r	16a/LL	16a/LL	.	.	.	.	.	.	.	.	.	.	8a/L	8a/L
.	.	.	16a/	16a/	.	.	.	.	.	.	.	.	.	.	.	.
.	.	.	16a/	16a/	.	.	.	.	.	.	.	.	.	.	16a/L	16a/L
.	.	.	16a/JJ	16a/JJ	.	.	.	.	.	.	.	.	.	.	16a/JJ	16a/JJ
8A\L	.	8A\L	16dd\LL	16dd\LL	.	.	.	.	.	.	.	.	.	.	4r	4r
.	.	.	16dd\	16dd\	.	.	.	.	.	.	.	.	.	.	.	.
8AA/J	.	8AA/J	16ff#\	16ff#\	.	.	.	.	.	.	.	.	.	.	.	.
.	.	.	16ff#\JJ	16ff#\JJ	.	.	.	.	.	.	.	.	.	.	.	.
4r	.	4r	16a/LL	16a/LL	.	.	.	.	.	.	.	.	.	.	8a/L	8a/L
.	.	.	16a/	16a/	.	.	.	.	.	.	.	.	.	.	.	.
.	.	.	16a/	16a/	.	.	.	.	.	.	.	.	.	.	16a/L	16a/L
.	.	.	16a/JJ	16a/JJ	.	.	.	.	.	.	.	.	.	.	16a/JJ	16a/JJ
=20	=20	=20	=20	=20	=20	=20	=20	=20	=20	=20	=20	=20	=20	=20	=20	=20
8A\L	.	8A\L	8aa\L	8aa\L	.	1r	.	1r	.	1r	.	1r	.	1ryy	1r	1r
!	!	!	!	!	!LO:DY:b:t=for.	!	!	!	!	!	!	!	!	!	!	!
16G#X\L	.	16G\L	16gg#X\L	16gg#X\L	f	.	.	.	.	.	.	.	.	.	.	.
16F#\JJ	.	16F#\JJ	16ff#\JJ	16ff#\JJ	.	.	.	.	.	.	.	.	.	.	.	.
16E\LL	.	16E\LL	16ee\LL	16ee\LL	.	.	.	.	.	.	.	.	.	.	.	.
16D\	.	16D\	16dd\	16dd\	.	.	.	.	.	.	.	.	.	.	.	.
16C#\	.	16C#\	16cc#\	16cc#\	.	.	.	.	.	.	.	.	.	.	.	.
16BB\JJ	.	16BB\JJ	16b\JJ	16b\JJ	.	.	.	.	.	.	.	.	.	.	.	.
8AA/L	.	8AA/L	8a/L	8a/L	.	.	.	.	.	.	.	.	.	.	.	.
8E\J	#	8E\J	8e/J	8e/J	.	.	.	.	.	.	.	.	.	.	.	.
4A\	.	4A\	4A/	4A/	.	.	.	.	.	.	.	.	.	.	.	.
!LO:LB:g=original	!	!	!LO:LB:g=original	!	!	!	!	!	!	!	!	!	!	!	!	!
=21	=21	=21	=21	=21	=21	=21	=21	=21	=21	=21	=21	=21	=21	=21	=21	=21
!LO:TX:t=P:problem:mixed beam	!	!LO:TX:t=P:problem:mixed beam	!	!	!	!	!	!	!	!	!	!	!	!	!	!
8d\L	.	8d\L	8dd\L	16d/LL	.	1r	.	1r	.	1r	.	1r	.	1ryy	1r	16d/LL
.	.	.	.	16f#/	.	.	.	.	.	.	.	.	.	.	.	16f#/
8D/J	.	8D/J	8d/J	16a/	.	.	.	.	.	.	.	.	.	.	.	16a/
.	.	.	.	16dd/JJ	.	.	.	.	.	.	.	.	.	.	.	16dd/JJ
8F#\L	.	8F#\L	4r	16d/LL	.	.	.	.	.	.	.	.	.	.	.	8a\L
.	.	.	.	16e/	.	.	.	.	.	.	.	.	.	.	.	.
8E\J	.	8E\J	.	16f#/	.	.	.	.	.	.	.	.	.	.	.	16dd\L
.	.	.	.	16g/JJ	.	.	.	.	.	.	.	.	.	.	.	16ee\JJ
8D\L	.	8D\L	2r	16a/LL	.	.	.	.	.	.	.	.	.	.	.	16ff#\LL
.	.	.	.	16g/	.	.	.	.	.	.	.	.	.	.	.	16ee\
8A\	.	8A\	.	16f#/	.	.	.	.	.	.	.	.	.	.	.	16dd\
.	.	.	.	16e/JJ	.	.	.	.	.	.	.	.	.	.	.	16a\JJ
8d\	.	8d\	.	8f#/L	.	.	.	.	.	.	.	.	.	.	.	8dd\L
8A\J	.	8A\J	.	8e/J	.	.	.	.	.	.	.	.	.	.	.	8a\J
=22	=22	=22	=22	=22	=22	=22	=22	=22	=22	=22	=22	=22	=22	=22	=22	=22
!LO:TX:t=P:problem:mixed beam	!	!LO:TX:t=P:problem:mixed beam	!	!	!	!	!	!	!	!	!	!	!	!	!	!
8d\L	.	8d\L	16d/LL	8d/L	.	1r	.	1r	.	1r	.	1r	.	1ryy	16d/LL	16d/LL
.	.	.	16f#/	.	.	.	.	.	.	.	.	.	.	.	16f#/	16f#/
8D/J	.	8D/J	16a/	8A/J	.	.	.	.	.	.	.	.	.	.	16a/	16a/
.	.	.	16dd/JJ	.	.	.	.	.	.	.	.	.	.	.	16dd/JJ	16dd/JJ
8F#\L	.	8F#\L	16d/LL	16d/LL	.	.	.	.	.	.	.	.	.	.	8a\L	8a\L
.	.	.	16e/	16c#/	.	.	.	.	.	.	.	.	.	.	.	.
8E\J	.	8E\J	16f#/	16d/	.	.	.	.	.	.	.	.	.	.	16dd\L	16ff#\L
.	.	.	16g/JJ	16e/JJ	.	.	.	.	.	.	.	.	.	.	16ee\JJ	16gg\JJ
8D\L	.	8D\L	16a/LL	16f#/LL	.	.	.	.	.	.	.	.	.	.	16ff#\LL	16aa\LL
.	.	.	16g/	16e/	.	.	.	.	.	.	.	.	.	.	16ee\	16gg\
8A\	.	8A\	16f#/	16d/	.	.	.	.	.	.	.	.	.	.	16dd\	16ff#\
.	.	.	16e/JJ	16c#/JJ	.	.	.	.	.	.	.	.	.	.	16a\JJ	16ee\JJ
8d\	.	8d\	8f#/L	16d/LL	.	.	.	.	.	.	.	.	.	.	8dd\L	8ff#\L
.	.	.	.	16a/	.	.	.	.	.	.	.	.	.	.	.	.
8A\J	.	8A\J	8e/J	16a/	.	.	.	.	.	.	.	.	.	.	8a\J	8ee\J
.	.	.	.	16a/JJ	.	.	.	.	.	.	.	.	.	.	.	.
=23	=23	=23	=23	=23	=23	=23	=23	=23	=23	=23	=23	=23	=23	=23	=23	=23
8D\L	.	8D/L	16f#/LL	16f#/LL	.	1r	.	1r	.	1r	.	1r	.	1ryy	4r	4r
.	.	.	16f#/	16f#/	.	.	.	.	.	.	.	.	.	.	.	.
8D\J	.	8D/J	16a/	16a/	.	.	.	.	.	.	.	.	.	.	.	.
.	.	.	16a/JJ	16a/JJ	.	.	.	.	.	.	.	.	.	.	.	.
4r	.	4r	16d/LL	16d/LL	.	.	.	.	.	.	.	.	.	.	8dd\L	8dd\L
.	.	.	16d/	16d/	.	.	.	.	.	.	.	.	.	.	.	.
.	.	.	16d/	16d/	.	.	.	.	.	.	.	.	.	.	16dd\L	16dd\L
.	.	.	16d/JJ	16d/JJ	.	.	.	.	.	.	.	.	.	.	16dd\JJ	16dd\JJ
!	!	!	!	!LO:LB:g=original	!	!	!	!	!	!	!	!	!	!	!	!
8D\L	6 4	8D/L	16g/LL	16g/LL	.	.	.	.	.	.	.	.	.	.	4r	4r
.	.	.	16g/	16g/	.	.	.	.	.	.	.	.	.	.	.	.
8D\J	.	8D/J	16b/	16b/	.	.	.	.	.	.	.	.	.	.	.	.
.	.	.	16b/JJ	16b/JJ	.	.	.	.	.	.	.	.	.	.	.	.
4r	.	4r	16d/LL	16d/LL	.	.	.	.	.	.	.	.	.	.	8dd\L	8dd\L
.	.	.	16d/	16d/	.	.	.	.	.	.	.	.	.	.	.	.
.	.	.	16d/	16d/	.	.	.	.	.	.	.	.	.	.	16dd\L	16dd\L
.	.	.	16d/JJ	16d/JJ	.	.	.	.	.	.	.	.	.	.	16dd\JJ	16dd\JJ
=24	=24	=24	=24	=24	=24	=24	=24	=24	=24	=24	=24	=24	=24	=24	=24	=24
!	!	!	!	!	!LO:DY:b:t=piano	!	!	!	!	!	!	!	!	!	!	!
8D\L	.	8D/L	16f#/LL	16f#/LL	p	1r	.	1r	.	1r	.	1r	.	1ryy	4r	4r
.	.	.	16f#/	16f#/	.	.	.	.	.	.	.	.	.	.	.	.
8D\J	.	8D/J	16a/	16a/	.	.	.	.	.	.	.	.	.	.	.	.
.	.	.	16a/JJ	16a/JJ	.	.	.	.	.	.	.	.	.	.	.	.
4r	.	4r	16d/LL	16d/LL	.	.	.	.	.	.	.	.	.	.	8d/L	8d/L
.	.	.	16d/	16d/	.	.	.	.	.	.	.	.	.	.	.	.
.	.	.	16d/	16d/	.	.	.	.	.	.	.	.	.	.	16d/L	16d/L
.	.	.	16d/JJ	16d/JJ	.	.	.	.	.	.	.	.	.	.	16d/JJ	16d/JJ
!	!	!	!	!	!	!	!	!	!	!	!	!	!	!	!	!LO:LB:g=original
8D\L	.	8D/L	16g/LL	16g/LL	.	.	.	.	.	.	.	.	.	.	4r	4r
.	.	.	16g/	16g/	.	.	.	.	.	.	.	.	.	.	.	.
8D\J	.	8D/J	16b/	16b/	.	.	.	.	.	.	.	.	.	.	.	.
.	.	.	16b/JJ	16b/JJ	.	.	.	.	.	.	.	.	.	.	.	.
4r	.	4r	16d/LL	16d/LL	.	.	.	.	.	.	.	.	.	.	8d/L	8d/L
.	.	.	16d/	16d/	.	.	.	.	.	.	.	.	.	.	.	.
.	.	.	16d/	16d/	.	.	.	.	.	.	.	.	.	.	16d/L	16d/L
.	.	.	16d/JJ	16d/JJ	.	.	.	.	.	.	.	.	.	.	16d/JJ	16d/JJ
!	!	!LO:LB:g=original	!	!	!	!	!	!	!	!	!	!	!	!	!	!
=25	=25	=25	=25	=25	=25	=25	=25	=25	=25	=25	=25	=25	=25	=25	=25	=25
8d\L	.	8d\L	8dd\L	16d/LL	.	1r	.	1r	.	1r	.	1r	.	1ryy	1r	1r
.	.	.	.	16dd\	.	.	.	.	.	.	.	.	.	.	.	.
16c#\L	.	16c#\L	16cc#\L	16cc#\	.	.	.	.	.	.	.	.	.	.	.	.
16B\JJ	.	16B\JJ	16b\JJ	16b\JJ	.	.	.	.	.	.	.	.	.	.	.	.
16A\LL	.	16A\LL	16a/LL	16a/LL	.	.	.	.	.	.	.	.	.	.	.	.
16G\	.	16G\	16g/	16g/	.	.	.	.	.	.	.	.	.	.	.	.
16F#\	.	16F#\	16f#/	16f#/	.	.	.	.	.	.	.	.	.	.	.	.
16E\JJ	.	16E\JJ	16e/JJ	16e/JJ	.	.	.	.	.	.	.	.	.	.	.	.
8D\L	.	8D\L	8d/L	8d/L	.	.	.	.	.	.	.	.	.	.	.	.
8G\	.	8G\	8g/	8g/J	.	.	.	.	.	.	.	.	.	.	.	.
8A\	4	8A\	8a/	8a/L	.	.	.	.	.	.	.	.	.	.	.	.
8AA/J	3	8AA/J	8A/J	8A/J	.	.	.	.	.	.	.	.	.	.	.	.
!	!	!	!	!	!	!LO:LB:g=original	!	!	!	!	!	!	!	!	!	!
=26	=26	=26	=26	=26	=26	=26	=26	=26	=26	=26	=26	=26	=26	=26	=26	=26
!LO:TX:a:i:t=Tutti	!	!LO:TX:B:t=Addagio	!	!	!	!	!	!	!	!	!	!	!	!	!LO:TX:b:B:t=adagio	!LO:TX:b:B:t=adagio
!LO:TX:b:B:t=adagio	!	!	!LO:TX:B:t=Adagio	!LO:TX:B:t=Ada.	!	!LO:TX:B:t=Adagio	!	!LO:TX:B:t=Adagio	!	!LO:TX:B:t=Adagio	!	!	!	!	!	!
4.D/	.	4.D/	8d/L	8d/L	.	4.D\	Ky-	4.A\	Ky-	4.f#\	Ky-	4.dd\	Ky-	1ryy	8r	8r
!	!	!	!	!	!	!	!	!	!	!	!	!	!	!	!LO:TX:a:i:t=Tutti	!
.	.	.	8dd\	8ff#\	.	.	.	.	.	.	.	.	.	.	8dd\L	8ff#\L
.	.	.	8dd\	8ff#\	.	.	.	.	.	.	.	.	.	.	8dd\	8ff#\
!	!	!	!	!	!	!	!	!	!	!	!	!	!	!	!	!LO:TX:a:i:t=Tutti
8D/	.	8D/	8dd\J	8ff#\J	.	8D\	-ri-	8A\	-ri-	8f#\	-ri-	8dd\	-ri-	.	8dd\J	8ff#\J
!	!	!LO:TX:b:i:t=Tutti	!	!	!	!	!	!	!	!	!	!	!	!	!	!
2D/	.	2D/	4.dd\	4.ff#\	.	2D\	-e	2A\	-e	2f#\	-e	2dd\	-e	.	8dd\L	8ff#\L
.	.	.	.	.	.	.	.	.	.	.	.	.	.	.	8dd\	8ff#\
.	.	.	.	.	.	.	.	.	.	.	.	.	.	.	8dd\	8ff#\
.	.	.	8dd\	8ff#\	.	.	.	.	.	.	.	.	.	.	8dd\J	8ff#\J
=27	=27	=27	=27	=27	=27	=27	=27	=27	=27	=27	=27	=27	=27	=27	=27	=27
*	*	*	*	*	*	*	*ij	*	*ij	*	*	*	*ij	*	*	*
2BB/	5:6	2.BB/	4dd\	4ff#\	.	4.BB/	Ky-	4.B\	Ky-	4.f#\	Ky-	4.dd\	Ky-	1ryy	8dd\L	8ff#\L
.	.	.	.	.	.	.	.	.	.	.	.	.	.	.	8dd\	8ff#\
.	.	.	8dd\L	8ff#\L	.	.	.	.	.	.	.	.	.	.	8dd\	8ff#\
.	.	.	8dd\J	8ff#\J	.	8BB/	-ri-	8B\	-ri-	8f#\	-ri-	8dd\	-ri-	.	8dd\J	8ff#\J
!	!	!	!	!	!	!	!	!	!	!LO:LB:g=original	!	!	!	!	!	!
4BB/	.	.	8dd\L	4ff#\	.	4BB/	-e	4B\	-e	4f#\	-e	4dd\	-e	.	8dd\L	8ff#\L
.	.	.	8b\	.	.	.	.	.	.	.	.	.	.	.	8ee\	8gg\
*	*	*	*	*	*	*	*Xij	*	*Xij	*	*	*	*Xij	*	*	*
4GG/	5	4GG/	8ee\	8gg\L	.	4GG/	e-	4B\	e-	8g\L	e-	8ee\L	e-	.	8ee\	8gg\
.	.	.	8dd\J	8ee\J	.	.	.	.	.	8f#\J	.	8dd\J	.	.	8dd\J	8ff#\J
=28	=28	=28	=28	=28	=28	=28	=28	=28	=28	=28	=28	=28	=28	=28	=28	=28
2AA/	.	2AA/	4cc#\	4ee\	.	4AA/	-lei-	4c#\	-ley-	4e\	-lei-	4cc#\	-ley-	1ryy	4a/	4ee\
.	.	.	4cc#\	4aa\	.	4AA/	-son	4A\	-son	4e\	-son	4cc#\	-son	.	8a/L	8ee\L
.	.	.	.	.	.	.	.	.	.	.	.	.	.	.	8a/J	8ee\J
4.A\	.	4.A\	4.cc#\	4.ee\	.	4.A\	Ky-	4.A\	e-	4.e\	Ky-	4.cc#\	Ky-	.	4a/	4ee\
.	.	.	.	.	.	.	.	.	.	.	.	.	.	.	4a/	4ee\
8G\	.	8G\	8cc#\	8ee\	.	8G\	-ri-	8B\	-ley-	8e\	-ri-	8cc#\	-ri-	.	.	.
!LO:LB:g=original	!	!	!LO:LB:g=original	!	!	!	!	!	!	!	!	!	!	!	!LO:LB:g=original	!
=29	=29	=29	=29	=29	=29	=29	=29	=29	=29	=29	=29	=29	=29	=29	=29	=29
2F#\	6	2F#\	4a/	4dd\	.	4F#\	-e	4A\	-son	4f#\	-e	4dd\	-e	1ryy	4ff#\	4aa\
.	.	.	4a/	4ff#\	.	4F#\	e-	4d\	e-	4f#\	e-	4dd\	e-	.	8ff#\L	8ff#\L
.	.	.	.	.	.	.	.	.	.	.	.	.	.	.	8ff#\J	8aa\J
2E\	7:6	2E\	4b/	4.gg\	.	2E\	-lei-	2G/	-ley-	2e\	-lei-	4dd\	-ley-	.	4.ee\	4.gg\
.	.	.	4cc#/	.	.	.	.	.	.	.	.	4dd\	-son	.	.	.
.	.	.	.	8gg\	.	.	.	.	.	.	.	.	.	.	8ee\	8gg\
=30	=30	=30	=30	=30	=30	=30	=30	=30	=30	=30	=30	=30	=30	=30	=30	=30
2D/	.	2D/	4a/	4aa\	.	4D\	-son	4A\	-son	4f#\	-son	4dd\	Ky-	1ryy	4dd\	4ff#\
*	*	*	*	*	*	*	*ij	*	*	*	*ij	*	*	*	*	*
.	.	.	4a/	4ff#\	.	4D\	e-	4d\	e-	4f#\	e-	4a\	-ri-	.	4dd\	4ff#\
2Cn/	4 2	2C-X/	8a/L	8aa\L	.	2C-X/	-lei-	2B\	-ley-	4f#\	-le-	4a\	-e	.	4.dd\	4.ff#\
.	.	.	8ff#\	8aa\	.	.	.	.	.	.	.	.	.	.	.	.
.	.	.	8ff#\	8aa\	.	.	.	.	.	8g\L	-i-	8b\L	e-	.	.	.
.	.	.	8ff#\J	8aa\J	.	.	.	.	.	8a\J	.	8cc#\J	.	.	8dd\	8ff#\
=31	=31	=31	=31	=31	=31	=31	=31	=31	=31	=31	=31	=31	=31	=31	=31	=31
!	!	!	!	!	!	!	!	!	!	!	!	!	!	!	!LO:TX:t=P:problem:brak jednego taktu	!
2BB/	6	2BB/	4gg\	4dd\	.	4BB,/	-son	4d\	-son	4b,\	-son	4dd\	-le-	1ryy	1cc#yy	4.gg\
.	.	.	4b\	4gg\	.	4BB/	e-	4B\	e-	4g\	e-	4g\	-y-	.	.	.
.	.	.	.	.	.	.	.	.	.	.	.	.	.	.	.	8gg\
2AA/	7:6	2AA/	4.cc-X\	4.gg\	.	2AA/	-lei-	4c-X\	-ley-	(4g\	-lei-	2cc-X\	-son	.	.	4gg\
.	.	.	.	.	.	.	.	4A\	-son	4f#\)	.	.	.	.	.	4ff#\
.	.	.	8cc-\	8ff#\	.	.	.	.	.	.	.	.	.	.	.	.
!	!	!	!	!LO:LB:g=original	!	!	!	!	!	!	!	!	!	!	!	!
=32	=32	=32	=32	=32	=32	=32	=32	=32	=32	=32	=32	=32	=32	=32	=32	=32
*	*	*	*	*	*	*	*	*	*ij	*	*	*	*ij	*	*	*
4GG/	.	4GG/	4b\	4gg\	.	4GG,/	-son	4d\	Ky-	4g,\	-son	4b\	Ky-	1ryy	4dd\	4gg\
4G\	.	4G\	4gg\	8bb\L	.	4G\	Ky-	4d\	-ri-	4g\	Ky-	4b\	-ri-	.	4dd\	4gg\
.	.	.	.	8gg\J	.	.	.	.	.	.	.	.	.	.	.	.
4G\	#4 2	4G\	4cc#X\	4.aa\	.	4G\	-ri-	4c#X\	-e	4a\	-ri-	4cc#\	-e	.	4dd\	4.aa\
*	*	*	*	*	*	*	*	*	*Xij	*	*	*	*	*	*	*
4F#\	6	4F#\	4dd\	.	.	8F#\	-e	8A\	Ky-	8a,\	-e	8dd\	.	.	4r	.
.	.	.	.	8aa\	.	8F#\	e-	8A\	-ri-	8a\	e-	8dd\	e-	.	.	8aa\
=33	=33	=33	=33	=33	=33	=33	=33	=33	=33	=33	=33	=33	=33	=33	=33	=33
2E\	7:6|	2E\	4.ee\	4.gg\	.	2E\	-lei-	2G,/	-e	2g\	-lei-	(4dd\	-ley-	1ryy	2ee\	4.gg\
.	.	.	.	.	.	.	.	.	.	.	.	4cc#\)	.	.	.	.
.	.	.	8ee\	8gg\	.	.	.	.	.	.	.	.	.	.	.	16aa\LL
.	.	.	.	.	.	.	.	.	.	.	.	.	.	.	.	16gg\JJ
!	!	!	!	!	!	!	!	!	!	!	!	!LO:LB:g=original	!	!	!	!
4D\	.	4D\	4a/	4ff#\	.	4D\	-son	4A\	e-	4f#,\	-son	4dd\	-son	.	4dd\	4ff#\
*clefC4	*	*	*	*	*	*	*	*	*	*	*	*	*	*	*	*
*k[c#f#]	*	*	*	*	*	*	*	*	*	*	*	*	*	*	*	*
!LO:TX:t=P:problem: znaki przykluczowe kolejno: c#, f#	!	!	!	!	!	!	!	!	!	!	!	!	!	!	!	!
4d\	.	4r	4r	4r	.	4r	.	4c#\	-ley-	4f#\	e-	4a\	e-	.	4r	4r
=34	=34	=34	=34	=34	=34	=34	=34	=34	=34	=34	=34	=34	=34	=34	=34	=34
4d\	#4 2	1r	1r	1r	.	1r	.	4d\	-son	4e\	-lei-	4g#X\	-ley-	1ryy	1r	1r
*	*	*	*	*	*	*	*	*	*ij	*	*	*	*	*	*	*
4c#X\	6	.	.	.	.	.	.	8c#X\	e-	8e,\	-son	8g#\	.	.	.	.
!	!	!	!	!	!	!	!	!LO:LB:g=original	!	!	!	!	!	!	!	!
.	.	.	.	.	.	.	.	8c#\	-ley-	8a\	e-	16b\LL	.	.	.	.
.	.	.	.	.	.	.	.	.	.	.	.	16cc#\JJ	.	.	.	.
2B\	7:6|	.	.	.	.	.	.	2B\	-son	4a\	-le-	2dd\	.	.	.	.
.	.	.	.	.	.	.	.	.	.	4g#X\	-i-	.	.	.	.	.
*clefF4	*	*	*	*	*	*	*	*	*Xij	*	*	*	*	*	*	*
*k[f#c#]	*	*	*	*	*	*	*	*	*	*	*	*	*	*	*	*
!	!	!LO:LB:g=original	!	!	!	!	!	!	!	!	!	!	!	!	!	!
=35	=35	=35	=35	=35	=35	=35	=35	=35	=35	=35	=35	=35	=35	=35	=35	=35
4.A\	.	4.A\	4.cc#\	4.ee\	.	4.A\	Ky-	4A\	Ky-	4a,\	-son	4cc#\	-son	1ryy	4.a/	4.ee\
*	*	*	*	*	*	*	*	*	*	*	*Xij	*	*Xij	*	*	*
.	.	.	.	.	.	.	.	8A\	-ri-	8e\	Ky-	8cc#\	Ky-	.	.	.
8G\	.	8G\	8cc#\	8ee\	.	8G\	-ri-	8B\	-e-	8e\	-ri-	8cc#\	-ri-	.	8a/	16ff#\LL
.	.	.	.	.	.	.	.	.	.	.	.	.	.	.	.	16gg\JJ
!	!	!	!	!	!	!LO:LB:g=original	!	!	!	!	!	!	!	!	!	!
2F#\	6	2F#\	4a/	4dd\	.	4F#\	-e	4A\	-ley-	4f#\	-e	4dd\	-e	.	4ff#\	4aa\
!	!	!	!	!	!	!	!	!	!	!LO:LB:g=original	!	!	!	!	!	!
.	.	.	4a/	4dd\	.	4F#\	e-	4A\	-son	4f#\	e-	4dd\	e-	.	4ff#\	4aa\
=36	=36	=36	=36	=36	=36	=36	=36	=36	=36	=36	=36	=36	=36	=36	=36	=36
2B\	6	2B\	8g/L	8dd\L	.	4B\	-lei-	4B\	ky-	4f#\	-lei-	4dd\	-le-	1ryy	4gg\	4.dd\
.	.	.	8b/J	8dd\J	.	.	.	.	.	.	.	.	.	.	.	.
.	.	.	8b\L	8dd\L	.	8B,\	-son	8B\	-ri-	8f#,\	-son	8dd\	-y-	.	4gg\	.
.	.	.	16cc#\L	16ee\L	.	8B\	Ky-	8B\	-e-	8f#\	e-	8dd\	-son	.	.	16ee\LL
.	.	.	16dd\JJ	16ff#\JJ	.	.	.	.	.	.	.	.	.	.	.	16ff#\JJ
!	!	!	!	!	!	!	!	!	!	!	!	!	!	!	!	!LO:LB:g=original
2E\	7 #	2E/	4ee\	4gg\	.	4E\	-ri-	4B\	-le-	2g\	-le-	(2dd\	e-	.	4ee\	4gg\
.	.	.	4ee\	4gg\	.	8E,\	-e	8B\	-y-	.	.	.	.	.	4ee\	8gg\L
.	.	.	.	.	.	8E\	Ky-	8B\	-son	.	.	.	.	.	.	8ff#\J
=37	=37	=37	=37	=37	=37	=37	=37	=37	=37	=37	=37	=37	=37	=37	=37	=37
!	!	!LO:TX:t=P:problem:brak jednego taktu	!	!	!	!	!	!	!	!	!	!	!	!	!	!
2A\	.	2A\yy	8a/L	8cc#\L	.	4A\	-ri-	4A\	ky-	2g\	-i-	2cc#\)	-le-	1ryy	4a/	4ee\
.	.	.	8a/J	8cc#\J	.	.	.	.	.	.	.	.	.	.	.	.
.	.	.	8a/L	8cc#\L	.	8A,\	-e	8A\	-ri-	.	.	.	.	.	4a/	4ee\
*	*	*	*	*	*	*	*Xij	*	*	*	*	*	*	*	*	*
.	.	.	16b/L	16dd\L	.	8A\	e-	8A\	-e	.	.	.	.	.	.	.
.	.	.	16cc#/JJ	16ee\JJ	.	.	.	.	.	.	.	.	.	.	.	.
4D\	.	4D\yy	4dd\	4ff#\	.	(4D\	-lei-	4A\	e-	4f#\	-son	4dd\	-y-	.	4dd\	4ff#\
4G\	6 5	4G\yy	8dd\L	8ee\L	.	4G\)	.	4B\	-ley-	4f#\	e-	4dd\	-son	.	4a/	8ee\L
.	.	.	8ee\J	8gg\J	.	.	.	.	.	.	.	.	.	.	.	8ee\J
=38	=38	=38	=38	=38	=38	=38	=38	=38	=38	=38	=38	=38	=38	=38	=38	=38
2A\	.	2A\	2dd\	2ff#\	.	2A\	.	1A	.	1e	-lei-	2dd\	e-	1ryy	2dd\	2ff#\
2AA/	.	2AA/	2cc#\	2ee\	.	2AA/	.	.	.	.	.	2cc#\	-ley-	.	2a/	2ee\
=39	=39	=39	=39	=39	=39	=39	=39	=39	=39	=39	=39	=39	=39	=39	=39	=39
1D	.	1D	1dd	1ff#	.	1D	-son	1A	-son	1f#	-son	1dd	-son	1ryy	1dd	1ff#
!LO:LB:g=original	!	!	!	!	!	!	!	!	!	!	!	!	!	!	!	!
=40||	=40||	=40||	=40||	=40||	=40||	=40||	=40||	=40||	=40||	=40||	=40||	=40||	=40||	=40||	=40||	=40||
*M4/4	*	*M4/4	*M4/4	*M4/4	*	*M4/4	*	*M4/4	*	*M4/4	*	*M4/4	*	*M4/4	*M4/4	*M4/4
*met(C.|)	*	*met(C)	*met(C.|)	*met(C.|)	*	*met(C.|)	*	*met(C.|)	*	*met(C.|)	*	*met(C.|)	*	*met(c)	*met(C.|)	*met(C.|)
!	!	!	!	!	!	!	!	!	!	!	!	!	!	!	!LO:TX:a:B:t=Allegro	!LO:TX:a:B:t=Allegro
!LO:TX:B:t=Allegro.	!	!LO:TX:B:t=Allegro	!LO:TX:B:t=Allegro	!LO:TX:B:t=Allegro	!	!LO:TX:B:t=Allegro	!	!	!	!LO:TX:B:t=Allegro	!	!LO:TX:B:t=All(egr)o	!	!	!	!
!	!	!	!LO:TX:b:t=Kyrie et Dona nobis	!LO:TX:b:t=Kyrie	!	!	!	!	!	!	!	!	!	!	!	!
8D\L	.	8D\L	8dd\L	16aa\LL	.	1r	.	1r	.	1r	.	1r	.	1ryy	1r	1r
!	!	!	!	!	!	!	!	!	!	!	!	!	!	!	!LO:TX:b::t=Kyrie	!LO:TX:b::t=Kyrie
.	.	.	.	16gg\	.	.	.	.	.	.	.	.	.	.	.	.
8E\	.	8E\	8cc#\	16ff#\	.	.	.	.	.	.	.	.	.	.	.	.
.	.	.	.	16ee\JJ	.	.	.	.	.	.	.	.	.	.	.	.
!	!	!	!	!LO:TX:t=P:problem:skreślenia, nuty niewidoczne, takt niepełny	!	!	!	!	!	!	!	!	!	!	!	!
8F#\	.	8F#\	8dd\	8dd\L	.	.	.	.	.	.	.	.	.	.	.	.
8D\J	.	8D\J	8ff#\J	8aa\J	.	.	.	.	.	.	.	.	.	.	.	.
8G\L	.	8G\L	8gg\L	4r	.	.	.	.	.	.	.	.	.	.	.	.
8F#\	.	8F#\	8dd\	.	.	.	.	.	.	.	.	.	.	.	.	.
8G\	.	8G\	8b\	8dd\	.	.	.	.	.	.	.	.	.	.	.	.
8F#\J	.	8F#\J	8dd\J	8r	.	.	.	.	.	.	.	.	.	.	.	.
=41	=41	=41	=41	=41	=41	=41	=41	=41	=41	=41	=41	=41	=41	=41	=41	=41
!	!	!	!LO:TX:a:i:t=Solo	!	!	!	!	!	!	!	!	!	!	!	!	!
8E/L	.	8E/L	8b/	16gg\LL	.	1r	.	1r	.	1r	.	1r	.	1ryy	1r	1r
.	.	.	.	(16ff#\	.	.	.	.	.	.	.	.	.	.	.	.
8D/	.	8D/	8r	16gg\)	.	.	.	.	.	.	.	.	.	.	.	.
.	.	.	.	16ee\JJ	.	.	.	.	.	.	.	.	.	.	.	.
8C#/	.	8C#/	8r	16gg\LL	.	.	.	.	.	.	.	.	.	.	.	.
.	.	.	.	(16ff#\	.	.	.	.	.	.	.	.	.	.	.	.
!	!	!LO:TX:b:t=a	!	!	!	!	!	!	!	!	!	!	!	!	!	!
8AA/J	.	8AA/J	8cc#\	16gg\)	.	.	.	.	.	.	.	.	.	.	.	.
.	.	.	.	16ee\JJ	.	.	.	.	.	.	.	.	.	.	.	.
!	!	!	!LO:TX:t=P:problem:mixed beam	!	!	!	!	!	!	!	!	!	!	!	!	!
!	!	!	!	!LO:LB:g=original	!	!	!	!	!	!	!	!	!	!	!	!
8D\L	.	8D\L	8dd\L	8ff#\L	.	.	.	.	.	.	.	.	.	.	.	.
8E\	.	8E\	16f#/L	8dd\J	.	.	.	.	.	.	.	.	.	.	.	.
.	.	.	16g/JJ	.	.	.	.	.	.	.	.	.	.	.	.	.
8F#\	.	8F#\	8a/L	8r	.	.	.	.	.	.	.	.	.	.	.	.
8D\J	.	8D\J	8f#/J	8d/	.	.	.	.	.	.	.	.	.	.	.	.
=42	=42	=42	=42	=42	=42	=42	=42	=42	=42	=42	=42	=42	=42	=42	=42	=42
8E/L	.	8E/L	8B/	(16g/LL	.	1r	.	1r	.	1r	.	1r	.	1ryy	1r	1r
.	.	.	.	16f#/	.	.	.	.	.	.	.	.	.	.	.	.
8D/	.	8D/	8r	16g/)	.	.	.	.	.	.	.	.	.	.	.	.
.	.	.	.	16e/JJ	.	.	.	.	.	.	.	.	.	.	.	.
8C#/	.	8C#/	8c#/	(16g/LL	.	.	.	.	.	.	.	.	.	.	.	.
.	.	.	.	16f#/	.	.	.	.	.	.	.	.	.	.	.	.
8AA/J	.	8AA/J	8r	16g/)	.	.	.	.	.	.	.	.	.	.	.	.
.	.	.	.	16e/JJ	.	.	.	.	.	.	.	.	.	.	.	.
4D/	.	4D/	4d/	8f#/L	.	.	.	.	.	.	.	.	.	.	.	.
.	.	.	.	16d/L	.	.	.	.	.	.	.	.	.	.	.	.
.	.	.	.	16e/JJ	.	.	.	.	.	.	.	.	.	.	.	.
4r	.	4r	4r	16f#/LL	.	.	.	.	.	.	.	.	.	.	.	.
.	.	.	.	16g/	.	.	.	.	.	.	.	.	.	.	.	.
.	.	.	.	16a/	.	.	.	.	.	.	.	.	.	.	.	.
.	.	.	.	16b/JJ	.	.	.	.	.	.	.	.	.	.	.	.
=43	=43	=43	=43	=43	=43	=43	=43	=43	=43	=43	=43	=43	=43	=43	=43	=43
8F#\L	-5_ 3_	8F#\L	8a/L	16cc-X\LL	.	1r	.	1r	.	1r	.	1r	.	1ryy	1r	1r
.	.	.	.	(16b\	.	.	.	.	.	.	.	.	.	.	.	.
8F#\	.	8F#\	8a/	16cc-\)	.	.	.	.	.	.	.	.	.	.	.	.
.	.	.	.	16b\JJ	.	.	.	.	.	.	.	.	.	.	.	.
8F#\	.	8F#\	8a/	16cc-\LL	.	.	.	.	.	.	.	.	.	.	.	.
.	.	.	.	(16b\	.	.	.	.	.	.	.	.	.	.	.	.
8F#\J	.	8F#\J	8a/J	16cc-\)	.	.	.	.	.	.	.	.	.	.	.	.
.	.	.	.	16a\JJ	.	.	.	.	.	.	.	.	.	.	.	.
4G\	.	4G\	4d/	8b/L	.	.	.	.	.	.	.	.	.	.	.	.
.	.	.	.	16e/L	.	.	.	.	.	.	.	.	.	.	.	.
.	.	.	.	16f#/JJ	.	.	.	.	.	.	.	.	.	.	.	.
4r	.	4r	4r	16g#X/LL	.	.	.	.	.	.	.	.	.	.	.	.
.	.	.	.	16a/	.	.	.	.	.	.	.	.	.	.	.	.
.	.	.	.	16b/	.	.	.	.	.	.	.	.	.	.	.	.
.	.	.	.	16cc-/JJ	.	.	.	.	.	.	.	.	.	.	.	.
!	!	!LO:LB:g=original	!	!	!	!	!	!	!	!	!	!	!	!	!	!
=44	=44	=44	=44	=44	=44	=44	=44	=44	=44	=44	=44	=44	=44	=44	=44	=44
8G#X\L	5_3_	8G#X\L	8b/L	(16dd\LL	.	1r	.	1r	.	1r	.	1r	.	1ryy	1r	1r
.	.	.	.	16cc#\)	.	.	.	.	.	.	.	.	.	.	.	.
8G#\	.	8G#\	8b/	(16dd\	.	.	.	.	.	.	.	.	.	.	.	.
.	.	.	.	16b\JJ)	.	.	.	.	.	.	.	.	.	.	.	.
8G#\	.	8G#\	8b/	(16dd\LL	.	.	.	.	.	.	.	.	.	.	.	.
.	.	.	.	16cc#\)	.	.	.	.	.	.	.	.	.	.	.	.
8G#\J	.	8G#\J	8b/J	(16dd\	.	.	.	.	.	.	.	.	.	.	.	.
.	.	.	.	16b\JJ)	.	.	.	.	.	.	.	.	.	.	.	.
4A\	.	4A\	4e/	8cc#\L	.	.	.	.	.	.	.	.	.	.	.	.
.	.	.	.	16a\L	.	.	.	.	.	.	.	.	.	.	.	.
.	.	.	.	16b\JJ	.	.	.	.	.	.	.	.	.	.	.	.
4r	.	4r	4r	16cc#\LL	.	.	.	.	.	.	.	.	.	.	.	.
.	.	.	.	16dd\	.	.	.	.	.	.	.	.	.	.	.	.
.	.	.	.	16ee\	.	.	.	.	.	.	.	.	.	.	.	.
.	.	.	.	16ff#\JJ	.	.	.	.	.	.	.	.	.	.	.	.
=45	=45	=45	=45	=45	=45	=45	=45	=45	=45	=45	=45	=45	=45	=45	=45	=45
8AA/L	7	8AA/L	8cc#\L	(16gg\LL	.	1r	.	1r	.	1r	.	1r	.	1ryy	1r	1r
.	.	.	.	16ff#\)	.	.	.	.	.	.	.	.	.	.	.	.
8AA/	.	8AA/	8cc#\	(16gg\	.	.	.	.	.	.	.	.	.	.	.	.
.	.	.	.	16ee\JJ)	.	.	.	.	.	.	.	.	.	.	.	.
8AA/	.	8AA/	8cc#\	(16gg\LL	.	.	.	.	.	.	.	.	.	.	.	.
.	.	.	.	16ff#\)	.	.	.	.	.	.	.	.	.	.	.	.
8AA/J	.	8AA/J	8cc#\J	(16gg\	.	.	.	.	.	.	.	.	.	.	.	.
.	.	.	.	16ee\JJ)	.	.	.	.	.	.	.	.	.	.	.	.
8D\L	.	8D\L	8dd\L	8ff#\L	.	.	.	.	.	.	.	.	.	.	.	.
8G\	.	8G\	8b\	8a/J	.	.	.	.	.	.	.	.	.	.	.	.
8A\	.	8A\	8a\	8.cc#\L	.	.	.	.	.	.	.	.	.	.	.	.
8AA/J	.	8AA/J	8g\J	.	.	.	.	.	.	.	.	.	.	.	.	.
.	.	.	.	16cc#\Jk	.	.	.	.	.	.	.	.	.	.	.	.
=46	=46	=46	=46	=46	=46	=46	=46	=46	=46	=46	=46	=46	=46	=46	=46	=46
8D\L	.	8D\L	4f#/	4dd\	.	1r	.	1r	.	16a\LL	Ky-	1r	.	1ryy	1r	1r
.	.	.	.	.	.	.	.	.	.	16g\JJ	.	.	.	.	.	.
8E\	.	8E\	.	.	.	.	.	.	.	16f#\LL	-ri-	.	.	.	.	.
.	.	.	.	.	.	.	.	.	.	16e\JJ	.	.	.	.	.	.
8F#\	.	8F#\	4r	4r	.	.	.	.	.	8d\	-e	.	.	.	.	.
8D\J	.	8D\J	.	.	.	.	.	.	.	8a\	e-	.	.	.	.	.
8G\L	.	8G\L	8r	8r	.	.	.	.	.	8b\	-lei-	.	.	.	.	.
8F#\	.	8F#\	8d/L	8a/L	.	.	.	.	.	8a\	-son	.	.	.	.	.
8G\	.	8G\	8d/	8b/	.	.	.	.	.	8r	.	.	.	.	.	.
8F#\J	.	8F#\J	8d/J	8a/J	.	.	.	.	.	8d\	e-	.	.	.	.	.
!	!	!	!	!LO:LB:g=original	!	!	!	!	!	!	!	!	!	!	!	!
=47	=47	=47	=47	=47	=47	=47	=47	=47	=47	=47	=47	=47	=47	=47	=47	=47
8E/L	.	8E/L	2r	2r	.	1r	.	1r	.	16g\LL	-lei-	1r	.	1ryy	1r	1r
.	.	.	.	.	.	.	.	.	.	16f#\	.	.	.	.	.	.
8D/	.	8D/	.	.	.	.	.	.	.	16g\	.	.	.	.	.	.
.	.	.	.	.	.	.	.	.	.	16e\JJ	.	.	.	.	.	.
8C#/	.	8C#/	.	.	.	.	.	.	.	16g\LL	.	.	.	.	.	.
.	.	.	.	.	.	.	.	.	.	16f#\	.	.	.	.	.	.
8AA/J	.	8AA/J	.	.	.	.	.	.	.	16g\	.	.	.	.	.	.
.	.	.	.	.	.	.	.	.	.	16e\JJ	.	.	.	.	.	.
!LO:LB:g=original	!	!	!	!	!	!	!	!	!	!	!	!	!	!	!	!
8D\L	.	8D\L	4a/	8f#/L	.	.	.	.	.	8f#\	.	.	.	.	.	.
8E\	.	8E\	.	16d/L	.	.	.	.	.	8d\	-son	.	.	.	.	.
.	.	.	.	16e/JJ	.	.	.	.	.	.	.	.	.	.	.	.
8F#\	.	8F#\	4r	16f#/LL	.	.	.	.	.	4r	.	.	.	.	.	.
.	.	.	.	16g/	.	.	.	.	.	.	.	.	.	.	.	.
8D\J	.	8D\J	.	16a/	.	.	.	.	.	.	.	.	.	.	.	.
.	.	.	.	16b/JJ	.	.	.	.	.	.	.	.	.	.	.	.
=48	=48	=48	=48	=48	=48	=48	=48	=48	=48	=48	=48	=48	=48	=48	=48	=48
8F#\L	-5_ 3_	8F#\L	8a/L	(16cc-X\LL	.	1r	.	1r	.	1r	.	1r	.	1ryy	1r	1r
.	.	.	.	16b\)	.	.	.	.	.	.	.	.	.	.	.	.
8F#\	.	8F#\	8a/	(16cc-\	.	.	.	.	.	.	.	.	.	.	.	.
.	.	.	.	16b\JJ)	.	.	.	.	.	.	.	.	.	.	.	.
8F#\	.	8F#\	8a/	(16cc-\LL	.	.	.	.	.	.	.	.	.	.	.	.
.	.	.	.	16b\)	.	.	.	.	.	.	.	.	.	.	.	.
8F#\J	.	8F#\J	8a/J	(16cc-\	.	.	.	.	.	.	.	.	.	.	.	.
.	.	.	.	16a\JJ)	.	.	.	.	.	.	.	.	.	.	.	.
4G\	.	4G\	4d/	8b/L	.	.	.	.	.	.	.	.	.	.	.	.
.	.	.	.	16e/L	.	.	.	.	.	.	.	.	.	.	.	.
.	.	.	.	16f#/JJ	.	.	.	.	.	.	.	.	.	.	.	.
4r	.	4r	4r	16g#X/LL	.	.	.	.	.	.	.	.	.	.	.	.
.	.	.	.	16a/	.	.	.	.	.	.	.	.	.	.	.	.
.	.	.	.	16b/	.	.	.	.	.	.	.	.	.	.	.	.
.	.	.	.	16cc-/JJ	.	.	.	.	.	.	.	.	.	.	.	.
=49	=49	=49	=49	=49	=49	=49	=49	=49	=49	=49	=49	=49	=49	=49	=49	=49
8G#X\L	5_ 3_	8G#X\L	8b\L	(16dd\LL	.	1r	.	1r	.	1r	.	1r	.	1ryy	1r	1r
.	.	.	.	16cc#\)	.	.	.	.	.	.	.	.	.	.	.	.
8G#\	.	8G#\	8b\	(16dd\	.	.	.	.	.	.	.	.	.	.	.	.
.	.	.	.	16b\JJ)	.	.	.	.	.	.	.	.	.	.	.	.
8G#\	.	8G#\	8b\	(16dd\LL	.	.	.	.	.	.	.	.	.	.	.	.
.	.	.	.	16cc#\)	.	.	.	.	.	.	.	.	.	.	.	.
8G#\J	.	8G#\J	8b\J	(16dd\	.	.	.	.	.	.	.	.	.	.	.	.
.	.	.	.	16b\JJ)	.	.	.	.	.	.	.	.	.	.	.	.
!	!	!	!LO:LB:g=original	!	!	!	!	!	!	!	!	!	!	!	!	!
4A\	.	4A\	4e/	8cc#\L	.	.	.	.	.	.	.	.	.	.	.	.
.	.	.	.	16a\L	.	.	.	.	.	.	.	.	.	.	.	.
.	.	.	.	16b\JJ	.	.	.	.	.	.	.	.	.	.	.	.
4r	.	4r	4r	16cc#\LL	.	.	.	.	.	.	.	.	.	.	.	.
.	.	.	.	16dd\	.	.	.	.	.	.	.	.	.	.	.	.
.	.	.	.	16ee\	.	.	.	.	.	.	.	.	.	.	.	.
.	.	.	.	16ff#\JJ	.	.	.	.	.	.	.	.	.	.	.	.
=50	=50	=50	=50	=50	=50	=50	=50	=50	=50	=50	=50	=50	=50	=50	=50	=50
8AA/L	7	8AA/L	8cc#\L	(16gg\LL	.	1r	.	1r	.	1r	.	1r	.	1ryy	1r	1r
.	.	.	.	16ff#\)	.	.	.	.	.	.	.	.	.	.	.	.
8AA/	.	8AA/	8cc#\	(16gg\	.	.	.	.	.	.	.	.	.	.	.	.
.	.	.	.	16ee\JJ)	.	.	.	.	.	.	.	.	.	.	.	.
8AA/	.	8AA/	8cc#\	(16gg\LL	.	.	.	.	.	.	.	.	.	.	.	.
.	.	.	.	16ff#\)	.	.	.	.	.	.	.	.	.	.	.	.
8AA/J	.	8AA/J	8cc#\J	(16gg\	.	.	.	.	.	.	.	.	.	.	.	.
.	.	.	.	16ee\JJ)	.	.	.	.	.	.	.	.	.	.	.	.
!	!	!LO:LB:g=original	!	!	!	!	!	!	!	!	!	!	!	!	!	!
8D\L	.	8D/L	8dd\L	8ff#\L	.	.	.	.	.	.	.	.	.	.	.	.
8G\	.	8G\J	8b\	8a/J	.	.	.	.	.	.	.	.	.	.	.	.
8A\	.	8A\L	8a\	8.cc#\L	.	.	.	.	.	.	.	.	.	.	.	.
8AA/J	.	8AA/J	8g\J	.	.	.	.	.	.	.	.	.	.	.	.	.
.	.	.	.	16cc#\Jk	.	.	.	.	.	.	.	.	.	.	.	.
=51	=51	=51	=51	=51	=51	=51	=51	=51	=51	=51	=51	=51	=51	=51	=51	=51
8D\L	.	8D\L	4f#/	4dd\	.	1r	.	1r	.	16a\LL	Ky-	1r	.	1ryy	1r	1r
.	.	.	.	.	.	.	.	.	.	16g\JJ	.	.	.	.	.	.
8E\	.	8E\	.	.	.	.	.	.	.	16f#\LL	-ri-	.	.	.	.	.
.	.	.	.	.	.	.	.	.	.	16e\JJ	.	.	.	.	.	.
!	!	!	!	!	!	!	!	!	!	!LO:LB:g=original	!	!	!	!	!	!
8F#\	.	8F#\	4r	4r	.	.	.	.	.	8d\	-e	.	.	.	.	.
8D\J	.	8D\J	.	.	.	.	.	.	.	8a\	e-	.	.	.	.	.
8G\L	.	8G\L	8r	8r	.	.	.	.	.	8b\	-lei-	.	.	.	.	.
8F#\	.	8F#\	8d/L	8a/L	.	.	.	.	.	8a\	-son	.	.	.	.	.
8G\	.	8G\	8d/	8b/	.	.	.	.	.	8r	.	.	.	.	.	.
8F#\J	.	8F#\J	8d/J	8a/J	.	.	.	.	.	8d\	e-	.	.	.	.	.
=52	=52	=52	=52	=52	=52	=52	=52	=52	=52	=52	=52	=52	=52	=52	=52	=52
8E/L	.	8E\L	2r	2r	.	1r	.	1r	.	16g\LL	-lei-	1r	.	1ryy	1r	1r
.	.	.	.	.	.	.	.	.	.	16f#\	.	.	.	.	.	.
8D/	.	8D\	.	.	.	.	.	.	.	16g\	.	.	.	.	.	.
.	.	.	.	.	.	.	.	.	.	16e\JJ	.	.	.	.	.	.
8C#/	.	8C#\	.	.	.	.	.	.	.	16g\LL	.	.	.	.	.	.
.	.	.	.	.	.	.	.	.	.	16f#\	.	.	.	.	.	.
8AA/J	.	8AA\J	.	.	.	.	.	.	.	16g\	.	.	.	.	.	.
.	.	.	.	.	.	.	.	.	.	16e\JJ	.	.	.	.	.	.
8D\L	.	8D\L	8r	8r	.	.	.	.	.	8f#\	.	.	.	.	.	.
!	!	!	!	!	!LO:DY:a:t=piano	!	!	!	!	!	!	!	!	!	!	!
8E\	.	8E\	8g/L	8cc#\L	p	.	.	.	.	8d\	-son	.	.	.	.	.
8F#\	.	8F#\	8a/	8dd\	.	.	.	.	.	8r	.	.	.	.	.	.
8D\J	.	8D\J	8g/J	8ff#\J	.	.	.	.	.	8a\	e-	.	.	.	.	.
=53	=53	=53	=53	=53	=53	=53	=53	=53	=53	=53	=53	=53	=53	=53	=53	=53
8G\L	.	8G\L	8d/L	16gg\LL	.	1r	.	1r	.	16b\LL	-lei-	1r	.	1ryy	1r	1r
.	.	.	.	(16ff#\	.	.	.	.	.	16a\	.	.	.	.	.	.
8r	.	8r	8r	16gg\)	.	.	.	.	.	16b\	.	.	.	.	.	.
.	.	.	.	16ee\JJ	.	.	.	.	.	16g\JJ	.	.	.	.	.	.
8G\J	.	8G\J	8d/J	(16gg\LL	.	.	.	.	.	16b\LL	.	.	.	.	.	.
.	.	.	.	16ff#\	.	.	.	.	.	16a\	.	.	.	.	.	.
8r	.	8r	8r	16gg\)	.	.	.	.	.	16b\	.	.	.	.	.	.
.	.	.	.	16ee\JJ	.	.	.	.	.	16g\JJ	.	.	.	.	.	.
4G\	.	4G\	8d/L	(16gg\LL	.	.	.	.	.	16b\LL	.	.	.	.	.	.
.	.	.	.	16ff#\)	.	.	.	.	.	16a\	.	.	.	.	.	.
.	.	.	8d/J	16gg\	.	.	.	.	.	16b\	.	.	.	.	.	.
.	.	.	.	16ee\JJ	.	.	.	.	.	16g\JJ	.	.	.	.	.	.
!	!	!	!	!LO:LB:g=original	!	!	!	!	!	!	!	!	!	!	!	!
8r	.	8r	4r	8ff#\L	.	.	.	.	.	8a\	-son	.	.	.	.	.
8G\	.	8G\	.	16dd\L	.	.	.	.	.	16f#\LL	e-	.	.	.	.	.
.	.	.	.	16ee\JJ	.	.	.	.	.	16g\JJ	.	.	.	.	.	.
=54	=54	=54	=54	=54	=54	=54	=54	=54	=54	=54	=54	=54	=54	=54	=54	=54
8F#\L	6	8F#\L	8d/L	(16ff#\LL	.	1r	.	1r	.	16a\LL	-lei-	1r	.	1ryy	1r	1r
.	.	.	.	16ee\)	.	.	.	.	.	16g\	.	.	.	.	.	.
8r	.	8r	8r	(16ff#\	.	.	.	.	.	16a\	.	.	.	.	.	.
.	.	.	.	16dd\JJ)	.	.	.	.	.	16f#\JJ	.	.	.	.	.	.
8F#\J	.	8F#\J	8d/J	(16ff#\LL	.	.	.	.	.	16a\LL	.	.	.	.	.	.
.	.	.	.	16ee\)	.	.	.	.	.	16g\	.	.	.	.	.	.
8r	.	8r	8r	(16ff#\	.	.	.	.	.	16a\	.	.	.	.	.	.
.	.	.	.	16dd\JJ)	.	.	.	.	.	16f#\JJ	.	.	.	.	.	.
4F#\	.	4F#\	8d/L	(16ff#\LL	.	.	.	.	.	16a\LL	.	.	.	.	.	.
.	.	.	.	16ee\)	.	.	.	.	.	16g\	.	.	.	.	.	.
.	.	.	8d/J	(16ff#\	.	.	.	.	.	16a\	.	.	.	.	.	.
.	.	.	.	16dd\JJ)	.	.	.	.	.	16f#\JJ	.	.	.	.	.	.
8r	.	8r	4r	8ee\L	.	.	.	.	.	8g\	-son	.	.	.	.	.
8F#\	.	8F#\	.	16cc#\L	.	.	.	.	.	16e\LL	e-	.	.	.	.	.
.	.	.	.	16dd\JJ	.	.	.	.	.	16f#\JJ	.	.	.	.	.	.
=55	=55	=55	=55	=55	=55	=55	=55	=55	=55	=55	=55	=55	=55	=55	=55	=55
8E\L	.	8E\L	8d/L	(16ee\LL	.	1r	.	1r	.	16g\LL	-lei-	1r	.	1ryy	1r	1r
.	.	.	.	16dd\)	.	.	.	.	.	16f#\	.	.	.	.	.	.
8r	.	8r	8r	(16ee\	.	.	.	.	.	16g\	.	.	.	.	.	.
.	.	.	.	16cc#\JJ)	.	.	.	.	.	16e\JJ	.	.	.	.	.	.
8E\J	.	8E\J	8d/J	(16ee\LL	.	.	.	.	.	16g\LL	.	.	.	.	.	.
.	.	.	.	16dd\)	.	.	.	.	.	16f#\	.	.	.	.	.	.
8r	.	8r	8r	(16ee\	.	.	.	.	.	16g\	.	.	.	.	.	.
.	.	.	.	16cc#\JJ)	.	.	.	.	.	16e\JJ	.	.	.	.	.	.
!LO:LB:g=original	!	!	!	!	!	!	!	!	!	!	!	!	!	!	!	!
4AA/	.	4AA/	8c#/L	(16ee\LL	.	.	.	.	.	16g\LL	.	.	.	.	.	.
.	.	.	.	16dd\)	.	.	.	.	.	16f#\	.	.	.	.	.	.
.	.	.	8c#/J	(16ee\	.	.	.	.	.	16g\	.	.	.	.	.	.
.	.	.	.	16cc#\JJ)	.	.	.	.	.	16e\JJ	.	.	.	.	.	.
8r	.	8r	4r	8dd\L	.	.	.	.	.	8f#\	-son	.	.	.	.	.
8AA/	.	8AA/	.	8a\J	.	.	.	.	.	8e\	e-	.	.	.	.	.
!	!	!	!	!	!	!	!	!	!	!LO:LB:g=original	!	!	!	!	!	!
=56	=56	=56	=56	=56	=56	=56	=56	=56	=56	=56	=56	=56	=56	=56	=56	=56
8D/L	.	8D/L	4d/	8f#/L	.	1r	.	1r	.	4f#\	-lei-	1r	.	1ryy	1r	1r
8BB/	.	8BB/	.	8d/J	.	.	.	.	.	.	.	.	.	.	.	.
8E/	.	8E/	4r	4r	.	.	.	.	.	4g#X\	.	.	.	.	.	.
8D/J	.	8D/J	.	.	.	.	.	.	.	.	.	.	.	.	.	.
!LO:TX:t=P:problem:mixed beam	!	!	!	!	!	!	!	!	!	!	!	!	!	!	!	!
!	!	!LO:LB:g=original	!	!	!	!	!	!	!	!	!	!	!	!	!	!
8C#\L	.	8C#/L	2r	2r	.	.	.	.	.	8a\	.	.	.	.	.	.
8D\	.	8D/	.	.	.	.	.	.	.	16b\	-son	.	.	.	.	.
.	.	.	.	.	.	.	.	.	.	16a\	e-	.	.	.	.	.
8E\	.	8E/	.	.	.	.	.	.	.	4g#\	-lei-	.	.	.	.	.
8EE/J	.	8EE/J	.	.	.	.	.	.	.	.	.	.	.	.	.	.
=57	=57	=57	=57	=57	=57	=57	=57	=57	=57	=57	=57	=57	=57	=57	=57	=57
!	!	!	!	!	!LO:DY:a:t=for.	!	!	!	!	!	!	!	!	!	!	!
8AA/L	.	8AA/L	8a/L	16ee\LL	f	1r	.	1r	.	4a\	-son	1r	.	1ryy	1r	1r
.	.	.	.	16dd\	.	.	.	.	.	.	.	.	.	.	.	.
8BB/	.	8BB/	8g#X/	16cc#\	.	.	.	.	.	.	.	.	.	.	.	.
.	.	.	.	16b\JJ	.	.	.	.	.	.	.	.	.	.	.	.
8C#/	.	8C#/	8a/	8a\L	.	.	.	.	.	4r	.	.	.	.	.	.
8AA/J	.	8AA/J	8cc#/J	8ee\	.	.	.	.	.	.	.	.	.	.	.	.
8D/L	.	8D/L	8dd\L	8ff#\	.	.	.	.	.	2r	.	.	.	.	.	.
8C#/	.	8C#/	8a\	8ee\J	.	.	.	.	.	.	.	.	.	.	.	.
8D/	.	8D/	8f#\	8r	.	.	.	.	.	.	.	.	.	.	.	.
8C#/J	.	8C#/J	8a\J	8a/	.	.	.	.	.	.	.	.	.	.	.	.
=58	=58	=58	=58	=58	=58	=58	=58	=58	=58	=58	=58	=58	=58	=58	=58	=58
8BB/L	-	8BB/L	8f#/L	(16dd\LL	.	1r	.	1r	.	1r	.	1r	.	1ryy	1r	1r
.	.	.	.	16cc#\)	.	.	.	.	.	.	.	.	.	.	.	.
8B\	.	8B\J	8r	(16dd\	.	.	.	.	.	.	.	.	.	.	.	.
.	.	.	.	16b\JJ)	.	.	.	.	.	.	.	.	.	.	.	.
8G#X\	.	8G#X\L	8g#X/J	(16dd\LL	.	.	.	.	.	.	.	.	.	.	.	.
.	.	.	.	16cc#\)	.	.	.	.	.	.	.	.	.	.	.	.
8E\J	.	8E\J	8r	(16dd\	.	.	.	.	.	.	.	.	.	.	.	.
.	.	.	.	16b\JJ)	.	.	.	.	.	.	.	.	.	.	.	.
8A\L	.	8A\L	8a/L	8cc#\L	.	.	.	.	.	.	.	.	.	.	.	.
8AA/J	.	8AA/J	8a/J	16a\L	.	.	.	.	.	.	.	.	.	.	.	.
.	.	.	.	16b\JJ	.	.	.	.	.	.	.	.	.	.	.	.
4r	.	4r	4r	16cc#\LL	.	.	.	.	.	.	.	.	.	.	.	.
.	.	.	.	16dd\	.	.	.	.	.	.	.	.	.	.	.	.
.	.	.	.	16ee\	.	.	.	.	.	.	.	.	.	.	.	.
.	.	.	.	16ff#\JJ	.	.	.	.	.	.	.	.	.	.	.	.
=59	=59	=59	=59	=59	=59	=59	=59	=59	=59	=59	=59	=59	=59	=59	=59	=59
8C#/L	5_ 3_	8C#/L	8ee\L	(16gg\LL	.	1r	.	1r	.	1r	.	1r	.	1ryy	1r	1r
.	.	.	.	16ff#\)	.	.	.	.	.	.	.	.	.	.	.	.
8C#/	.	8C#/	8ee\	(16gg\	.	.	.	.	.	.	.	.	.	.	.	.
.	.	.	.	16ee\JJ)	.	.	.	.	.	.	.	.	.	.	.	.
8C#/	.	8C#/	8ee\	(16gg\LL	.	.	.	.	.	.	.	.	.	.	.	.
.	.	.	.	16ff#\)	.	.	.	.	.	.	.	.	.	.	.	.
8C#/J	.	8C#/J	8ee\J	(16gg\	.	.	.	.	.	.	.	.	.	.	.	.
.	.	.	.	16ee\JJ)	.	.	.	.	.	.	.	.	.	.	.	.
!	!	!	!LO:LB:g=original	!	!	!	!	!	!	!	!	!	!	!	!	!
4D/	.	4D/	4a/	8ff#\L	.	.	.	.	.	.	.	.	.	.	.	.
.	.	.	.	16b\L	.	.	.	.	.	.	.	.	.	.	.	.
.	.	.	.	16cc#\JJ	.	.	.	.	.	.	.	.	.	.	.	.
!	!	!	!	!LO:LB:g=original	!	!	!	!	!	!	!	!	!	!	!	!
4r	.	4r	4r	16dd#X\LL	.	.	.	.	.	.	.	.	.	.	.	.
.	.	.	.	16ee\	.	.	.	.	.	.	.	.	.	.	.	.
.	.	.	.	16ff#\	.	.	.	.	.	.	.	.	.	.	.	.
.	.	.	.	16gg\JJ	.	.	.	.	.	.	.	.	.	.	.	.
=60	=60	=60	=60	=60	=60	=60	=60	=60	=60	=60	=60	=60	=60	=60	=60	=60
8D#X\L	5_ 3_	8D#X\L	8ff#\L	(16aa\LL	.	1r	.	1r	.	1r	.	1r	.	1ryy	1r	1r
.	.	.	.	16gg\)	.	.	.	.	.	.	.	.	.	.	.	.
8D#\	.	8D#\	8ff#\	(16aa\	.	.	.	.	.	.	.	.	.	.	.	.
.	.	.	.	16ff#\JJ)	.	.	.	.	.	.	.	.	.	.	.	.
8D#\	.	8D#\	8ff#\	(16aa\LL	.	.	.	.	.	.	.	.	.	.	.	.
.	.	.	.	16gg\)	.	.	.	.	.	.	.	.	.	.	.	.
8D#\J	.	8D#\J	8ff#\J	(16aa\	.	.	.	.	.	.	.	.	.	.	.	.
.	.	.	.	16ff#\JJ)	.	.	.	.	.	.	.	.	.	.	.	.
!	!	!	!	!LO:TX:t=P:problem:mixed beam	!	!	!	!	!	!	!	!	!	!	!	!
4E\	#	4E#X\	4b/	8gg#X\L	.	.	.	.	.	.	.	.	.	.	.	.
.	.	.	.	16e/L	.	.	.	.	.	.	.	.	.	.	.	.
.	.	.	.	16f#/JJ	.	.	.	.	.	.	.	.	.	.	.	.
4r	.	4r	4r	16g#X/LL	.	.	.	.	.	.	.	.	.	.	.	.
.	.	.	.	16a/	.	.	.	.	.	.	.	.	.	.	.	.
.	.	.	.	16b/	.	.	.	.	.	.	.	.	.	.	.	.
.	.	.	.	16cc#/JJ	.	.	.	.	.	.	.	.	.	.	.	.
=61	=61	=61	=61	=61	=61	=61	=61	=61	=61	=61	=61	=61	=61	=61	=61	=61
8G#X\L	5	8G#X\L	8b\L	(16dd\LL	.	1r	.	1r	.	1r	.	1r	.	1ryy	1r	1r
.	.	.	.	16cc#\)	.	.	.	.	.	.	.	.	.	.	.	.
8G#\	.	8G#\	8b\	(16dd\	.	.	.	.	.	.	.	.	.	.	.	.
.	.	.	.	16b\JJ)	.	.	.	.	.	.	.	.	.	.	.	.
8G#\	.	8G#\	8b\	(16dd\LL	.	.	.	.	.	.	.	.	.	.	.	.
.	.	.	.	16cc#\)	.	.	.	.	.	.	.	.	.	.	.	.
8G#\J	.	8G#\J	8b\J	(16dd\	.	.	.	.	.	.	.	.	.	.	.	.
.	.	.	.	16b\JJ)	.	.	.	.	.	.	.	.	.	.	.	.
!LO:TX:t=P:problem:mixed beam	!	!LO:TX:t=P:problem:mixed beam	!	!	!	!	!	!	!	!	!	!	!	!	!	!
8A\L	.	8A\L	8a/L	8cc#\L	.	.	.	.	.	.	.	.	.	.	.	.
8D\	.	8D\	8f#/	8e/J	.	.	.	.	.	.	.	.	.	.	.	.
8E\	.	8E\	8e/	8.a/L	.	.	.	.	.	.	.	.	.	.	.	.
8EE/J	.	8EE/J	8d/J	.	.	.	.	.	.	.	.	.	.	.	.	.
.	.	.	.	16g#X/Jk	.	.	.	.	.	.	.	.	.	.	.	.
!	!	!LO:LB:g=original	!	!	!	!	!	!	!	!	!	!	!	!	!	!
=62	=62	=62	=62	=62	=62	=62	=62	=62	=62	=62	=62	=62	=62	=62	=62	=62
8AA/L	.	8AA/L	4c#/	4a/	.	1r	.	1r	.	1r	.	16ee\LL	Ky-	1ryy	1r	1r
.	.	.	.	.	.	.	.	.	.	.	.	16dd\JJ	.	.	.	.
8BB/	.	8BB/	.	.	.	.	.	.	.	.	.	16cc#\LL	-ri-	.	.	.
.	.	.	.	.	.	.	.	.	.	.	.	16b\JJ	.	.	.	.
8C#/	.	8C#/	4r	4r	.	.	.	.	.	.	.	8a\	-e-	.	.	.
8AA/J	.	8AA/J	.	.	.	.	.	.	.	.	.	8ee\	.	.	.	.
8D/L	.	8D/L	8r	8r	.	.	.	.	.	.	.	8ff#\	-ley-	.	.	.
8C#/	.	8C#/	8a/L	8ee\L	.	.	.	.	.	.	.	8ee\	-son	.	.	.
8D/	.	8D/	8a/	8ff#\	.	.	.	.	.	.	.	8r	.	.	.	.
8C#/J	.	8C#/J	8a/J	8ee\J	.	.	.	.	.	.	.	8a\	e-	.	.	.
!LO:LB:g=original	!	!	!	!	!	!	!	!	!	!	!	!	!	!	!	!
=63	=63	=63	=63	=63	=63	=63	=63	=63	=63	=63	=63	=63	=63	=63	=63	=63
8BB/L	.	8BB/L	2r	2r	.	1r	.	1r	.	1r	.	16dd\LL	-ley-	1ryy	1r	1r
.	.	.	.	.	.	.	.	.	.	.	.	16cc#\	.	.	.	.
8B\	.	8B\	.	.	.	.	.	.	.	.	.	16dd\	.	.	.	.
.	.	.	.	.	.	.	.	.	.	.	.	16b\JJ	.	.	.	.
8G#X\	.	8G#X\	.	.	.	.	.	.	.	.	.	16cc#\LL	.	.	.	.
.	.	.	.	.	.	.	.	.	.	.	.	16b\	.	.	.	.
8E\J	.	8E\J	.	.	.	.	.	.	.	.	.	16cc#\	.	.	.	.
.	.	.	.	.	.	.	.	.	.	.	.	16a\JJ	.	.	.	.
8A\L	.	8A\L	8r	8r	.	.	.	.	.	.	.	8cc#\	.	.	.	.
!	!	!	!	!	!LO:DY:a:t=piano	!	!	!	!	!	!	!	!	!	!	!
8AA/	.	8AA/	8cc#\L	8ee\L	p	.	.	.	.	.	.	8a\	-son	.	.	.
8C#/	.	8C#/	8cc#\	8a\	.	.	.	.	.	.	.	8r	.	.	.	.
8AA/J	.	8AA/J	8b\J	8cc#\J	.	.	.	.	.	.	.	8ee\	e-	.	.	.
=64	=64	=64	=64	=64	=64	=64	=64	=64	=64	=64	=64	=64	=64	=64	=64	=64
8D/L	.	8D/L	8a/L	(16dd\LL	.	1r	.	1r	.	1r	.	16ff#\LL	-ley-	1ryy	1r	1r
.	.	.	.	16cc#\)	.	.	.	.	.	.	.	16ee\	.	.	.	.
8r	.	8r	8r	(16dd\	.	.	.	.	.	.	.	16ff#\	.	.	.	.
.	.	.	.	16b\JJ)	.	.	.	.	.	.	.	16dd\JJ	.	.	.	.
8D/J	.	8D/J	8a/J	(16dd\LL	.	.	.	.	.	.	.	16ff#\LL	.	.	.	.
.	.	.	.	16cc#\)	.	.	.	.	.	.	.	16ee\	.	.	.	.
8r	.	8r	8r	(16dd\	.	.	.	.	.	.	.	16ff#\	.	.	.	.
.	.	.	.	16b\JJ)	.	.	.	.	.	.	.	16dd\JJ	.	.	.	.
4D/	.	4D/	8a/L	(16dd\LL	.	.	.	.	.	.	.	16ff#\LL	.	.	.	.
.	.	.	.	16cc#\)	.	.	.	.	.	.	.	16ee\	.	.	.	.
.	.	.	8a/J	(16dd\	.	.	.	.	.	.	.	16ff#\	.	.	.	.
.	.	.	.	16b\JJ)	.	.	.	.	.	.	.	16dd\JJ	.	.	.	.
8r	.	8r	4ryy	8cc#\L	.	.	.	.	.	.	.	8ee\	-son	.	.	.
8D/	.	8D/	.	16a\L	.	.	.	.	.	.	.	16cc#\LL	.	.	.	.
.	.	.	.	16b\JJ	.	.	.	.	.	.	.	16dd\JJ	e-	.	.	.
!	!	!	!	!	!	!	!	!	!	!	!	!LO:LB:g=original	!	!	!	!
=65	=65	=65	=65	=65	=65	=65	=65	=65	=65	=65	=65	=65	=65	=65	=65	=65
8C#/L	.	8C#/L	8a/L	(16cc#\LL	.	1r	.	1r	.	1r	.	16ee\LL	-ley-	1ryy	1r	1r
.	.	.	.	16b\)	.	.	.	.	.	.	.	16dd\	.	.	.	.
8r	.	8r	8r	(16cc#\	.	.	.	.	.	.	.	16ee\	.	.	.	.
.	.	.	.	16a\JJ)	.	.	.	.	.	.	.	16cc#\JJ	.	.	.	.
8C#/J	.	8C#/J	8a/J	(16cc#\LL	.	.	.	.	.	.	.	16ee\LL	.	.	.	.
.	.	.	.	16b\)	.	.	.	.	.	.	.	16dd\	.	.	.	.
8r	.	8r	8r	(16cc#\	.	.	.	.	.	.	.	16ee\	.	.	.	.
.	.	.	.	16a\JJ)	.	.	.	.	.	.	.	16cc#\JJ	.	.	.	.
4C#/	.	4C#/	8a/L	(16cc#\LL	.	.	.	.	.	.	.	16ee\LL	.	.	.	.
.	.	.	.	16b\)	.	.	.	.	.	.	.	16dd\	.	.	.	.
.	.	.	8a/J	(16cc#\	.	.	.	.	.	.	.	16ee\	.	.	.	.
.	.	.	.	16a\JJ)	.	.	.	.	.	.	.	16cc#\JJ	.	.	.	.
!	!	!	!	!LO:LB:g=original	!	!	!	!	!	!	!	!	!	!	!	!
8r	.	8r	4r	8b/L	.	.	.	.	.	.	.	8dd\	-son	.	.	.
8C#/	.	8C#/	.	16g#X/L	.	.	.	.	.	.	.	16b\LL	e-	.	.	.
.	.	.	.	16a/JJ	.	.	.	.	.	.	.	16cc#\JJ	.	.	.	.
=66	=66	=66	=66	=66	=66	=66	=66	=66	=66	=66	=66	=66	=66	=66	=66	=66
8BB/L	7	8BB/L	8a/L	(16b/LL	.	1r	.	1r	.	1r	.	16dd\LL	.	1ryy	1r	1r
.	.	.	.	16a/	.	.	.	.	.	.	.	16cc#\	.	.	.	.
8r	.	8r	8r	16b/)	.	.	.	.	.	.	.	16dd\	.	.	.	.
.	.	.	.	16g#X/JJ	.	.	.	.	.	.	.	16b\JJ	.	.	.	.
8BB/J	.	8BB/J	8a/J	(16b/LL	.	.	.	.	.	.	.	16dd\LL	.	.	.	.
.	.	.	.	16a/	.	.	.	.	.	.	.	16cc#\	.	.	.	.
8r	.	8r	8r	16b/)	.	.	.	.	.	.	.	16dd\	.	.	.	.
.	.	.	.	16g#/JJ	.	.	.	.	.	.	.	16b\JJ	.	.	.	.
4E\	7 #	4E\	8g#X/L	(16b/LL	.	.	.	.	.	.	.	16dd\LL	.	.	.	.
.	.	.	.	16a/	.	.	.	.	.	.	.	16cc#\	.	.	.	.
.	.	.	8g#/	16b/)	.	.	.	.	.	.	.	16dd\	.	.	.	.
.	.	.	.	16g#/JJ	.	.	.	.	.	.	.	16b\JJ	.	.	.	.
8r	.	8r	8e/	8a/L	.	.	.	.	.	.	.	8cc#\	-son	.	.	.
8E\	.	8E\	8g#/J	8e/J	.	.	.	.	.	.	.	8ee\	e-	.	.	.
=67	=67	=67	=67	=67	=67	=67	=67	=67	=67	=67	=67	=67	=67	=67	=67	=67
8AA/L	.	8AA/L	4a/	4A/	.	1r	.	1r	.	1r	.	(4cc#\	-ley-	1ryy	1r	1r
8C#/	.	8C#/	.	.	.	.	.	.	.	.	.	.	.	.	.	.
8BB/	.	8BB/	4r	4r	.	.	.	.	.	.	.	4dd\)	.	.	.	.
8D/J	.	8D/J	.	.	.	.	.	.	.	.	.	.	.	.	.	.
!LO:TX:t=P:problem:mixed beam	!	!	!	!	!	!	!	!	!	!	!	!	!	!	!	!
8C#\L	.	8C#/L	2r	2r	.	.	.	.	.	.	.	8ee\	-son	.	.	.
8D\	.	8D/	.	.	.	.	.	.	.	.	.	(16a\	e-	.	.	.
.	.	.	.	.	.	.	.	.	.	.	.	16b\)	.	.	.	.
8E\	.	8E/	.	.	.	.	.	.	.	.	.	4g#X\	-ley-	.	.	.
8EE/J	.	8EE/J	.	.	.	.	.	.	.	.	.	.	.	.	.	.
!	!	!LO:LB:g=original	!	!	!	!	!	!	!	!	!	!	!	!	!	!
=68	=68	=68	=68	=68	=68	=68	=68	=68	=68	=68	=68	=68	=68	=68	=68	=68
!	!	!	!	!	!LO:DY:a:t=for.	!	!	!	!	!	!	!	!	!	!	!
8AA/L	.	8AA/L	8a/L	16ee\LL	f	1r	.	1r	.	1r	.	4a\	-son	1ryy	1r	1r
.	.	.	.	16dd\	.	.	.	.	.	.	.	.	.	.	.	.
8BB/	.	8BB/	8g#X/	16cc#\	.	.	.	.	.	.	.	.	.	.	.	.
.	.	.	.	16b\JJ	.	.	.	.	.	.	.	.	.	.	.	.
8C#/	.	8C#/	8a/	8a\L	.	.	.	.	.	.	.	4r	.	.	.	.
8AA/J	.	8AA/J	8cc#/J	8ee\	.	.	.	.	.	.	.	.	.	.	.	.
8D/L	.	8D/L	8dd\L	8ff#\	.	.	.	.	.	.	.	2r	.	.	.	.
8C#/	.	8C#/	8a\	8ee\J	.	.	.	.	.	.	.	.	.	.	.	.
8D/	.	8D/	8f#\	8r	.	.	.	.	.	.	.	.	.	.	.	.
8C#/J	.	8C#/J	8a\J	8a/	.	.	.	.	.	.	.	.	.	.	.	.
!	!	!	!LO:LB:g=original	!	!	!	!	!	!	!	!	!	!	!	!	!
=69	=69	=69	=69	=69	=69	=69	=69	=69	=69	=69	=69	=69	=69	=69	=69	=69
8BB/L	.	8BB/L	8f#/L	(16dd\LL	.	1r	.	1r	.	1r	.	1r	.	1ryy	1r	1r
.	.	.	.	16cc#\)	.	.	.	.	.	.	.	.	.	.	.	.
8B\	.	8B\	8r	(16dd\	.	.	.	.	.	.	.	.	.	.	.	.
.	.	.	.	16b\JJ)	.	.	.	.	.	.	.	.	.	.	.	.
8G#X\	.	8G#X\	8g#X/J	(16dd\LL	.	.	.	.	.	.	.	.	.	.	.	.
.	.	.	.	16cc#\)	.	.	.	.	.	.	.	.	.	.	.	.
8E\J	.	8E\J	8r	(16dd\	.	.	.	.	.	.	.	.	.	.	.	.
.	.	.	.	16b\JJ)	.	.	.	.	.	.	.	.	.	.	.	.
8A\L	.	8A\L	8a/L	8cc#\L	.	.	.	.	.	.	.	.	.	.	.	.
8AA/J	.	8AA/J	8a/J	16a\L	.	.	.	.	.	.	.	.	.	.	.	.
.	.	.	.	16b\JJ	.	.	.	.	.	.	.	.	.	.	.	.
4r	.	4r	4r	16cc#\LL	.	.	.	.	.	.	.	.	.	.	.	.
.	.	.	.	16dd\	.	.	.	.	.	.	.	.	.	.	.	.
.	.	.	.	16ee\	.	.	.	.	.	.	.	.	.	.	.	.
.	.	.	.	16ff#\JJ	.	.	.	.	.	.	.	.	.	.	.	.
=70	=70	=70	=70	=70	=70	=70	=70	=70	=70	=70	=70	=70	=70	=70	=70	=70
8AA/L	7_ 5_	8AA/L	8cc#\L	(16gg\LL	.	1r	.	1r	.	1r	.	1r	.	1ryy	1r	1r
.	.	.	.	16ff#\)	.	.	.	.	.	.	.	.	.	.	.	.
8AA/	.	8AA/	8cc#\	(16gg\	.	.	.	.	.	.	.	.	.	.	.	.
.	.	.	.	16ee\JJ)	.	.	.	.	.	.	.	.	.	.	.	.
8AA/	.	8AA/	8cc#\	(16gg\LL	.	.	.	.	.	.	.	.	.	.	.	.
.	.	.	.	16ff#\)	.	.	.	.	.	.	.	.	.	.	.	.
8AA/J	.	8AA/J	8cc#\J	(16gg\	.	.	.	.	.	.	.	.	.	.	.	.
.	.	.	.	16ee\JJ)	.	.	.	.	.	.	.	.	.	.	.	.
!LO:LB:g=original	!	!	!	!LO:TX:t=P:problem:mixed beam	!	!	!	!	!	!	!	!	!	!	!	!
4D\	.	4D/	4a/	8ff#\L	.	.	.	.	.	.	.	.	.	.	.	.
.	.	.	.	16d/L	.	.	.	.	.	.	.	.	.	.	.	.
.	.	.	.	16e/JJ	.	.	.	.	.	.	.	.	.	.	.	.
4r	.	4r	4r	16f#/LL	.	.	.	.	.	.	.	.	.	.	.	.
.	.	.	.	16g/	.	.	.	.	.	.	.	.	.	.	.	.
.	.	.	.	16a/	.	.	.	.	.	.	.	.	.	.	.	.
.	.	.	.	16b/JJ	.	.	.	.	.	.	.	.	.	.	.	.
=71	=71	=71	=71	=71	=71	=71	=71	=71	=71	=71	=71	=71	=71	=71	=71	=71
8F#\L	-5_ 3_	8F#\L	8a/L	(16cc-X\LL	.	1r	.	1r	.	1r	.	1r	.	1ryy	1r	1r
.	.	.	.	16b\)	.	.	.	.	.	.	.	.	.	.	.	.
8F#\	.	8F#\	8a/	(16cc-\	.	.	.	.	.	.	.	.	.	.	.	.
.	.	.	.	16b\JJ)	.	.	.	.	.	.	.	.	.	.	.	.
8F#\	.	8F#\	8a/	(16cc-\LL	.	.	.	.	.	.	.	.	.	.	.	.
.	.	.	.	16b\)	.	.	.	.	.	.	.	.	.	.	.	.
8F#\J	.	8F#\J	8a/J	(16cc-\	.	.	.	.	.	.	.	.	.	.	.	.
.	.	.	.	16a\JJ)	.	.	.	.	.	.	.	.	.	.	.	.
4G\	.	4G\	4d/	8b/L	.	.	.	.	.	.	.	.	.	.	.	.
.	.	.	.	16e/L	.	.	.	.	.	.	.	.	.	.	.	.
.	.	.	.	16f#/JJ	.	.	.	.	.	.	.	.	.	.	.	.
4r	.	4r	4r	16g#X/LL	.	.	.	.	.	.	.	.	.	.	.	.
.	.	.	.	16a/	.	.	.	.	.	.	.	.	.	.	.	.
.	.	.	.	16b/	.	.	.	.	.	.	.	.	.	.	.	.
.	.	.	.	16cc-/JJ	.	.	.	.	.	.	.	.	.	.	.	.
!	!	!	!	!LO:LB:g=original	!	!	!	!	!	!	!	!	!	!	!	!
=72	=72	=72	=72	=72	=72	=72	=72	=72	=72	=72	=72	=72	=72	=72	=72	=72
8G#X\L	5	8G#X\L	8b/L	(16dd\LL	.	1r	.	1r	.	1r	.	1r	.	1ryy	1r	1r
.	.	.	.	16cc#\)	.	.	.	.	.	.	.	.	.	.	.	.
8G#\	.	8G#\	8b/	(16dd\	.	.	.	.	.	.	.	.	.	.	.	.
.	.	.	.	16b\JJ)	.	.	.	.	.	.	.	.	.	.	.	.
8G#\	.	8G#\	8b/	(16dd\LL	.	.	.	.	.	.	.	.	.	.	.	.
.	.	.	.	16cc#\)	.	.	.	.	.	.	.	.	.	.	.	.
8G#\J	.	8G#\J	8b/J	(16dd\	.	.	.	.	.	.	.	.	.	.	.	.
.	.	.	.	16b\JJ)	.	.	.	.	.	.	.	.	.	.	.	.
8A\L	.	8A\L	4e/	8cc#\L	.	.	.	.	.	.	.	.	.	.	.	.
8AA/J	.	8AA/J	.	16a\L	.	.	.	.	.	.	.	.	.	.	.	.
.	.	.	.	16b\JJ	.	.	.	.	.	.	.	.	.	.	.	.
4ryy	.	4ryy	4r	16cc#\LL	.	.	.	.	.	.	.	.	.	.	.	.
.	.	.	.	16dd\	.	.	.	.	.	.	.	.	.	.	.	.
.	.	.	.	16ee\	.	.	.	.	.	.	.	.	.	.	.	.
.	.	.	.	16ff#\JJ	.	.	.	.	.	.	.	.	.	.	.	.
=73	=73	=73	=73	=73	=73	=73	=73	=73	=73	=73	=73	=73	=73	=73	=73	=73
8AA/L	7	8AA/L	8cc#\L	(16gg\LL	.	1r	.	1r	.	1r	.	1r	.	1ryy	1r	1r
.	.	.	.	16ff#\)	.	.	.	.	.	.	.	.	.	.	.	.
8AA/	.	8AA/	8cc#\	(16gg\	.	.	.	.	.	.	.	.	.	.	.	.
.	.	.	.	16ee\JJ)	.	.	.	.	.	.	.	.	.	.	.	.
8AA/	.	8AA/	8cc#\	(16gg\LL	.	.	.	.	.	.	.	.	.	.	.	.
.	.	.	.	16ff#\)	.	.	.	.	.	.	.	.	.	.	.	.
8AA/J	.	8AA/J	8cc#\J	(16gg\	.	.	.	.	.	.	.	.	.	.	.	.
.	.	.	.	16ee\JJ)	.	.	.	.	.	.	.	.	.	.	.	.
8D\L	.	8D\L	8dd\L	8ff#\L	.	.	.	.	.	.	.	.	.	.	.	.
8G\	.	8G\	8b\	8a/J	.	.	.	.	.	.	.	.	.	.	.	.
8A\	.	8A\	8a\	8.cc#\L	.	.	.	.	.	.	.	.	.	.	.	.
8AA/J	.	8AA/J	8g\J	.	.	.	.	.	.	.	.	.	.	.	.	.
.	.	.	.	16cc#\Jk	.	.	.	.	.	.	.	.	.	.	.	.
!	!	!LO:LB:g=original	!	!	!	!	!	!	!	!	!	!	!	!	!	!
=74	=74	=74	=74	=74	=74	=74	=74	=74	=74	=74	=74	=74	=74	=74	=74	=74
!LO:TX:a:i:t=Tutti.	!	!LO:TX:a:i:t=tuti	!LO:TX:a:i:t=Tutti.	!	!	!	!	!	!	!	!	!	!	!	!	!LO:TX:a:i:t=Tutti.
!	!	!	!	!	!	!	!	!	!	!	!	!	!	!	!LO:TX:a:t=Tutti	!
8D\L	.	8D\L	8f#/L	8dd\L	.	8D\	Ky-	8A\	Ky-	16a\LL	Ky-	8dd\	Ky-	1ryy	8ff#\L	8aa\L
.	.	.	.	.	.	.	.	.	.	16g\JJ	.	.	.	.	.	.
8E\	.	8E\	8g/	8cc#\	.	8E\	-ri-	8G/	-ri-	16f#\LL	-ri-	8dd\	-ri-	.	8ee\	8gg\
.	.	.	.	.	.	.	.	.	.	16e\JJ	.	.	.	.	.	.
8F#\	.	8F#\	8a/	8dd\	.	8F#\	-e	8F#,/	-e	8d\	-e	8dd\	-e-	.	8dd\	8ff#\
8D\J	.	8D\J	8dd/J	8ff#\J	.	8D\	e-	8A/	e-	8a\	e-	8dd\	-ley-	.	8ff#\J	8aa\J
8G\L	.	8G\L	8b\L	8dd\L	.	8G\	-lei-	8G/	-ley-	8b\	-lei-	8dd\	-son	.	8dd\L	8gg\L
8F#\	.	8F#\	8ff#\	8aa\	.	8F#\	-son	8A/	-son	8a\	-son	4r	.	.	8dd\J	8ff#\J
8G\	.	8G\	8gg\	8bb\	.	8r	.	8r	.	8r	.	.	.	.	8r	8r
!	!	!	!	!	!	!	!	!	!	!	!	!LO:LB:g=original	!	!	!	!
8F#\J	.	8F#\J	8ff#\J	8aa\J	.	8D\	e-	8F#/	e-	8d\	e-	8dd\	e-	.	8dd\	8ff#\
!	!	!	!	!	!	!	!	!	!	!	!	!	!	!	!LO:LB:g=original	!
=75	=75	=75	=75	=75	=75	=75	=75	=75	=75	=75	=75	=75	=75	=75	=75	=75
8E/L	.	8E\L	4b\	8ee\L	.	(8E\L	-le-	4B\	-ley-	16g\LL	-lei-	2ee\	-ley-	1ryy	8ee\L	8gg\L
.	.	.	.	.	.	.	.	.	.	16f#\	.	.	.	.	.	.
8D/	.	8D\	.	8ff#\	.	8D\J)	-i-	.	.	16g\	.	.	.	.	8ee\	8gg\J
.	.	.	.	.	.	.	.	.	.	16e\JJ	.	.	.	.	.	.
8C#/	.	8C#\	8cc#\L	8ee\	.	8C#/	-son	8A\L	.	16g\LL	.	.	.	.	8a\	16gg\LL
.	.	.	.	.	.	.	.	.	.	16f#\	.	.	.	.	.	16ff#\
8AA/J	.	8AA\J	8cc#\J	8aa\J	.	8AA/	e-	8c#\	.	16g\	.	.	.	.	8a\J	16gg\
.	.	.	.	.	.	.	.	.	.	16e\JJ	.	.	.	.	.	16ee\JJ
!	!	!	!	!	!	!LO:LB:g=original	!	!	!	!	!	!	!	!	!	!
8D\L	.	8D\L	8dd\L	8ff#\L	.	8D\L	-lei-	8d\	.	8f#\	.	4dd\	-son	.	8dd\L	8ff#\L
8E\	.	8E\	8a\	16dd\L	.	8E\	.	8c#\J	.	8d\	-son	.	.	.	16ff#\L	16aa\L
.	.	.	.	16cc#\JJ	.	.	.	.	.	.	.	.	.	.	16ee\JJ	16gg\JJ
8F#\	.	8F#\	8f#\	8dd\L	.	8F#\	.	8d\	.	8r	.	8r	.	.	8dd\L	8ff#\L
*	*	*	*	*	*	*	*	*	*	*	*	*	*ij	*	*	*
8D\J	.	8D\J	8a\J	8ff#\J	.	8D\J	.	8d\	-son	8d\	e-	8ff#\	e-	.	8ff#\J	8aa\J
=76	=76	=76	=76	=76	=76	=76	=76	=76	=76	=76	=76	=76	=76	=76	=76	=76
8E/L	.	8E\L	8f#\L	8cc#\L	.	8E\L	.	(8B\L	e-	16g\LL	-lei-	2ee\	-lei-	1ryy	8ee\L	8gg\L
.	.	.	.	.	.	.	.	.	.	16f#\	.	.	.	.	.	.
8D/	.	8D\	8cc#\	8ee\	.	8D\J	.	8d\)	.	16g\	.	.	.	.	8ee\J	8gg\J
.	.	.	.	.	.	.	.	.	.	16e\JJ	.	.	.	.	.	.
8C#/	.	8C#\	8cc#\	8ee\	.	8C#/	-son	(8A\	-ley-	16g\LL	.	.	.	.	16ee\LL	16gg\LL
.	.	.	.	.	.	.	.	.	.	16f#\	.	.	.	.	16dd\	16ff#\
8AA/J	.	8AA\J	8cc#\J	8gg\J	.	8AA/	e-	8c#\J)	.	16g\	.	.	.	.	16ee\	16gg\
.	.	.	.	.	.	.	.	.	.	16e\JJ	.	.	.	.	16a\JJ	16ee\JJ
8D\L	.	8D\L	4a/	8ff#\L	.	8D\L	-lei-	8d\	-son	8f#\	.	4dd\	-son	.	8dd\L	8ff#\L
8E\	.	8E\	.	8ee\	.	8E\J	.	8c#\	e-	8d\	-son	.	.	.	8dd\J	8ff#\J
8F#\	.	8F#\	8e/L	8dd\	.	8F#\	-son	8d\	-ley-	8r	.	8r	.	.	8r	8r
8D\J	.	8D\J	8a/J	8ff#\J	.	8D\	e-	8d\	-son	8a\	e-	8dd\	Ky-	.	8dd\	8dd\
!	!	!	!	!	!	!	!	!	!	!LO:LB:g=original	!	!	!	!	!	!
=77	=77	=77	=77	=77	=77	=77	=77	=77	=77	=77	=77	=77	=77	=77	=77	=77
8G\L	.	8G\L	8b\L	(16gg\LL	.	8G\L	-lei-	8c#\	e-	16b\LL	-lei-	8dd\	-ri-	1ryy	8dd\L	8gg\L
.	.	.	.	16ff#\)	.	.	.	.	.	16a\	.	.	.	.	.	.
8r	.	8r	8r	(16gg\	.	8r	.	8r	.	16b\	.	8r	.	.	8dd\	8gg\
.	.	.	.	16ee\JJ)	.	.	.	.	.	16g\JJ	.	.	.	.	.	.
8G\J	.	8G\J	8b\J	(16gg\LL	.	8G\J	.	8c#\	-ley-	16b\LL	.	8dd\	-e	.	8dd\	8gg\
.	.	.	.	16ff#\)	.	.	.	.	.	16a\	.	.	.	.	.	.
8r	.	8r	8r	(16gg\	.	8r	.	8r	.	16b\	.	8r	.	.	8dd\J	8gg\J
.	.	.	.	16ee\JJ)	.	.	.	.	.	16g\JJ	.	.	.	.	.	.
4G\	.	4G\	8b\L	(16gg\LL	.	8G\	.	8d\L	-son	16b\LL	.	4dd\	Ky-	.	4dd\	4gg\
.	.	.	.	16ff#\)	.	.	.	.	.	16a\	.	.	.	.	.	.
.	.	.	8b\J	(16gg\	.	8G\	-son	8d\J	e-	16b\	.	.	.	.	.	.
.	.	.	.	16ee\JJ)	.	.	.	.	.	16g\JJ	.	.	.	.	.	.
8r	.	8r	4r	8ff#\L	.	8r	.	8r	.	8a\	-son	8r	.	.	8r	8r
8G\	.	8G\	.	16dd\L	.	8G\	.	8d\	.	16f#\LL	e-	8dd\	-ri-	.	8ee\	8ff#\
.	.	.	.	16ee\JJ	.	.	.	.	.	16g\JJ	.	.	.	.	.	.
!LO:LB:g=original	!	!	!	!	!	!	!	!LO:LB:g=original	!	!	!	!	!	!	!	!
=78	=78	=78	=78	=78	=78	=78	=78	=78	=78	=78	=78	=78	=78	=78	=78	=78
*	*	*	*	*	*	*	*ij	*	*	*	*	*	*	*	*	*
8F#\L	6	8F#\L	8a/L	(16ff#\LL	.	8F#\L	Ky-	8c#\	-son	16a\LL	-lei-	8dd\	-e	1ryy	8ff#\L	8aa\L
.	.	.	.	16ee\)	.	.	.	.	.	16g\	.	.	.	.	.	.
8r	.	8r	8r	(16ff#\	.	8r	.	8r	.	16a\	.	8r	.	.	8ff#\	8aa\
.	.	.	.	16dd\JJ)	.	.	.	.	.	16f#\JJ	.	.	.	.	.	.
8F#\J	.	8F#\J	8a/J	(16ff#\LL	.	8F#\J	-ri-	8A\	e-	16a\LL	.	8dd\	Ky-	.	8ff#\	8aa\
.	.	.	.	16ee\)	.	.	.	.	.	16g\	.	.	.	.	.	.
8r	.	8r	8r	(16ff#\	.	8r	.	8r	.	16a\	.	8r	.	.	8ff#\J	8aa\J
.	.	.	.	16dd\JJ)	.	.	.	.	.	16f#\JJ	.	.	.	.	.	.
!	!	!	!	!	!	!	!	!	!	!	!	!	!	!	!	!LO:LB:g=original
4F#\	.	4F#\	8a/L	(16ff#\LL	.	8F#\	-e	8d\	-ley-	16a\LL	.	4dd\	-ri-	.	4ff#\	4aa\
.	.	.	.	16ee\)	.	.	.	.	.	16g\	.	.	.	.	.	.
.	.	.	8a/J	(16ff#\	.	8F#\	e-	8d\	-son	16a\	.	.	.	.	.	.
.	.	.	.	16dd\JJ)	.	.	.	.	.	16f#\JJ	.	.	.	.	.	.
!	!	!	!	!LO:LB:g=original	!	!	!	!	!	!	!	!	!	!	!	!
8r	.	8r	4r	8ee\L	.	8r	.	8r	.	8g\	-son	8r	.	.	8r	8r
8F#\	.	8F#\	.	16cc#\L	.	8F#\	-lei-	8d\	e-	16e\LL	e-	8dd\	-e	.	8ff#\	8ff#\
.	.	.	.	16dd\JJ	.	.	.	.	.	16f#\JJ	.	.	.	.	.	.
!	!	!	!LO:LB:g=original	!	!	!	!	!	!	!	!	!	!	!	!	!
=79	=79	=79	=79	=79	=79	=79	=79	=79	=79	=79	=79	=79	=79	=79	=79	=79
8E\L	7	8E\L	8g/L	(16ee\LL	.	8E\L	-son	8d\	-ley-	16g\LL	-lei-	8dd\	Ky-	1ryy	8a/L	8gg\L
.	.	.	.	16dd\)	.	.	.	.	.	16f#\	.	.	.	.	.	.
8r	.	8r	8r	(16ee\	.	8r	.	8r	.	16g\	.	8r	.	.	8a/	8gg\
.	.	.	.	16cc#\JJ)	.	.	.	.	.	16e\JJ	.	.	.	.	.	.
8E\J	.	8E\J	8g/J	(16ee\LL	.	8E\J	e-	8G/	-son	16g\LL	.	8dd\	-ri-	.	8a/	8gg\
.	.	.	.	16dd\)	.	.	.	.	.	16f#\	.	.	.	.	.	.
8r	.	8r	8r	(16ee\	.	8r	.	8r	.	16g\	.	8r	.	.	8a/J	8gg\J
.	.	.	.	16cc#\JJ)	.	.	.	.	.	16e\JJ	.	.	.	.	.	.
4AA/	.	4AA/	8g/L	(16ee\LL	.	8E\	-lei-	8c#\	e-	16g\LL	.	4cc#\	-e	.	4a/	4gg\
.	.	.	.	16dd\)	.	.	.	.	.	16f#\	.	.	.	.	.	.
.	.	.	8g/J	(16ee\	.	8E\	-son	8c#\	-ley-	16g\	.	.	.	.	.	.
.	.	.	.	16cc#\JJ)	.	.	.	.	.	16e\JJ	.	.	.	.	.	.
8r	.	8r	4r	8dd\L	.	8r	.	8r	.	8f#\	-son	8r	.	.	8r	8r
*	*	*	*	*	*	*	*Xij	*	*	*	*	*	*Xij	*	*	*
8AA/	.	8AA/	.	8bb\J	.	8AA/	e-	8A\	-son	8e\	e-	8cc#\	e-	.	8ee\	8gg\
!	!	!LO:LB:g=original	!	!	!	!	!	!	!	!	!	!	!	!	!	!
=80	=80	=80	=80	=80	=80	=80	=80	=80	=80	=80	=80	=80	=80	=80	=80	=80
8D/L	6	8D/L	8cc#\L	8ff#\L	.	8D/L	-lei-	2B\	e-	4f#\	-lei-	4dd\	-ley-	1ryy	8dd\	8ff#\L
8BB/	.	8BB/	8dd\	8bb\	.	8BB/	.	.	.	.	.	.	.	.	8r	16bb\L
.	.	.	.	.	.	.	.	.	.	.	.	.	.	.	.	16aa\JJ
8E/	#	8E/	8ee\	8ee\	.	8E/	.	.	.	4g#X\	.	4b\	.	.	8.ee\L	8.gg#Xt\L
8D/J	.	8D/J	8b\J	8gg#X\J	.	8D/J	.	.	.	.	.	.	.	.	.	.
.	.	.	.	.	.	.	.	.	.	.	.	.	.	.	16ee\Jk	16gg#\Jk
!LO:TX:t=P:problem:mixed beam	!	!	!	!	!	!	!	!	!	!	!	!	!	!	!	!
8C#\L	6	8C#/L	16cc#\LL	16aa\LL	.	8C#/L	.	8B\L	-ley-	8a\	.	8ee\L	.	.	8ee\L	8aa\L
.	.	.	16a\	16ff#\	.	.	.	.	.	.	.	.	.	.	.	.
8D\	6	8D/	16a\	16ff#\	.	8D/	.	16d\L	.	16b\	-son	16dd\L	.	.	8ff#\	16aa\L
.	.	.	16a\JJ	16ff#\JJ	.	.	.	16c#\JJ	.	16a\	e-	16cc#\JJ	.	.	.	16ff#\JJ
8E\	4	8E/	16b\LL	16ee\LL	.	8E/	.	4B\	-son	8a\L	-lei-	4b\	.	.	8.ee\	8.gg#t\L
.	.	.	16dd\	16gg#\	.	.	.	.	.	.	.	.	.	.	.	.
8EE/J	2	8EE/J	16dd\	16gg#\	.	8EE/J	.	.	.	8g#\J	.	.	.	.	.	.
.	.	.	16dd\JJ	16gg#\JJ	.	.	.	.	.	.	.	.	.	.	16ee\Jk	16gg#\Jk
=81	=81	=81	=81	=81	=81	=81	=81	=81	=81	=81	=81	=81	=81	=81	=81	=81
8AA/L	.	8AA/L	8cc#\L	16ee\LL	.	8AA/	-son	8c#\	Ky-	8a\	-son	8a\	-son	1ryy	4ee\	4aa\
.	.	.	.	16dd\	.	.	.	.	.	.	.	.	.	.	.	.
8BB/	.	8BB/	8g\	16cc#\	.	16AA/	Ky-	16c#\	-ri-	16a\	Ky-	16ee\	Ky-	.	.	.
!	!	!	!	!	!	!LO:LB:g=original	!	!	!	!	!	!	!	!	!	!
.	.	.	.	16b\JJ	.	16BB/	-ri-	16d\	-e-	16e\	-ri-	16dd\	-ri-	.	.	.
!	!	!	!	!	!	!	!	!	!	!	!	!LO:LB:g=original	!	!	!	!
8C#/	.	8C#/	8a\	8a\L	.	8C#/	-e	8e\	-ley-	8a\	-e	8cc#\	-e	.	4r	4r
8AA/J	.	8AA/J	8cc#\J	8ee\J	.	8AA/	e-	8c#\	-son	8a\	e-	8ee\	e-	.	.	.
!	!	!	!	!	!	!	!	!	!	!LO:LB:g=original	!	!	!	!	!	!
8D/L	.	8D/L	8dd\L	8ff#\L	.	8D/	-lei-	8A\	e-	8a\	-lei-	8ff#\	-ley-	.	2r	2r
8C#/	.	8C#/	8ee\	8ee\	.	8C#/	-son	8A\	-ley-	8a\	-son	8ee\	-son	.	.	.
8D/	.	8D/	8ff#\	8dd\	.	8r	.	8r	.	8r	.	8r	.	.	.	.
8C#/J	.	8C#/J	8ee\J	8ee\J	.	8AA/	e-	8A/	-son	8a\	e-	8a\	e-	.	.	.
=82	=82	=82	=82	=82	=82	=82	=82	=82	=82	=82	=82	=82	=82	=82	=82	=82
!	!	!m	!	!	!	!LO:TX:t=P:problem:mixed beam	!	!	!	!	!	!	!	!	!	!
8BB/L	.	8BB/L	8b/L	(16dd\LL	.	8BB/L	-lei-	4F#/	Ky-	16b\LL	-lei-	16dd\LL	-ley-	1ryy	1r	1r
.	.	.	.	16cc#\)	.	.	.	.	.	16a\	.	16cc#\	.	.	.	.
8B\	.	8B\	8r	(16dd\	.	16B\L	.	.	.	16b\	.	16dd\	.	.	.	.
.	.	.	.	16b\JJ)	.	16A\JJ	.	.	.	16g#X\JJ	.	16b\JJ	.	.	.	.
8G#X\	.	8G#X\	8b/J	(16dd\LL	.	(8G#X\L	.	4B\	-ri-	16b\LL	.	16dd\LL	.	.	.	.
.	.	.	.	16cc#\	.	.	.	.	.	16a\	.	16cc#\	.	.	.	.
8E\J	.	8E\J	8r	16dd\)	.	8E\J)	.	.	.	16b\	.	16dd\	.	.	.	.
.	.	.	.	16b\JJ	.	.	.	.	.	16g#\JJ	.	16b\JJ	.	.	.	.
8A\L	.	8A\L	8a/L	8cc#\L	.	8A\	.	4c#\	-e	8a\	.	8cc#\	.	.	.	.
8AA/	.	8AA/	8cc#/	8a\	.	8AA/	-son	.	.	8a\	-son	8a\	-son	.	.	.
8C#/	.	8C#/	8a/	8cc#\	.	8r	.	8r	.	8r	.	8r	.	.	.	.
8AA/J	.	8AA/J	8cc#/J	8ee\J	.	8AA/	e-	8A\	e-	8a\	e-	8a\	e-	.	.	.
!	!	!	!	!	!	!	!	!LO:LB:g=original	!	!	!	!	!	!	!	!
=83	=83	=83	=83	=83	=83	=83	=83	=83	=83	=83	=83	=83	=83	=83	=83	=83
!LO:TX:t=P:problem:mixed beam	!	!	!	!	!	!LO:TX:t=P:problem:mixed beam	!	!	!	!	!	!	!	!	!	!
*	*	*	*	*	*	*	*	*	*ij	*	*	*	*	*	*	*
8BB\L	.	8BB/L	8f#/	(16dd\LL	.	8BB/L	-lei-	4F#/	-le-	16b\LL	-lei-	16dd\LL	-ley-	1ryy	1r	1r
.	.	.	.	16cc#\)	.	.	.	.	.	16a\	.	16cc#\	.	.	.	.
8B/	.	8B\	8r	(16dd\	.	16B\L	.	.	.	16b\	.	16dd\	.	.	.	.
.	.	.	.	16b\JJ)	.	16A\JJ	.	.	.	16g#X\JJ	.	16b\JJ	.	.	.	.
8G#X/	.	8G#X\	8g#X/	(16dd\LL	.	8G#X\L	.	4B\	-i-	16b\LL	.	16dd\LL	.	.	.	.
.	.	.	.	16cc#\)	.	.	.	.	.	16a\	.	16cc#\	.	.	.	.
8E/J	.	8E\J	8r	(16dd\	.	8E\J	.	.	.	16b\	.	16dd\	.	.	.	.
.	.	.	.	16b\JJ)	.	.	.	.	.	16g#\JJ	.	16b\JJ	.	.	.	.
8A\L	.	8A\L	8a/L	8cc#\L	.	8A\	.	4A\	-son	8a\	.	8cc#\	.	.	.	.
8AA/	.	8AA/	8b/	16aa\L	.	8AA/	-son	.	.	8a\	-son	8a\	-son	.	.	.
.	.	.	.	16gg\JJ	.	.	.	.	.	.	.	.	.	.	.	.
8C#/	.	8C#/	8cc#/	8aa\L	.	8r	.	8r	.	8r	.	8r	.	.	.	.
*	*	*	*	*	*	*	*ij	*	*	*	*	*	*	*	*	*
8AA/J	.	8AA/J	8a/J	8ee\J	.	8AA/	e-	8A/	e-	8a\	e-	8ee\	e-	.	.	.
=84	=84	=84	=84	=84	=84	=84	=84	=84	=84	=84	=84	=84	=84	=84	=84	=84
8D/L	.	8D/L	8a/L	(16ff#\LL	.	8D/L	-le-	8A\	-lei-	8a\L	-lei-	16ff#\LL	-ley-	1ryy	1r	1r
.	.	.	.	16ee\)	.	.	.	.	.	.	.	16ee\	.	.	.	.
8r	.	8r	8r	(16ff#\	.	8r	.	8r	.	8r	.	16ff#\	.	.	.	.
.	.	.	.	16dd\JJ)	.	.	.	.	.	.	.	16dd\JJ	.	.	.	.
8D/J	.	8D/J	8a/J	16ff#\LL	.	8D/J	-i-	8A\	.	8a\J	.	16ff#\LL	.	.	.	.
.	.	.	.	(16ee\	.	.	.	.	.	.	.	16ee\	.	.	.	.
8r	.	8r	8r	(16ff#\)	.	8r	.	8r	.	8r	.	16ff#\	.	.	.	.
.	.	.	.	16dd\JJ)	.	.	.	.	.	.	.	16dd\JJ	.	.	.	.
4D/	.	4D/	8a/L	(16ff#\LL	.	8D/	-son	8A\L	-son	4a\	.	16ff#\LL	.	.	.	.
.	.	.	.	16ee\)	.	.	.	.	.	.	.	16ee\	.	.	.	.
.	.	.	8a/J	(16ff#\	.	8D/	e-	8A\J	e-	.	.	16ff#\	.	.	.	.
.	.	.	.	16dd\JJ)	.	.	.	.	.	.	.	16dd\JJ	.	.	.	.
!	!	!	!	!LO:LB:g=original	!	!	!	!	!	!	!	!	!	!	!	!
8r	.	8r	4r	8ee\L	.	8r	.	8r	.	8r	.	8ee\	-son	.	.	.
!	!	!	!	!	!	!	!	!	!	!	!	!LO:N:vis=8	!	!	!	!
8D/	.	8D/	.	16cc#\L	.	8d\	-lei-	8A/	-lei-	8a\	.	16r	.	.	.	.
!	!	!	!	!	!	!	!	!	!	!	!	!LO:N:vis=8	!	!	!	!
.	.	.	.	16dd\JJ	.	.	.	.	.	.	.	16dd\	e-	.	.	.
!LO:LB:g=original	!	!	!	!	!	!	!	!	!	!	!	!	!	!	!	!
=85	=85	=85	=85	=85	=85	=85	=85	=85	=85	=85	=85	=85	=85	=85	=85	=85
8C#/L	.	8C#/L	8a/L	(16ee\LL	.	8c#\L	-son	8A\	-son	8a\L	.	16ee\LL	-ley-	1ryy	1r	1r
.	.	.	.	16dd\)	.	.	.	.	.	.	.	16dd\	.	.	.	.
8r	.	8r	8r	(16ee\	.	8r	.	8r	.	8r	.	16ee\	.	.	.	.
.	.	.	.	16cc#\JJ)	.	.	.	.	.	.	.	16cc#\JJ	.	.	.	.
!	!	!	!	!	!	!	!	!	!	!	!	!LO:LB:g=original	!	!	!	!
8C#/J	.	8C#/J	8a/J	(16ee\LL	.	8c#\J	e-	8A\	e-	8a\J	.	16ee\LL	.	.	.	.
.	.	.	.	16dd\)	.	.	.	.	.	.	.	16dd\	.	.	.	.
8r	.	8r	8r	(16ee\	.	8r	.	8r	.	8r	.	16ee\	.	.	.	.
.	.	.	.	16cc#\JJ)	.	.	.	.	.	.	.	16cc#\JJ	.	.	.	.
4C#/	.	4C#/	8a/L	(16ee\LL	.	8c#\	-lei-	8A/L	-lei-	4a\	-son	16ee\LL	.	.	.	.
.	.	.	.	16dd\)	.	.	.	.	.	.	.	16dd\	.	.	.	.
.	.	.	8a/J	(16ee\	.	8c#\	-son	8A/J	-son	.	.	16ee\	.	.	.	.
.	.	.	.	16cc#\JJ)	.	.	.	.	.	.	.	16cc#\JJ	.	.	.	.
8r	.	8r	4r	8dd\L	.	8r	.	8r	.	8r	.	8dd\	-son	.	.	.
*	*	*	*	*	*	*	*Xij	*	*	*	*ij	*	*	*	*	*
8C#/	.	8C#/	.	16b\L	.	8c#\	e-	8A/	e-	8a\	e-	16b\LL	e-	.	.	.
.	.	.	.	16cc#\JJ	.	.	.	.	.	.	.	16cc#\JJ	.	.	.	.
!	!	!LO:LB:g=original	!	!	!	!LO:LB:g=original	!	!	!	!	!	!	!	!	!	!
=86	=86	=86	=86	=86	=86	=86	=86	=86	=86	=86	=86	=86	=86	=86	=86	=86
8BB/L	7	8BB/L	8a/L	(16dd\LL	.	8B\L	-lei-	8A/	-le-	8a\L	-lei-	16dd\LL	-ley-	1ryy	1r	1r
.	.	.	.	16cc#\)	.	.	.	.	.	.	.	16cc#\	.	.	.	.
8r	.	8r	8r	(16dd\	.	8r	.	8r	.	8r	.	16dd\	.	.	.	.
.	.	.	.	16b\JJ)	.	.	.	.	.	.	.	16b\JJ	.	.	.	.
8BB/J	.	8BB/J	8a/J	(16dd\LL	.	8B\J	.	8A/	-i-	8a\J	-son	16dd\LL	.	.	.	.
.	.	.	.	16cc#\)	.	.	.	.	.	.	.	16cc#\	.	.	.	.
8r	.	8r	8r	(16dd\	.	8r	.	8r	.	8r	.	16dd\	.	.	.	.
.	.	.	.	16b\JJ)	.	.	.	.	.	.	.	16b\JJ	.	.	.	.
*	*	*	*	*	*	*	*	*	*	*	*Xij	*	*	*	*	*
4E\	7 #	4E\	8g#X/L	(16dd\LL	.	8B\	-son	8G#X/	-son	4g#X\	e-	16dd\LL	.	.	.	.
.	.	.	.	16cc#\)	.	.	.	.	.	.	.	16cc#\	.	.	.	.
.	.	.	8g#/J	(16dd\	.	8B\	.	8G#/	e-	.	.	16dd\	.	.	.	.
.	.	.	.	16b\JJ)	.	.	.	.	.	.	.	16b\JJ	.	.	.	.
8r	.	8r	8r	8cc#\L	.	8r	.	8r	.	8r	.	8cc#\	-son	.	.	.
8E\	.	8E\	8g#/	8ee\J	.	8E\	e-	8B\	-lei-	8g#\	-lei-	8ee\	e-	.	.	.
=87	=87	=87	=87	=87	=87	=87	=87	=87	=87	=87	=87	=87	=87	=87	=87	=87
8AA/L	.	8AA/L	4a/	8cc#\L	.	8AA/L	-lei-	8c#\L	.	(4a\	.	(4cc#\	-ley-	1ryy	1r	1r
8C#/	6	8C#/	.	8ee\	.	8C#/	.	8e\	.	.	.	.	.	.	.	.
8BB/	.	8BB/	4b/	8dd\	.	8BB/	.	8d\	.	4g#X\)	.	4dd\)	.	.	.	.
8D/J	6	8D/J	.	8ff#\J	.	8D/J	.	8f#\J	.	.	.	.	.	.	.	.
!LO:TX:t=P:problem:mixed beam	!	!	!	!	!	!	!	!	!	!	!	!	!	!	!	!
8C#\L	.	8C#/L	8a\L	8cc#\L	.	8C#/L	.	8e\	-son	8a\	-son	8ee\	-son	.	.	.
8D\	.	8D/	16dd\L	8ff#\J	.	8D/	.	16f#\	Ky-	16f#\	Ky-	(16a\	e-	.	.	.
.	.	.	16cc#\JJ	.	.	.	.	16f#\	-ri-	16f#\	-ri-	16b\)	.	.	.	.
!	!	!	!	!	!	!	!	!	!	!LO:LB:g=original	!	!	!	!	!	!
8E\	4	8E/	8b/L	16ee\LL	.	8E/	.	4e\	.	4e\	.	(8a\L	-ley-	.	.	.
.	.	.	.	16b\	.	.	.	.	.	.	.	.	.	.	.	.
8EE/J	2	8EE/J	8g#X/J	16cc#\	.	8EE/J	.	.	.	.	.	8g#X\J)	.	.	.	.
.	.	.	.	16dd\JJ	.	.	.	.	.	.	.	.	.	.	.	.
!	!	!	!LO:LB:g=original	!	!	!	!	!	!	!	!	!	!	!	!	!
=88	=88	=88	=88	=88	=88	=88	=88	=88	=88	=88	=88	=88	=88	=88	=88	=88
4AA/	.	4AA/	4a/	8cc#\L	.	4AA/	-son	4e\	-e	4e\	-e	4a\	-son	1ryy	2r	2r
.	.	.	.	16a\L	.	.	.	.	.	.	.	.	.	.	.	.
.	.	.	.	16b\JJ	.	.	.	.	.	.	.	.	.	.	.	.
4r	.	4r	4r	16cc#\LL	.	4r	.	4r	.	4r	.	4r	.	.	.	.
.	.	.	.	16dd\	.	.	.	.	.	.	.	.	.	.	.	.
.	.	.	.	16ee\	.	.	.	.	.	.	.	.	.	.	.	.
.	.	.	.	16ff#\JJ	.	.	.	.	.	.	.	.	.	.	.	.
8AA/L	-7	8AA/L	8cc#\L	(16gg\LL	.	4AA/	Ky-	4c#\	Ky-	4g-X\	Ky-	4ee\	Ky-	.	8r	8gg\L
.	.	.	.	16ff#\)	.	.	.	.	.	.	.	.	.	.	.	.
8AA/	.	8AA/	8cc#\	(16gg\	.	.	.	.	.	.	.	.	.	.	16ee\LL	8gg\
.	.	.	.	16ee\JJ)	.	.	.	.	.	.	.	.	.	.	16ee\JJ	.
8AA/	.	8AA/	8cc#\	(16gg\LL	.	4C#/	-ri-	4c#\	-ri-	4g-\	-ri-	4ee\	-ri-	.	16ee\LL	8gg\
.	.	.	.	16ff#\)	.	.	.	.	.	.	.	.	.	.	16ee\	.
8AA/J	.	8AA/J	8cc#\J	(16gg\	.	.	.	.	.	.	.	.	.	.	16ee\	8gg\J
.	.	.	.	16ee\JJ)	.	.	.	.	.	.	.	.	.	.	16ee\JJ	.
!	!	!	!	!	!	!	!	!LO:LB:g=original	!	!	!	!	!	!	!LO:LB:g=original	!
=89	=89	=89	=89	=89	=89	=89	=89	=89	=89	=89	=89	=89	=89	=89	=89	=89
!	!	!	!	!LO:TX:t=P:problem:mixed beam	!	!	!	!	!	!	!	!	!	!	!	!
4D\	.	4D/	4a/	8ff#\L	.	4D/	-e	4A\	-e	4f#\	-e	4dd\	-e	1ryy	4dd\	4ff#\
.	.	.	.	16d/L	.	.	.	.	.	.	.	.	.	.	.	.
.	.	.	.	16e/JJ	.	.	.	.	.	.	.	.	.	.	.	.
4r	.	4r	4r	16f#/LL	.	4r	.	4r	.	4r	.	4r	.	.	4r	4r
.	.	.	.	16g/	.	.	.	.	.	.	.	.	.	.	.	.
.	.	.	.	16a/	.	.	.	.	.	.	.	.	.	.	.	.
.	.	.	.	16b/JJ	.	.	.	.	.	.	.	.	.	.	.	.
*	*	*	*	*	*	*	*ij	*	*	*	*ij	*	*ij	*	*	*
8F#\L	-5_	8F#\L	8a/L	(16cc-X\LL	.	4F#\	Ky-	4d\	Ky-	4a\	Ky-	4cc-X\	Ky-	.	8ff#\L	8aa\L
.	.	.	.	16b\)	.	.	.	.	.	.	.	.	.	.	.	.
8F#\	.	8F#\	8a/	(16cc-\	.	.	.	.	.	.	.	.	.	.	8ff#\	8aa\
.	.	.	.	16a\JJ)	.	.	.	.	.	.	.	.	.	.	.	.
8F#\	.	8F#\	8a/	(16cc-\LL	.	4D\	-ri-	4d\	-ri-	4a\	-ri-	4cc-\	-ri-	.	8ff#\	8aa\
.	.	.	.	16b\)	.	.	.	.	.	.	.	.	.	.	.	.
8F#\J	.	8F#\J	8a/J	(16cc-\	.	.	.	.	.	.	.	.	.	.	8ff#\J	8aa\J
.	.	.	.	16a\JJ)	.	.	.	.	.	.	.	.	.	.	.	.
=90	=90	=90	=90	=90	=90	=90	=90	=90	=90	=90	=90	=90	=90	=90	=90	=90
4G\	.	4G\	4d/	8b/L	.	4G\	-e	4d\	-e	4g\	-e	4b\	-e	1ryy	4dd\	4dd\
*	*	*	*	*	*	*	*	*	*Xij	*	*	*	*	*	*	*
.	.	.	.	16e/L	.	.	.	.	.	.	.	.	.	.	.	.
.	.	.	.	16f#/JJ	.	.	.	.	.	.	.	.	.	.	.	.
!	!	!	!	!LO:LB:g=original	!	!	!	!	!	!	!	!	!	!	!	!
4r	.	4r	4r	16g#X/LL	.	4r	.	4r	.	4r	.	4r	.	.	4r	4r
.	.	.	.	16a/	.	.	.	.	.	.	.	.	.	.	.	.
.	.	.	.	16b/	.	.	.	.	.	.	.	.	.	.	.	.
.	.	.	.	16cc#/JJ	.	.	.	.	.	.	.	.	.	.	.	.
8G#X\L	5_	8G#X\L	8b\L	(16dd\LL	.	4G#X\	Ky-	4B\	Ky-	4b\	Ky-	4dd\	Ky-	.	8ee\L	8bb\L
.	.	.	.	16cc#\)	.	.	.	.	.	.	.	.	.	.	.	.
8G#\	.	8G#\	8b\	(16dd\	.	.	.	.	.	.	.	.	.	.	8ee\	8bb\
.	.	.	.	16b\JJ)	.	.	.	.	.	.	.	.	.	.	.	.
8G#\	.	8G#\	8b\	(16dd\LL	.	4E\	-ri-	8c#\L	-ry-	4b\	-ri-	4dd\	-ri-	.	8ee\	8bb\
.	.	.	.	16cc#\)	.	.	.	.	.	.	.	.	.	.	.	.
8G#\J	.	8G#\J	8b\J	(16dd\	.	.	.	8d\J	.	.	.	.	.	.	8ee\J	8bb\J
.	.	.	.	16b\JJ)	.	.	.	.	.	.	.	.	.	.	.	.
!	!	!	!	!	!	!	!	!	!	!	!	!LO:LB:g=original	!	!	!	!
=91	=91	=91	=91	=91	=91	=91	=91	=91	=91	=91	=91	=91	=91	=91	=91	=91
4A\	.	4A\	4e/	8cc#\L	.	4A\	-e	4e\	-e	4a\	-e	4cc#\	-e	1ryy	4ee\	4ee\
*	*	*	*	*	*	*	*	*	*	*	*	*	*	*	*	*
.	.	.	.	16a\L	.	.	.	.	.	.	.	.	.	.	.	.
.	.	.	.	16b\JJ	.	.	.	.	.	.	.	.	.	.	.	.
4r	.	4r	4r	16cc#\LL	.	4r	.	4r	.	4r	.	4r	.	.	4r	4r
.	.	.	.	16dd\	.	.	.	.	.	.	.	.	.	.	.	.
.	.	.	.	16ee\	.	.	.	.	.	.	.	.	.	.	.	.
.	.	.	.	16ff#\JJ	.	.	.	.	.	.	.	.	.	.	.	.
8AA/L	7	8AA/L	8cc#\L	(16gg\LL	.	4C#/	Ky-	4c#\	Ky-	4g\	Ky-	4ee\	Ky-	.	8ee\L	8gg\L
.	.	.	.	16ff#\)	.	.	.	.	.	.	.	.	.	.	.	.
8AA/	.	8AA/	8cc#\	(16gg\	.	.	.	.	.	.	.	.	.	.	8ee\	8gg\
.	.	.	.	16ee\JJ)	.	.	.	.	.	.	.	.	.	.	.	.
8AA/	.	8AA/	8cc#\	(16gg\LL	.	4AA/	-ri-	4c#\	-ri-	4g\	-ri-	4ee\	-ri-	.	8ee\	8gg\
.	.	.	.	16ff#\)	.	.	.	.	.	.	.	.	.	.	.	.
8AA/J	.	8AA/J	8cc#\J	(16gg\	.	.	.	.	.	.	.	.	.	.	8ee\J	8gg\J
.	.	.	.	16ee\JJ)	.	.	.	.	.	.	.	.	.	.	.	.
=92	=92	=92	=92	=92	=92	=92	=92	=92	=92	=92	=92	=92	=92	=92	=92	=92
!	!	!LO:TX:t=P:problem:mixed beam	!	!	!	!	!	!	!	!	!	!	!	!	!	!
8D\L	.	8BB/L	16dd\LL	16ff#\LL	.	8D\	-e	8d\	-e-	8f#\	-e	8dd\	-e	1ryy	16dd\LL	16ff#\LL
*	*	*	*	*	*	*	*Xij	*	*	*	*	*	*Xij	*	*	*
.	.	.	16cc#\	16ee\	.	.	.	.	.	.	.	.	.	.	16ff#\	16aa\
8G\	.	8G\	16cc#\	16ee\	.	8G\	e-	8B\	-le-	16g\LL	e-	(16ee\LL	e-	.	16ee\	16gg\
.	.	.	16cc#\JJ	16ee\JJ	.	.	.	.	.	16f#\JJ	.	16dd\JJ)	.	.	16dd\JJ	16ff#\JJ
8A\	.	8A\	16cc#\LL	16ee\LL	.	(8A\L	-lei-	4A\	-y-	(8f#\L	-le-	(8dd\L	-ley-	.	8.a/L	8.ee\L
.	.	.	16ee\	16gg\	.	.	.	.	.	.	.	.	.	.	.	.
!	!	!LO:TX:t=P:problem:takt niepełny	!	!	!	!	!	!	!	!	!	!	!	!	!	!
8AA/J	.	8AA/J	16dd\	16ff#\	.	8AA/J)	.	.	.	8e\J)	-i-	8cc#\J)	.	.	.	.
.	.	.	16cc#\JJ	16ee\JJ	.	.	.	.	.	.	.	.	.	.	16a/Jk	16ee\Jk
!	!	!	!	!LO:TX:t=P:problem:mixed beam	!	!	!	!	!	!	!	!	!	!	!	!
8D\L	.	8D\Lyy	16dd\LL	16ff#\LL	.	8D\	-son	8A\	-son	8f#\	-son	8dd\	-son	.	8dd\L	8ff#\L
.	.	.	16ee\	16a/	.	.	.	.	.	.	.	.	.	.	.	.
*	*	*	*	*	*	*	*	*	*	*	*ij	*	*	*	*	*
8G\	.	8G\yy	16ee\	16a/	.	8F#\	e-	8B\	e-	16g\LL	e-	(16ee\LL	e-	.	16ee\L	16gg\L
.	.	.	16ee\JJ	16a/JJ	.	.	.	.	.	16f#\JJ	.	16dd\JJ)	.	.	16dd\JJ	16ff#\JJ
8A\	.	8A\yy	16ee\LL	16cc#\LL	.	8A\L	-lei-	4A\	-ley-	(8f#\L	-le-	(8dd\L	-ley-	.	8.a/L	8.ee\L
.	.	.	16gg\	16ee\	.	.	.	.	.	.	.	.	.	.	.	.
8AA/J	.	8AA\Jyy	16ff#\	16dd\	.	8AA/J	.	.	.	8e\J)	-i-	8cc#\J)	.	.	.	.
.	.	.	16ee\JJ	16cc#\JJ	.	.	.	.	.	.	.	.	.	.	16a/Jk	16ee\Jk
!LO:LB:g=original	!	!LO:LB:g=original	!	!	!	!	!	!	!	!	!	!	!	!	!	!
=93	=93	=93	=93	=93	=93	=93	=93	=93	=93	=93	=93	=93	=93	=93	=93	=93
*M3/4	*	*M3/4	*M3/4	*M3/4	*	*M3/4	*	*M3/4	*	*M3/4	*	*M3/4	*	*M3/4	*M3/4	*M3/4
!	!	!	!	!	!	!	!	!	!	!	!	!LO:TX:t=P:problem:zmiana metrum na 3/4 dopiero po nucie	!	!	!	!LO:TX:b:t=Da Capo
!	!	!	!	!LO:TX:i:b:t=Chriſte	!	!	!	!	!	!	!	!	!	!	!	!
4D;;/	.	4D;;/	8dd;;\L	8dd;;\L	.	4D;/	-son	4A\	-son	4f#\	-son	4dd\	-son	2.ryy	4dd;\	4ff#;\
*	*	*	*	*	*	*	*	*	*	*	*Xij	*	*	*	*	*
!	!	!	!LO:TX:a:i:t=Solo.	!	!	!	!	!	!	!	!	!	!	!	!	!
.	.	.	16dd\L	16ff#\L	.	.	.	.	.	.	.	.	.	.	.	.
.	.	.	16dd\JJ	16ff#\JJ	.	.	.	.	.	.	.	.	.	.	.	.
!	!	!	!	!	!	!	!	!	!	!	!	!LO:TX:b:i:t=Da Capo Kyrie	!	!	!	!
!	!	!	!	!	!	!	!	!	!	!	!	!LO:TX:b:i:t=Tacet	!	!	!	!
4r	.	4r	8dd\L	8ff#\L	.	4r	.	4r	.	4r	.	4r	.	.	4r	4r
.	.	.	8dd\J	8ff#\J	.	.	.	.	.	.	.	.	.	.	.	.
!	!	!	!	!	!	!	!	!	!	!LO:TX:b:i:t=Christe Tacet\nKyrie Da Capo	!	!	!	!	!LO:TX:b:i:t=Christe\nTacet	!LO:TX:b:i:t=Tacet
4r	.	4r	8dd\L	8ff#\L	.	4r	.	4r	.	4r	.	4r	.	.	4r	4r
.	.	.	16cc#\L	16ee\L	.	.	.	.	.	.	.	.	.	.	.	.
.	.	.	16b\JJ	16dd\JJ	.	.	.	.	.	.	.	.	.	.	.	.
!	!	!	!	!	!	!LO:LB:g=original	!	!	!	!	!	!	!	!	!	!
=94	=94	=94	=94	=94	=94	=94	=94	=94	=94	=94	=94	=94	=94	=94	=94	=94
!	!	!	!	!	!	!	!	!	!	!	!	!	!	!	!LO:TX:b:i:t=Kyrie Da Capo	!
4F#\	7 #	4F#\	8cc#\L	8ee\L	.	2.r	.	2.r	.	2.r	.	2.r	.	2.ryy	2.ryy	2.ryy
.	.	.	8f#/	8f#/	.	.	.	.	.	.	.	.	.	.	.	.
4r	.	4r	8f#/	8f#/	.	.	.	.	.	.	.	.	.	.	.	.
.	.	.	8f#/	8f#/	.	.	.	.	.	.	.	.	.	.	.	.
4r	.	4r	8f#/	8f#/	.	.	.	.	.	.	.	.	.	.	.	.
.	.	.	8f#/J	8f#/J	.	.	.	.	.	.	.	.	.	.	.	.
=95	=95	=95	=95	=95	=95	=95	=95	=95	=95	=95	=95	=95	=95	=95	=95	=95
4F#\	7 #	4F#\	8r	8r	.	2.r	.	2.r	.	2.r	.	2.r	.	2.ryy	2.ryy	2.ryy
.	.	.	16cc#\LL	16ee\LL	.	.	.	.	.	.	.	.	.	.	.	.
.	.	.	16cc#\JJ	16ee\JJ	.	.	.	.	.	.	.	.	.	.	.	.
4r	.	4r	8cc#\L	8ee\L	.	.	.	.	.	.	.	.	.	.	.	.
.	.	.	8cc#\J	8ee\J	.	.	.	.	.	.	.	.	.	.	.	.
4r	.	4r	8cc#\L	8ee\L	.	.	.	.	.	.	.	.	.	.	.	.
.	.	.	16b\L	16dd\L	.	.	.	.	.	.	.	.	.	.	.	.
.	.	.	16a#X\JJ	16cc#\JJ	.	.	.	.	.	.	.	.	.	.	.	.
=96	=96	=96	=96	=96	=96	=96	=96	=96	=96	=96	=96	=96	=96	=96	=96	=96
4F#\	6 4	4F#\	8b/L	8dd\L	.	2.r	.	2.r	.	2.r	.	2.r	.	2.ryy	2.ryy	2.ryy
.	.	.	8f#/	8f#/	.	.	.	.	.	.	.	.	.	.	.	.
4r	.	4r	8f#/	8f#/	.	.	.	.	.	.	.	.	.	.	.	.
.	.	.	8f#/	8f#/	.	.	.	.	.	.	.	.	.	.	.	.
4r	.	4r	8f#/	8f#/	.	.	.	.	.	.	.	.	.	.	.	.
.	.	.	8f#/J	8f#/J	.	.	.	.	.	.	.	.	.	.	.	.
!	!	!	!	!LO:LB:g=original	!	!	!	!	!	!	!	!	!	!	!	!
=97	=97	=97	=97	=97	=97	=97	=97	=97	=97	=97	=97	=97	=97	=97	=97	=97
4F#\	8 6	4F#\	8dd\L	8ff#\L	.	2.r	.	2.r	.	2.r	.	2.r	.	2.ryy	2.ryy	2.ryy
.	.	.	16cc#\L	16ee\L	.	.	.	.	.	.	.	.	.	.	.	.
.	.	.	16b\JJ	16dd\JJ	.	.	.	.	.	.	.	.	.	.	.	.
!	!	!	!LO:LB:g=original	!	!	!	!	!	!	!	!	!	!	!	!	!
4r	.	4r	8cc#\L	8ee\L	.	.	.	.	.	.	.	.	.	.	.	.
.	.	.	8f#/	8f#/	.	.	.	.	.	.	.	.	.	.	.	.
4r	.	4r	8f#/	8f#/	.	.	.	.	.	.	.	.	.	.	.	.
.	.	.	8f#/J	8f#/J	.	.	.	.	.	.	.	.	.	.	.	.
=98	=98	=98	=98	=98	=98	=98	=98	=98	=98	=98	=98	=98	=98	=98	=98	=98
4F#\	7	4F#\	8cc#\L	8ee\L	.	2.r	.	2.r	.	2.r	.	2.r	.	2.ryy	2.ryy	2.ryy
.	.	.	16b\L	16dd\L	.	.	.	.	.	.	.	.	.	.	.	.
.	.	.	16a#X\JJ	16cc#\JJ	.	.	.	.	.	.	.	.	.	.	.	.
4r	.	4r	8b/L	8dd\L	.	.	.	.	.	.	.	.	.	.	.	.
.	.	.	8f#/	8f#/	.	.	.	.	.	.	.	.	.	.	.	.
4r	.	4r	8f#/	8f#/	.	.	.	.	.	.	.	.	.	.	.	.
.	.	.	8f#/J	8f#/J	.	.	.	.	.	.	.	.	.	.	.	.
=99	=99	=99	=99	=99	=99	=99	=99	=99	=99	=99	=99	=99	=99	=99	=99	=99
4BB/	.	4BB/	4d/	8b/L	.	2.r	.	2.r	.	2.r	.	2.r	.	2.ryy	2.ryy	2.ryy
.	.	.	.	8f#/	.	.	.	.	.	.	.	.	.	.	.	.
4AA#X/	6	4AA#X/	4f#/	8cc#/	.	.	.	.	.	.	.	.	.	.	.	.
.	.	.	.	8f#/	.	.	.	.	.	.	.	.	.	.	.	.
4BB/	.	4BB/	4b/	8dd/	.	.	.	.	.	.	.	.	.	.	.	.
.	.	.	.	8f#/J	.	.	.	.	.	.	.	.	.	.	.	.
=100	=100	=100	=100	=100	=100	=100	=100	=100	=100	=100	=100	=100	=100	=100	=100	=100
4C#/	6|	4C#/	2a#X/	4.ee\	.	2.r	.	2.r	.	2.r	.	2.r	.	2.ryy	2.ryy	2.ryy
4r	.	4r	.	.	.	.	.	.	.	.	.	.	.	.	.	.
.	.	.	.	8cc#\L	.	.	.	.	.	.	.	.	.	.	.	.
4r	.	4r	4cc#\	8ff#\	.	.	.	.	.	.	.	.	.	.	.	.
.	.	.	.	8ee\J	.	.	.	.	.	.	.	.	.	.	.	.
=101	=101	=101	=101	=101	=101	=101	=101	=101	=101	=101	=101	=101	=101	=101	=101	=101
4BB/	.	4BB/	4b/	8dd\L	.	2.r	.	2.r	.	2.r	.	2.r	.	2.ryy	2.ryy	2.ryy
.	.	.	.	8bb\J	.	.	.	.	.	.	.	.	.	.	.	.
4F#\	4	4F#\	2f#/	4f#/	.	.	.	.	.	.	.	.	.	.	.	.
4FF#/	2	4FF#/	.	4a#X/	.	.	.	.	.	.	.	.	.	.	.	.
=102	=102	=102	=102	=102	=102	=102	=102	=102	=102	=102	=102	=102	=102	=102	=102	=102
!	!	!	!	!	!	!	!	!LO:TX:a:i:B:t=Solo	!	!	!	!	!	!	!	!
8BB/L	.	8BB/L	4f#/	4b/	.	8r	.	8r	.	2.r	.	2.r	.	2.ryy	2.ryy	2.ryy
8C#/	.	8C#/	.	.	.	16B\LL	Chri-	8f#\	Chri-	.	.	.	.	.	.	.
.	.	.	.	.	.	16c#\JJ	.	.	.	.	.	.	.	.	.	.
8D/	.	8D/	4r	4r	.	8d\L	-ſte	8f#\	-ſte	.	.	.	.	.	.	.
8C#/	.	8C#/	.	.	.	8c#\J	.	8f#\	e-	.	.	.	.	.	.	.
8D/	.	8D/	4r	4r	.	8d\L	e-	8f#\L	-ley-	.	.	.	.	.	.	.
8BB/J	.	8BB/J	.	.	.	8B\J	.	16e\L	.	.	.	.	.	.	.	.
.	.	.	.	.	.	.	.	16d\JJ	.	.	.	.	.	.	.	.
=103	=103	=103	=103	=103	=103	=103	=103	=103	=103	=103	=103	=103	=103	=103	=103	=103
4C#/	6|	4C#/	2.r	2.r	.	4c#\	-lei-	4e\	-son	2.r	.	2.r	.	2.ryy	2.ryy	2.ryy
4r	.	4r	.	.	.	8A#X\	-son	8c#\L	.	.	.	.	.	.	.	.
.	.	.	.	.	.	8B\	e-	8d\J	e-	.	.	.	.	.	.	.
4AA#X/	.	4AA#X/	.	.	.	(8c#\L	-lei-	8e\L	-ley-	.	.	.	.	.	.	.
.	.	.	.	.	.	8A#\J)	.	8c#\J	.	.	.	.	.	.	.	.
!	!	!LO:LB:g=original	!	!	!	!	!	!	!	!	!	!	!	!	!	!
=104	=104	=104	=104	=104	=104	=104	=104	=104	=104	=104	=104	=104	=104	=104	=104	=104
4BB/	.	4BB/	8r	8r	.	4B\	.	4d\	.	2.r	.	2.r	.	2.ryy	2.ryy	2.ryy
.	.	.	16dd\LL	16ff#\LL	.	.	.	.	.	.	.	.	.	.	.	.
.	.	.	16dd\JJ	16ff#\JJ	.	.	.	.	.	.	.	.	.	.	.	.
4r	.	4r	8dd\L	8ff#\L	.	8BB/	-son	4B\	-son	.	.	.	.	.	.	.
.	.	.	8dd\J	8ff#\J	.	8r	.	.	.	.	.	.	.	.	.	.
4r	.	4r	8dd\L	8ff#\L	.	4ryy	.	4r	.	.	.	.	.	.	.	.
.	.	.	16cc#\L	16ee\L	.	.	.	.	.	.	.	.	.	.	.	.
.	.	.	16b\JJ	16dd\JJ	.	.	.	.	.	.	.	.	.	.	.	.
!LO:LB:g=original	!	!	!	!	!	!	!	!	!	!	!	!	!	!	!	!
=105	=105	=105	=105	=105	=105	=105	=105	=105	=105	=105	=105	=105	=105	=105	=105	=105
4F#\	7 #	4F#\	8cc#\L	8ee\L	.	2.r	.	2.r	.	2.r	.	2.r	.	2.ryy	2.ryy	2.ryy
.	.	.	8f#/	8f#/	.	.	.	.	.	.	.	.	.	.	.	.
4r	.	4r	8f#/	8f#/	.	.	.	.	.	.	.	.	.	.	.	.
.	.	.	8f#/	8f#/	.	.	.	.	.	.	.	.	.	.	.	.
4r	.	4r	8f#/	8f#/	.	.	.	.	.	.	.	.	.	.	.	.
.	.	.	8f#/J	8f#/J	.	.	.	.	.	.	.	.	.	.	.	.
=106	=106	=106	=106	=106	=106	=106	=106	=106	=106	=106	=106	=106	=106	=106	=106	=106
4F#\	7 #	4F#\	8r	8r	.	2.r	.	2.r	.	2.r	.	2.r	.	2.ryy	2.ryy	2.ryy
.	.	.	16cc#\LL	16ee\LL	.	.	.	.	.	.	.	.	.	.	.	.
.	.	.	16cc#\JJ	16ee\JJ	.	.	.	.	.	.	.	.	.	.	.	.
4r	.	4r	8cc#\L	8ee\L	.	.	.	.	.	.	.	.	.	.	.	.
.	.	.	8cc#\J	8ee\J	.	.	.	.	.	.	.	.	.	.	.	.
4r	.	4r	8cc#\L	8ee\L	.	.	.	.	.	.	.	.	.	.	.	.
.	.	.	16b\L	16dd\L	.	.	.	.	.	.	.	.	.	.	.	.
.	.	.	16a#X\JJ	16cc#\JJ	.	.	.	.	.	.	.	.	.	.	.	.
=107	=107	=107	=107	=107	=107	=107	=107	=107	=107	=107	=107	=107	=107	=107	=107	=107
4F#\	6 4	4F#\	8b/L	8dd\L	.	2.r	.	2.r	.	2.r	.	2.r	.	2.ryy	2.ryy	2.ryy
.	.	.	8f#/	8f#/	.	.	.	.	.	.	.	.	.	.	.	.
4r	.	4r	8f#/	8f#/	.	.	.	.	.	.	.	.	.	.	.	.
.	.	.	8f#/	8f#/	.	.	.	.	.	.	.	.	.	.	.	.
4r	.	4r	8f#/	8f#/	.	.	.	.	.	.	.	.	.	.	.	.
.	.	.	8f#/J	8f#/J	.	.	.	.	.	.	.	.	.	.	.	.
=108	=108	=108	=108	=108	=108	=108	=108	=108	=108	=108	=108	=108	=108	=108	=108	=108
4F#\	8 6	4F#\	8dd\L	8ff#\L	.	2.r	.	2.r	.	2.r	.	2.r	.	2.ryy	2.ryy	2.ryy
.	.	.	16cc#\L	16ee\L	.	.	.	.	.	.	.	.	.	.	.	.
.	.	.	16b\JJ	16dd\JJ	.	.	.	.	.	.	.	.	.	.	.	.
4r	.	4r	8cc#\L	8ee\L	.	.	.	.	.	.	.	.	.	.	.	.
.	.	.	8f#/	8f#/	.	.	.	.	.	.	.	.	.	.	.	.
4r	.	4r	8f#/	8f#/	.	.	.	.	.	.	.	.	.	.	.	.
.	.	.	8f#/J	8f#/J	.	.	.	.	.	.	.	.	.	.	.	.
=109	=109	=109	=109	=109	=109	=109	=109	=109	=109	=109	=109	=109	=109	=109	=109	=109
4F#\	7	4F#\	8cc#\L	8ee\L	.	2.r	.	2.r	.	2.r	.	2.r	.	2.ryy	2.ryy	2.ryy
.	.	.	16b\L	16dd\L	.	.	.	.	.	.	.	.	.	.	.	.
.	.	.	16a#X\JJ	16cc#\JJ	.	.	.	.	.	.	.	.	.	.	.	.
4r	.	4r	8b/L	8dd\L	.	.	.	.	.	.	.	.	.	.	.	.
.	.	.	8f#/	8f#/	.	.	.	.	.	.	.	.	.	.	.	.
4r	.	4r	8f#/	8f#/	.	.	.	.	.	.	.	.	.	.	.	.
.	.	.	8f#/J	8f#/J	.	.	.	.	.	.	.	.	.	.	.	.
!	!	!LO:TX:t=P:problem: w źródle dwa takty przekreślone	!	!LO:LB:g=original	!	!	!	!	!	!	!	!	!	!	!	!
=110	=110	=110	=110	=110	=110	=110	=110	=110	=110	=110	=110	=110	=110	=110	=110	=110
!LO:TX:t=P:problem:przed nutą dwa skreślone takty	!	!	!	!	!	!	!	!	!	!	!	!	!	!	!	!
4BB/	.	4BB/	4d/	8b/L	.	2.r	.	2.r	.	2.r	.	2.r	.	2.ryy	2.ryy	2.ryy
.	.	.	.	8f#/	.	.	.	.	.	.	.	.	.	.	.	.
4AA#X/	6	4AA#X/	4f#/	8cc#/	.	.	.	.	.	.	.	.	.	.	.	.
.	.	.	.	8f#/	.	.	.	.	.	.	.	.	.	.	.	.
4BB/	.	4BB/	4b/	8dd/	.	.	.	.	.	.	.	.	.	.	.	.
.	.	.	.	8f#/J	.	.	.	.	.	.	.	.	.	.	.	.
!	!	!	!LO:LB:g=original	!	!	!	!	!	!	!	!	!	!	!	!	!
=111	=111	=111	=111	=111	=111	=111	=111	=111	=111	=111	=111	=111	=111	=111	=111	=111
4C#/	6|	4C#/	2a/	4.ee\	.	2.r	.	2.r	.	2.r	.	2.r	.	2.ryy	2.ryy	2.ryy
4r	.	4r	.	.	.	.	.	.	.	.	.	.	.	.	.	.
.	.	.	.	8cc#\L	.	.	.	.	.	.	.	.	.	.	.	.
4r	.	4r	4cc#\	8ff#\	.	.	.	.	.	.	.	.	.	.	.	.
.	.	.	.	8ee\J	.	.	.	.	.	.	.	.	.	.	.	.
=112	=112	=112	=112	=112	=112	=112	=112	=112	=112	=112	=112	=112	=112	=112	=112	=112
4BB/	.	4BB/	4b/	8dd\L	.	2.r	.	2.r	.	2.r	.	2.r	.	2.ryy	2.ryy	2.ryy
.	.	.	.	8bb\J	.	.	.	.	.	.	.	.	.	.	.	.
4F#\	.	4F#\	2f#/	4f#/	.	.	.	.	.	.	.	.	.	.	.	.
4FF#/	.	4FF#/	.	4a#X/	.	.	.	.	.	.	.	.	.	.	.	.
=113	=113	=113	=113	=113	=113	=113	=113	=113	=113	=113	=113	=113	=113	=113	=113	=113
8BB/L	.	8BB/L	4f#/	4b/	.	8r	.	8r	.	2.r	.	2.r	.	2.ryy	2.ryy	2.ryy
!	!	!	!	!	!	!	!	!LO:TX:t=P:problem:w siedmiu taktach brak podpisanego tekstu	!	!	!	!	!	!	!	!
8C#/	.	8C#/	.	.	.	16B\LL	Chri-	8f#\	.	.	.	.	.	.	.	.
.	.	.	.	.	.	16c#\JJ	.	.	.	.	.	.	.	.	.	.
8D/	.	8D/	4r	4r	.	8d\L	-ſte	8f#\	.	.	.	.	.	.	.	.
8C#/	.	8C#/	.	.	.	8c#\J	.	8f#\	.	.	.	.	.	.	.	.
8D/	.	8D/	4r	4r	.	8d\L	e-	8f#\L	.	.	.	.	.	.	.	.
8BB/J	.	8BB/J	.	.	.	8B\J	.	16e\L	.	.	.	.	.	.	.	.
.	.	.	.	.	.	.	.	16d\JJ	.	.	.	.	.	.	.	.
=114	=114	=114	=114	=114	=114	=114	=114	=114	=114	=114	=114	=114	=114	=114	=114	=114
4C#/	6|	4C#/	2.r	2.r	.	4c#\	-lei-	4e\	.	2.r	.	2.r	.	2.ryy	2.ryy	2.ryy
4r	.	4r	.	.	.	8A#X\L	.	8c#\	.	.	.	.	.	.	.	.
.	.	.	.	.	.	8B\J	.	8d\	.	.	.	.	.	.	.	.
4r	.	4r	.	.	.	8c#\L	-son	8e\L	.	.	.	.	.	.	.	.
.	.	.	.	.	.	8A#\J	.	8c#\J	.	.	.	.	.	.	.	.
!	!	!LO:LB:g=original	!	!	!	!	!	!	!	!	!	!	!	!	!	!
=115	=115	=115	=115	=115	=115	=115	=115	=115	=115	=115	=115	=115	=115	=115	=115	=115
4BB/	.	4BB/	2.r	2.r	.	4B\	e-	4d\	.	2.r	.	2.r	.	2.ryy	2.ryy	2.ryy
8B\L	.	8B\L	.	.	.	8B\	-lei-	4B\	.	.	.	.	.	.	.	.
8A\	.	8A\	.	.	.	8An\	-son	.	.	.	.	.	.	.	.	.
8B\	.	8B\	.	.	.	8B\L	e-	4d\	.	.	.	.	.	.	.	.
8A\J	.	8A\J	.	.	.	8A\J	.	.	.	.	.	.	.	.	.	.
=116	=116	=116	=116	=116	=116	=116	=116	=116	=116	=116	=116	=116	=116	=116	=116	=116
2G\	.	2G\	2.r	2.r	.	4G\	-lei-	8e\L	.	2.r	.	2.r	.	2.ryy	2.ryy	2.ryy
.	.	.	.	.	.	.	.	8f#\	.	.	.	.	.	.	.	.
.	.	.	.	.	.	8E\	-son	8e\	.	.	.	.	.	.	.	.
.	.	.	.	.	.	8F#\	e-	8d\	.	.	.	.	.	.	.	.
!	!	!	!	!	!	!LO:LB:g=original	!	!	!	!	!	!	!	!	!	!
4E\	.	4E\	.	.	.	8G\L	-lei-	8e\	.	.	.	.	.	.	.	.
.	.	.	.	.	.	8E\J	.	8c#\J	.	.	.	.	.	.	.	.
!LO:LB:g=original	!	!	!	!	!	!	!	!	!	!	!	!	!	!	!	!
=117	=117	=117	=117	=117	=117	=117	=117	=117	=117	=117	=117	=117	=117	=117	=117	=117
2A\	.	2A\	2.r	2.r	.	4A\	.	4c#\	.	2.r	.	2.r	.	2.ryy	2.ryy	2.ryy
.	.	.	.	.	.	8A,\	-son	4A\	.	.	.	.	.	.	.	.
.	.	.	.	.	.	8G\	e-	.	.	.	.	.	.	.	.	.
4G\	2	4G\	.	.	.	8A\L	-lei-	4c#\	.	.	.	.	.	.	.	.
.	.	.	.	.	.	8G\J	.	.	.	.	.	.	.	.	.	.
=118	=118	=118	=118	=118	=118	=118	=118	=118	=118	=118	=118	=118	=118	=118	=118	=118
8F#\L	.	8F#\L	2.r	2.r	.	4F#\	.	8d\L	.	2.r	.	2.r	.	2.ryy	2.ryy	2.ryy
8E\	.	8E\	.	.	.	.	.	8e\	.	.	.	.	.	.	.	.
8D\	.	8D\	.	.	.	8D,\	-son	8d\	.	.	.	.	.	.	.	.
8G\	.	8G\	.	.	.	8G\	e-	8c#\	.	.	.	.	.	.	.	.
8A\	.	8A\	.	.	.	8A\L	-leij-	8d\	.	.	.	.	.	.	.	.
8AA/J	.	8AA/J	.	.	.	8AA/J	.	8e\J	.	.	.	.	.	.	.	.
=119	=119	=119	=119	=119	=119	=119	=119	=119	=119	=119	=119	=119	=119	=119	=119	=119
4D\	.	4D\	8r	8r	.	4D/	.	4d\	.	2.r	.	2.r	.	2.ryy	2.ryy	2.ryy
.	.	.	16ff#\LL	16aa\LL	.	.	.	.	.	.	.	.	.	.	.	.
.	.	.	16ff#\JJ	16aa\JJ	.	.	.	.	.	.	.	.	.	.	.	.
4r	.	4r	8ff#\L	8aa\L	.	8D/	-son	4r	.	.	.	.	.	.	.	.
.	.	.	8ff#\J	8aa\J	.	8r	.	.	.	.	.	.	.	.	.	.
4r	.	4r	8ff#\L	8aa\L	.	4r	.	4r	.	.	.	.	.	.	.	.
.	.	.	16ee\L	16gg\L	.	.	.	.	.	.	.	.	.	.	.	.
.	.	.	16dd\JJ	16ff#\JJ	.	.	.	.	.	.	.	.	.	.	.	.
=120	=120	=120	=120	=120	=120	=120	=120	=120	=120	=120	=120	=120	=120	=120	=120	=120
4E\	6|	4E\	8ee\L	8gg\L	.	2.r	.	2.r	.	2.r	.	2.r	.	2.ryy	2.ryy	2.ryy
.	.	.	8a/	8a/	.	.	.	.	.	.	.	.	.	.	.	.
4r	.	4r	8a/	8a/	.	.	.	.	.	.	.	.	.	.	.	.
.	.	.	8a/	8a/	.	.	.	.	.	.	.	.	.	.	.	.
4r	.	4r	8a/	8a/	.	.	.	.	.	.	.	.	.	.	.	.
.	.	.	8a/J	8a/J	.	.	.	.	.	.	.	.	.	.	.	.
=121	=121	=121	=121	=121	=121	=121	=121	=121	=121	=121	=121	=121	=121	=121	=121	=121
!	!	!	!	!	!	!	!	!LO:TX:a:t=9	!	!	!	!	!	!	!	!
2.ryy	.	4E\	2.ryy	2.ryy	.	2.ryy	.	2.ryy	.	2.ryy	.	2.ryy	.	2.ryy	2.ryy	2.ryy
.	.	4r	.	.	.	.	.	.	.	.	.	.	.	.	.	.
.	.	4r	.	.	.	.	.	.	.	.	.	.	.	.	.	.
=122	=122	=122	=122	=122	=122	=122	=122	=122	=122	=122	=122	=122	=122	=122	=122	=122
4AA/	7	4AA/	8r	8r	.	2.r	.	2.r	.	2.r	.	2.r	.	2.ryy	2.ryy	2.ryy
.	.	.	16ee\LL	16gg\LL	.	.	.	.	.	.	.	.	.	.	.	.
.	.	.	16ee\JJ	16gg\JJ	.	.	.	.	.	.	.	.	.	.	.	.
4r	.	4r	8ee\L	8gg\L	.	.	.	.	.	.	.	.	.	.	.	.
.	.	.	8ee\J	8gg\J	.	.	.	.	.	.	.	.	.	.	.	.
4r	.	4r	8ee\L	8gg\L	.	.	.	.	.	.	.	.	.	.	.	.
.	.	.	16dd\L	16ff#\L	.	.	.	.	.	.	.	.	.	.	.	.
.	.	.	16cc#\JJ	16ee\JJ	.	.	.	.	.	.	.	.	.	.	.	.
=123	=123	=123	=123	=123	=123	=123	=123	=123	=123	=123	=123	=123	=123	=123	=123	=123
4D/	.	4D/	8dd\L	8ff#\L	.	2.r	.	2.r	.	2.r	.	2.r	.	2.ryy	2.ryy	2.ryy
.	.	.	8a/	8a/	.	.	.	.	.	.	.	.	.	.	.	.
4r	.	4r	8a/	8a/	.	.	.	.	.	.	.	.	.	.	.	.
.	.	.	8a/	8a/	.	.	.	.	.	.	.	.	.	.	.	.
4r	.	4r	8a/	8a/	.	.	.	.	.	.	.	.	.	.	.	.
.	.	.	8a/J	8a/J	.	.	.	.	.	.	.	.	.	.	.	.
=124	=124	=124	=124	=124	=124	=124	=124	=124	=124	=124	=124	=124	=124	=124	=124	=124
4AA/	8 6	4AA/	8ff#\L	8aa\L	.	2.r	.	2.r	.	2.r	.	2.r	.	2.ryy	2.ryy	2.ryy
.	.	.	16ee\L	16gg\L	.	.	.	.	.	.	.	.	.	.	.	.
.	.	.	16dd\JJ	16ff#\JJ	.	.	.	.	.	.	.	.	.	.	.	.
4r	.	4r	8ee\L	8gg\L	.	.	.	.	.	.	.	.	.	.	.	.
.	.	.	8a/	8a/	.	.	.	.	.	.	.	.	.	.	.	.
4r	.	4r	8a/	8a/	.	.	.	.	.	.	.	.	.	.	.	.
.	.	.	8a/J	8a/J	.	.	.	.	.	.	.	.	.	.	.	.
=125	=125	=125	=125	=125	=125	=125	=125	=125	=125	=125	=125	=125	=125	=125	=125	=125
4AA/	7	4AA/	8ee\L	8gg\L	.	2.r	.	2.r	.	2.r	.	2.r	.	2.ryy	2.ryy	2.ryy
.	.	.	16dd\L	16ff#\L	.	.	.	.	.	.	.	.	.	.	.	.
.	.	.	16cc#\JJ	16ee\JJ	.	.	.	.	.	.	.	.	.	.	.	.
4r	.	4r	8dd\L	8ff#\L	.	.	.	.	.	.	.	.	.	.	.	.
.	.	.	8a\	8a/	.	.	.	.	.	.	.	.	.	.	.	.
4r	.	4r	8a\	8a/	.	.	.	.	.	.	.	.	.	.	.	.
.	.	.	8a\J	8a/J	.	.	.	.	.	.	.	.	.	.	.	.
=126	=126	=126	=126	=126	=126	=126	=126	=126	=126	=126	=126	=126	=126	=126	=126	=126
4D/	.	4D/	4f#/	8dd\L	.	2.r	.	2.r	.	2.r	.	2.r	.	2.ryy	2.ryy	2.ryy
.	.	.	.	8a\	.	.	.	.	.	.	.	.	.	.	.	.
4C#/	6	4C#/	4a/	8ee\	.	.	.	.	.	.	.	.	.	.	.	.
.	.	.	.	8a\	.	.	.	.	.	.	.	.	.	.	.	.
4D/	.	4D/	4dd\	8ff#\	.	.	.	.	.	.	.	.	.	.	.	.
.	.	.	.	8a\J	.	.	.	.	.	.	.	.	.	.	.	.
=127	=127	=127	=127	=127	=127	=127	=127	=127	=127	=127	=127	=127	=127	=127	=127	=127
4E\	6|	4E\	2cc#\	4.gg\	.	2.r	.	2.r	.	2.r	.	2.r	.	2.ryy	2.ryy	2.ryy
4r	.	4r	.	.	.	.	.	.	.	.	.	.	.	.	.	.
.	.	.	.	8ee\L	.	.	.	.	.	.	.	.	.	.	.	.
4r	.	4r	4ee\	8aa\	.	.	.	.	.	.	.	.	.	.	.	.
.	.	.	.	8gg\J	.	.	.	.	.	.	.	.	.	.	.	.
!	!	!LO:LB:g=original	!	!	!	!	!	!	!	!	!	!	!	!	!	!
=128	=128	=128	=128	=128	=128	=128	=128	=128	=128	=128	=128	=128	=128	=128	=128	=128
4D\	.	4D\	4dd\	4ff#\	.	2.r	.	2.r	.	2.r	.	2.r	.	2.ryy	2.ryy	2.ryy
4A\	.	4A\	4a/	4a/	.	.	.	.	.	.	.	.	.	.	.	.
4AA/	.	4AA/	4g/	4cc#\	.	.	.	.	.	.	.	.	.	.	.	.
=129	=129	=129	=129	=129	=129	=129	=129	=129	=129	=129	=129	=129	=129	=129	=129	=129
8D\L	.	8D\L	4f#/	4dd\	.	8r	.	2.r	.	2.r	.	2.r	.	2.ryy	2.ryy	2.ryy
8E\	.	8E\	.	.	.	16D\LL	Chri-	.	.	.	.	.	.	.	.	.
.	.	.	.	.	.	16E\JJ	.	.	.	.	.	.	.	.	.	.
8F#\	.	8F#\	4r	4r	.	8F#\	-ſte	.	.	.	.	.	.	.	.	.
8E\	.	8E\	.	.	.	8D\	e-	.	.	.	.	.	.	.	.	.
8F#\	.	8F#\	4r	4r	.	8E\L	-lei-	.	.	.	.	.	.	.	.	.
8G\J	.	8G\J	.	.	.	16F#\L	.	.	.	.	.	.	.	.	.	.
.	.	.	.	.	.	16G\JJ	.	.	.	.	.	.	.	.	.	.
!LO:LB:g=original	!	!	!	!	!	!	!	!LO:LB:g=original	!	!	!	!	!	!	!	!
=130	=130	=130	=130	=130	=130	=130	=130	=130	=130	=130	=130	=130	=130	=130	=130	=130
4A\	6	4A\	2.r	2.r	.	4A\	-son	8r	.	2.r	.	2.r	.	2.ryy	2.ryy	2.ryy
.	.	.	.	.	.	.	.	16A\LL	Chry-	.	.	.	.	.	.	.
.	.	.	.	.	.	.	.	(16B\JJ	.	.	.	.	.	.	.	.
4r	.	4r	.	.	.	8r	.	8c#\)	-ste	.	.	.	.	.	.	.
.	.	.	.	.	.	8A\	e-	8A\	.	.	.	.	.	.	.	.
4r	.	4r	.	.	.	8G\L	-lei-	(8d\L	e-	.	.	.	.	.	.	.
.	.	.	.	.	.	8F#\J	.	8d\J)	.	.	.	.	.	.	.	.
=131	=131	=131	=131	=131	=131	=131	=131	=131	=131	=131	=131	=131	=131	=131	=131	=131
4G\	6	4G\	2.r	2.r	.	4G\	-son	16e\LL	.	2.r	.	2.r	.	2.ryy	2.ryy	2.ryy
.	.	.	.	.	.	.	.	16d\	-ley-	.	.	.	.	.	.	.
.	.	.	.	.	.	.	.	16e\	.	.	.	.	.	.	.	.
.	.	.	.	.	.	.	.	16f#\JJ	.	.	.	.	.	.	.	.
*	*	*	*	*	*	*	*ij	*	*ij	*	*	*	*	*	*	*
4r	.	4r	.	.	.	8r	.	8e\L	-son	.	.	.	.	.	.	.
.	.	.	.	.	.	8G\L	e-	8c#\J	.	.	.	.	.	.	.	.
4r	.	4r	.	.	.	8F#\	-lei-	4e\	e-	.	.	.	.	.	.	.
.	.	.	.	.	.	8E\J	.	.	.	.	.	.	.	.	.	.
=132	=132	=132	=132	=132	=132	=132	=132	=132	=132	=132	=132	=132	=132	=132	=132	=132
4F#\	6	4F#\	2.r	2.r	.	4F#\	-son	16d\LL	-ley-	2.r	.	2.r	.	2.ryy	2.ryy	2.ryy
*	*	*	*	*	*	*	*Xij	*	*	*	*	*	*	*	*	*
.	.	.	.	.	.	.	.	16c#\	.	.	.	.	.	.	.	.
.	.	.	.	.	.	.	.	16d\	.	.	.	.	.	.	.	.
.	.	.	.	.	.	.	.	16e\JJ	.	.	.	.	.	.	.	.
4r	.	4r	.	.	.	8r	.	8d\L	-son	.	.	.	.	.	.	.
.	.	.	.	.	.	8F#\L	e-	8A\J	.	.	.	.	.	.	.	.
4r	.	4r	.	.	.	8E\	-lei-	4d\	e-	.	.	.	.	.	.	.
.	.	.	.	.	.	8D\J	.	.	.	.	.	.	.	.	.	.
!	!	!	!	!	!	!LO:LB:g=original	!	!	!	!	!	!	!	!	!	!
=133	=133	=133	=133	=133	=133	=133	=133	=133	=133	=133	=133	=133	=133	=133	=133	=133
4E\	7	4E\	2.r	2.r	.	4E\	-son	16d\LL	-ley-	2.r	.	2.r	.	2.ryy	2.ryy	2.ryy
*	*	*	*	*	*	*	*	*	*Xij	*	*	*	*	*	*	*
.	.	.	.	.	.	.	.	16c#\	.	.	.	.	.	.	.	.
.	.	.	.	.	.	.	.	16d\	.	.	.	.	.	.	.	.
.	.	.	.	.	.	.	.	16e\JJ	.	.	.	.	.	.	.	.
4r	.	4r	.	.	.	8r	.	8d\L	.	.	.	.	.	.	.	.
.	.	.	.	.	.	8G\L	e-	8e\	.	.	.	.	.	.	.	.
4AA/	7	4r	.	.	.	8F#\	.	8A\	.	.	.	.	.	.	.	.
.	.	.	.	.	.	8E\J	.	8c#\J	.	.	.	.	.	.	.	.
=134	=134	=134	=134	=134	=134	=134	=134	=134	=134	=134	=134	=134	=134	=134	=134	=134
8D\L	.	8D\L	2.r	2.r	.	8D\	-lei-	8d\	-son	2.r	.	2.r	.	2.ryy	2.ryy	2.ryy
8G\	.	8G\	.	.	.	16G\	-son	8e\	e-	.	.	.	.	.	.	.
.	.	.	.	.	.	16G\	e-	.	.	.	.	.	.	.	.	.
8A\	.	8A\	.	.	.	8A\L	-lei-	4d\	-le-	.	.	.	.	.	.	.
8G\	.	8G\	.	.	.	8G\	.	.	.	.	.	.	.	.	.	.
8A\	.	8A\	.	.	.	8A\	.	4c#\	-y-	.	.	.	.	.	.	.
8AA/J	.	8AA/J	.	.	.	8AA/J	.	.	.	.	.	.	.	.	.	.
!	!	!	!LO:LB:g=original	!LO:LB:g=original	!	!	!	!	!	!	!	!	!	!	!	!
=135	=135	=135	=135	=135	=135	=135	=135	=135	=135	=135	=135	=135	=135	=135	=135	=135
4D/	.	4D/	8r	8r	.	4D/	-son.	4d\	-son	2.r	.	2.r	.	2.ryy	2.ryy	2.ryy
.	.	.	16ff#\LL	16aa\LL	.	.	.	.	.	.	.	.	.	.	.	.
.	.	.	16ff#\JJ	16aa\JJ	.	.	.	.	.	.	.	.	.	.	.	.
4r	.	4r	8ff#\L	8aa\L	.	4r	.	4r	.	.	.	.	.	.	.	.
.	.	.	8ff#\J	8aa\J	.	.	.	.	.	.	.	.	.	.	.	.
4r	.	4r	8ff#\L	8aa\L	.	4r	.	4r	.	.	.	.	.	.	.	.
.	.	.	16ee\L	16gg\L	.	.	.	.	.	.	.	.	.	.	.	.
.	.	.	16dd\JJ	16ff#\JJ	.	.	.	.	.	.	.	.	.	.	.	.
=136	=136	=136	=136	=136	=136	=136	=136	=136	=136	=136	=136	=136	=136	=136	=136	=136
4AA/	.	4AA/	8ee\L	8gg\L	.	2.r	.	2.r	.	2.r	.	2.r	.	2.ryy	2.ryy	2.ryy
.	.	.	8a\	8a/	.	.	.	.	.	.	.	.	.	.	.	.
4r	.	4r	8a\	8a/	.	.	.	.	.	.	.	.	.	.	.	.
.	.	.	8a\	8a/	.	.	.	.	.	.	.	.	.	.	.	.
4r	.	4r	8a\	8a/	.	.	.	.	.	.	.	.	.	.	.	.
.	.	.	8a\J	8a/J	.	.	.	.	.	.	.	.	.	.	.	.
=137	=137	=137	=137	=137	=137	=137	=137	=137	=137	=137	=137	=137	=137	=137	=137	=137
4C#/	.	4C#/	8r	8r	.	2.r	.	2.r	.	2.r	.	2.r	.	2.ryy	2.ryy	2.ryy
.	.	.	16ee\LL	16gg\LL	.	.	.	.	.	.	.	.	.	.	.	.
.	.	.	16ee\JJ	16gg\JJ	.	.	.	.	.	.	.	.	.	.	.	.
4r	.	4r	8ee\L	8gg\L	.	.	.	.	.	.	.	.	.	.	.	.
.	.	.	8ee\J	8gg\J	.	.	.	.	.	.	.	.	.	.	.	.
4r	.	4r	8ee\L	8gg\L	.	.	.	.	.	.	.	.	.	.	.	.
.	.	.	16dd\L	16ff#\L	.	.	.	.	.	.	.	.	.	.	.	.
.	.	.	16cc#\JJ	16ee\JJ	.	.	.	.	.	.	.	.	.	.	.	.
=138	=138	=138	=138	=138	=138	=138	=138	=138	=138	=138	=138	=138	=138	=138	=138	=138
!	!	!	!	!LO:TX:t=P:problem:brak jednego taktu	!	!	!	!	!	!	!	!	!	!	!	!
4D/	.	4D/	8dd\L	2.b\yy	.	2.r	.	2.r	.	2.r	.	2.r	.	2.ryy	2.ryy	2.ryy
.	.	.	8f#/	.	.	.	.	.	.	.	.	.	.	.	.	.
4r	.	4r	8f#/	.	.	.	.	.	.	.	.	.	.	.	.	.
.	.	.	8f#/	.	.	.	.	.	.	.	.	.	.	.	.	.
4r	.	4r	8f#/	.	.	.	.	.	.	.	.	.	.	.	.	.
.	.	.	8f#/J	.	.	.	.	.	.	.	.	.	.	.	.	.
=139	=139	=139	=139	=139	=139	=139	=139	=139	=139	=139	=139	=139	=139	=139	=139	=139
4BB/	.	4BB/	8r	8r	.	2.r	.	2.r	.	2.r	.	2.r	.	2.ryy	2.ryy	2.ryy
.	.	.	16dd\LL	16ff#\LL	.	.	.	.	.	.	.	.	.	.	.	.
.	.	.	16dd\JJ	16ff#\JJ	.	.	.	.	.	.	.	.	.	.	.	.
4r	.	4r	8dd\L	8ff#\L	.	.	.	.	.	.	.	.	.	.	.	.
.	.	.	8dd\J	8ff#\J	.	.	.	.	.	.	.	.	.	.	.	.
4r	.	4r	8dd\L	8ff#\L	.	.	.	.	.	.	.	.	.	.	.	.
.	.	.	16cc#\L	16ee\L	.	.	.	.	.	.	.	.	.	.	.	.
.	.	.	16b\JJ	16dd\JJ	.	.	.	.	.	.	.	.	.	.	.	.
=140	=140	=140	=140	=140	=140	=140	=140	=140	=140	=140	=140	=140	=140	=140	=140	=140
4C#/	6|	4C#/	8cc#\L	8ee\L	.	2.r	.	2.r	.	2.r	.	2.r	.	2.ryy	2.ryy	2.ryy
.	.	.	8f#/	8f#/	.	.	.	.	.	.	.	.	.	.	.	.
4r	.	4r	8f#/	8f#/	.	.	.	.	.	.	.	.	.	.	.	.
.	.	.	8f#/	8f#/	.	.	.	.	.	.	.	.	.	.	.	.
4r	.	4r	8f#/	8f#/	.	.	.	.	.	.	.	.	.	.	.	.
.	.	.	8f#/J	8f#/J	.	.	.	.	.	.	.	.	.	.	.	.
!	!	!LO:LB:g=original	!	!	!	!	!	!	!	!	!	!	!	!	!	!
=141	=141	=141	=141	=141	=141	=141	=141	=141	=141	=141	=141	=141	=141	=141	=141	=141
4F#\	7 #	4F#\	8r	8r	.	2.r	.	2.r	.	2.r	.	2.r	.	2.ryy	2.ryy	2.ryy
.	.	.	16cc#\LL	16ee\LL	.	.	.	.	.	.	.	.	.	.	.	.
.	.	.	16cc#\JJ	16ee\JJ	.	.	.	.	.	.	.	.	.	.	.	.
4r	.	4r	8cc#\L	8ee\L	.	.	.	.	.	.	.	.	.	.	.	.
.	.	.	8cc#\J	8ee\J	.	.	.	.	.	.	.	.	.	.	.	.
4r	.	4r	8cc#\L	8ee\L	.	.	.	.	.	.	.	.	.	.	.	.
.	.	.	16b\L	16dd\L	.	.	.	.	.	.	.	.	.	.	.	.
.	.	.	16a#X\JJ	16cc#\JJ	.	.	.	.	.	.	.	.	.	.	.	.
!LO:LB:g=original	!	!	!	!	!	!	!	!	!	!	!	!	!	!	!	!
=142	=142	=142	=142	=142	=142	=142	=142	=142	=142	=142	=142	=142	=142	=142	=142	=142
4F#\	8 6	4F#\	8b/L	8dd\L	.	2.r	.	2.r	.	2.r	.	2.r	.	2.ryy	2.ryy	2.ryy
.	.	.	8f#/	8f#/	.	.	.	.	.	.	.	.	.	.	.	.
4r	.	4r	8f#/	8f#/	.	.	.	.	.	.	.	.	.	.	.	.
.	.	.	8f#/	8f#/	.	.	.	.	.	.	.	.	.	.	.	.
4r	.	4r	8f#/	8f#/	.	.	.	.	.	.	.	.	.	.	.	.
.	.	.	8f#/J	8f#/J	.	.	.	.	.	.	.	.	.	.	.	.
=143	=143	=143	=143	=143	=143	=143	=143	=143	=143	=143	=143	=143	=143	=143	=143	=143
4F#\	7 5	4F#\	8dd\L	8ff#\L	.	2.r	.	2.r	.	2.r	.	2.r	.	2.ryy	2.ryy	2.ryy
.	.	.	16cc#\L	16ee\L	.	.	.	.	.	.	.	.	.	.	.	.
.	.	.	16b\JJ	16dd\JJ	.	.	.	.	.	.	.	.	.	.	.	.
4r	.	4r	8cc#\L	8ee\L	.	.	.	.	.	.	.	.	.	.	.	.
.	.	.	8f#/	8f#/	.	.	.	.	.	.	.	.	.	.	.	.
4r	.	4r	8f#/	8f#/	.	.	.	.	.	.	.	.	.	.	.	.
.	.	.	8f#/J	8f#/J	.	.	.	.	.	.	.	.	.	.	.	.
=144	=144	=144	=144	=144	=144	=144	=144	=144	=144	=144	=144	=144	=144	=144	=144	=144
!LO:TX:t=P:problem:brak jednego taktu	!	!	!	!	!	!	!	!	!	!	!	!	!	!	!	!
4F#\yy	.	4F#\	8cc#\L	8ee\L	.	2.r	.	2.r	.	2.r	.	2.r	.	2.ryy	2.ryy	2.ryy
.	.	.	16b\L	16dd\L	.	.	.	.	.	.	.	.	.	.	.	.
.	.	.	16a#X\JJ	16cc#\JJ	.	.	.	.	.	.	.	.	.	.	.	.
2ryy	.	4r	8b\L	8dd\L	.	.	.	.	.	.	.	.	.	.	.	.
.	.	.	8f#/	8f#/	.	.	.	.	.	.	.	.	.	.	.	.
.	.	4r	8f#/	8f#/	.	.	.	.	.	.	.	.	.	.	.	.
.	.	.	8f#/J	8f#/J	.	.	.	.	.	.	.	.	.	.	.	.
=145	=145	=145	=145	=145	=145	=145	=145	=145	=145	=145	=145	=145	=145	=145	=145	=145
!	!	!	!LO:TX:t=P:problem: brak tego taktu w źródle	!LO:TX:t=P:problem: brak tego taktu w źródle	!	!	!	!	!	!	!	!	!	!	!	!
2.F#\yy	.	4F#\	2.F#/yy	2.F#/yy	.	2.ryy	.	2.ryy	.	2.ryy	.	2.ryy	.	2.ryy	2.ryy	2.ryy
.	.	4r	.	.	.	.	.	.	.	.	.	.	.	.	.	.
.	.	4r	.	.	.	.	.	.	.	.	.	.	.	.	.	.
=146	=146	=146	=146	=146	=146	=146	=146	=146	=146	=146	=146	=146	=146	=146	=146	=146
4BB/	.	4BB/	4d/	8b/L	.	2.r	.	2.r	.	2.r	.	2.r	.	2.ryy	2.ryy	2.ryy
.	.	.	.	8f#/	.	.	.	.	.	.	.	.	.	.	.	.
4AA#X/	6	4AA#X/	4f#/	8cc#/	.	.	.	.	.	.	.	.	.	.	.	.
.	.	.	.	8f#/	.	.	.	.	.	.	.	.	.	.	.	.
4BB/	.	4BB/	4b/	8dd/	.	.	.	.	.	.	.	.	.	.	.	.
.	.	.	.	8f#/J	.	.	.	.	.	.	.	.	.	.	.	.
!	!	!	!LO:LB:g=original	!	!	!	!	!	!	!	!	!	!	!	!	!
=147	=147	=147	=147	=147	=147	=147	=147	=147	=147	=147	=147	=147	=147	=147	=147	=147
4C#/	6|	4C#/	2a/	4.ee\	.	2.r	.	2.r	.	2.r	.	2.r	.	2.ryy	2.ryy	2.ryy
4r	.	4r	.	.	.	.	.	.	.	.	.	.	.	.	.	.
.	.	.	.	8cc#\L	.	.	.	.	.	.	.	.	.	.	.	.
4r	.	4r	4cc#\	8ff#\	.	.	.	.	.	.	.	.	.	.	.	.
.	.	.	.	8ee\J	.	.	.	.	.	.	.	.	.	.	.	.
=148	=148	=148	=148	=148	=148	=148	=148	=148	=148	=148	=148	=148	=148	=148	=148	=148
4BB/	.	4BB/	4b/	8dd\L	.	2.r	.	2.r	.	2.r	.	2.r	.	2.ryy	2.ryy	2.ryy
.	.	.	.	8bb\J	.	.	.	.	.	.	.	.	.	.	.	.
4F#\	.	4F#\	2f#/	4f#/	.	.	.	.	.	.	.	.	.	.	.	.
4FF#/	.	4FF#/	.	4a#X/	.	.	.	.	.	.	.	.	.	.	.	.
=149	=149	=149	=149	=149	=149	=149	=149	=149	=149	=149	=149	=149	=149	=149	=149	=149
!LO:TX:b:i:t=Kyrie Da Capo Allegro	!	!LO:TX:b:i:t=Da Capo\nKirye	!	!LO:TX:b:i:t=Da Capo.	!	!	!	!	!	!	!	!	!	!	!	!
2.BB/	.	2.BB/	4f#/	4b/	.	2.r	.	2.r	.	2.r	.	2.r	.	2.ryy	2.ryy	2.ryy
.	.	.	4r;	4r	.	.	.	.	.	.	.	.	.	.	.	.
!	!	!	!LO:TX:b:i:t=Da Capo Kyrie	!	!	!	!	!	!	!	!	!	!	!	!	!
.	.	.	4r	4r	.	.	.	.	.	.	.	.	.	.	.	.
==	==	==	==	==	==	==	==	==	==	==	==	==	==	==	==	==
*-	*-	*-	*-	*-	*-	*-	*-	*-	*-	*-	*-	*-	*-	*-	*-	*-
!!!system-decoration: [(s1,s2)]s3[(s4,s5,s6,s7)][(s8,s9,s10)]s11
!!!RDF**kern: > = above
!!!RDF**kern: < = below
!!!ENC: Solarz Mateusz
!!!END: 2020-12-10
!!!AIN: 1 alto 1 bass 2 clrno 1 organ 1 soprn 1 tenor 1 timpa 1 violb 2 violn
!!!ENC: Natalia Wrzos
!!!END: 2022-03-22
